;FLAVOR:Marlin
;TIME:17966
;Filament used: 3.59724m
;Layer height: 0.4
;MINX:84.159
;MINY:75.498
;MINZ:0.4
;MAXX:135.841
;MAXY:139.659
;MAXZ:31.2
;Generated with Cura_SteamEngine 4.8.0
M105
M109 S0
M82 ;absolute extrusion mode
M302 P1

M106 S0

G92 E0
G28
G1 Z5.0 F3000
G92 E0
G92 E0
;LAYER_COUNT:78
;LAYER:0
M107
G0 F600 X95.154 Y77.924 Z0.4
;TYPE:SKIRT
G1 F120 X95.672 Y77.414 E0.09671
G1 X96.242 Y76.965 E0.19325
G1 X96.859 Y76.581 E0.28993
G1 X97.514 Y76.267 E0.38657
G1 X98.2 Y76.027 E0.48326
G1 X99.136 Y75.828 E0.61057
G1 X99.762 Y75.742 E0.69463
G1 X99.949 Y75.719 E0.7197
G1 X100.53 Y75.656 E0.79745
G1 X101.104 Y75.619 E0.87397
G1 X101.748 Y75.618 E0.95965
G1 X102.087 Y75.635 E1.00481
G1 X103.039 Y75.701 E1.13177
G1 X105.722 Y75.848 E1.48925
G1 X108.384 Y75.918 E1.84353
G1 X111.017 Y75.913 E2.19382
G1 X113.648 Y75.834 E2.54401
G1 X116.331 Y75.677 E2.90157
G1 X118.237 Y75.519 E3.15601
G1 X118.963 Y75.498 E3.25264
G1 X119.836 Y75.58 E3.3693
G1 X120.529 Y75.711 E3.46313
G1 X121.092 Y75.851 E3.54031
G1 X121.636 Y76.01 E3.61571
G1 X121.81 Y76.064 E3.63995
G1 X122.465 Y76.278 E3.73162
G1 X123.142 Y76.542 E3.8283
G1 X123.786 Y76.878 E3.92494
G1 X124.389 Y77.282 E4.0215
G1 X124.944 Y77.751 E4.11817
G1 X125.444 Y78.278 E4.21482
G1 X125.883 Y78.856 E4.31138
G1 X126.256 Y79.479 E4.40799
G1 X126.558 Y80.14 E4.50467
G1 X126.786 Y80.83 E4.60135
G1 X126.937 Y81.54 E4.69792
G1 X127.005 Y82.196 E4.78566
G1 X127.15 Y84.879 E5.14313
G1 X127.369 Y87.54 E5.49835
G1 X127.659 Y90.161 E5.84918
G1 X128.024 Y92.784 E6.2015
G1 X128.46 Y95.37 E6.5504
G1 X128.973 Y97.97 E6.90298
G1 X129.559 Y100.547 E7.25458
G1 X130.214 Y103.097 E7.60484
G1 X130.651 Y104.649 E7.81935
G1 X130.825 Y105.248 E7.90233
G1 X131.824 Y108.476 E8.35189
G1 X132.223 Y109.687 E8.52152
G1 X132.283 Y109.879 E8.54828
G1 X132.656 Y111.14 E8.72323
G1 X132.712 Y111.342 E8.75112
G1 X132.92 Y112.139 E8.8607
G1 X133.006 Y112.485 E8.90813
G1 X133.142 Y113.071 E8.98817
G1 X133.219 Y113.454 E9.04014
G1 X133.411 Y114.588 E9.19316
G1 X133.456 Y114.884 E9.23299
G1 X133.56 Y115.648 E9.33557
G1 X133.626 Y116.27 E9.41879
G1 X133.725 Y117.552 E9.58985
G1 X133.738 Y117.76 E9.61758
G1 X133.765 Y118.353 E9.69655
G1 X133.772 Y118.694 E9.74193
G1 X133.763 Y120.132 E9.93325
G1 X133.756 Y120.39 E9.96758
G1 X133.718 Y121.229 E10.07932
G1 X133.705 Y121.438 E10.10718
G1 X133.652 Y122.125 E10.19885
G1 X133.623 Y122.418 E10.23802
G1 X133.544 Y123.064 E10.3246
G1 X133.452 Y123.688 E10.40852
G1 X133.211 Y125.137 E10.60394
G1 X133.084 Y125.842 E10.69925
G1 X132.917 Y126.549 E10.79589
G1 X132.709 Y127.156 E10.88126
G1 X132.646 Y127.324 E10.90513
G1 X132.095 Y128.732 E11.10628
G1 X132.017 Y128.922 E11.13361
G1 X131.683 Y129.703 E11.24662
G1 X131.544 Y130.009 E11.29133
G1 X131.201 Y130.649 E11.38793
G1 X130.655 Y131.416 E11.51319
G1 X130.466 Y131.644 E11.55259
G1 X128.489 Y133.98 E11.95973
G1 X128.195 Y134.34 E12.02157
G1 X127.705 Y134.876 E12.11819
G1 X127.16 Y135.356 E12.21481
G1 X126.64 Y135.724 E12.29956
G1 X125.805 Y136.258 E12.43142
G1 X124.738 Y136.923 E12.59869
G1 X124.362 Y137.151 E12.65719
G1 X123.721 Y137.493 E12.75385
G1 X123.202 Y137.708 E12.82859
G1 X122.347 Y138.019 E12.94963
G1 X121.934 Y138.161 E13.00773
G1 X121.312 Y138.383 E13.09559
G1 X120.61 Y138.59 E13.19296
G1 X119.675 Y138.81 E13.32075
G1 X118.502 Y139.065 E13.48046
G1 X118.078 Y139.145 E13.53786
G1 X117.126 Y139.283 E13.66584
G1 X115.793 Y139.458 E13.8447
G1 X115.469 Y139.505 E13.88826
G1 X114.54 Y139.574 E14.01219
G1 X114.085 Y139.576 E14.07273
G1 X111.411 Y139.624 E14.42854
G1 X110.368 Y139.657 E14.56737
G1 X110.064 Y139.659 E14.60781
G1 X109.099 Y139.644 E14.73621
G1 X108.514 Y139.624 E14.81409
G1 X106.411 Y139.56 E15.094
G1 X105.212 Y139.539 E15.25354
G1 X104.638 Y139.504 E15.33005
G1 X104.308 Y139.468 E15.37421
G1 X103.168 Y139.328 E15.52702
G1 X102.264 Y139.225 E15.64806
G1 X101.527 Y139.098 E15.74756
G1 X100.673 Y138.9 E15.86419
G1 X99.302 Y138.564 E16.05199
G1 X98.579 Y138.343 E16.15257
G1 X97.667 Y138.005 E16.28197
G1 X97.352 Y137.882 E16.32695
G1 X96.675 Y137.63 E16.42306
G1 X96.009 Y137.34 E16.5197
G1 X95.499 Y137.053 E16.59756
G1 X94.448 Y136.401 E16.7621
G1 X94.212 Y136.264 E16.79841
G1 X93.37 Y135.724 E16.93149
G1 X92.781 Y135.298 E17.02819
G1 X92.064 Y134.624 E17.15911
G1 X91.703 Y134.219 E17.23129
G1 X90.454 Y132.722 E17.49067
G1 X89.57 Y131.685 E17.67196
G1 X89.307 Y131.364 E17.72717
G1 X88.879 Y130.777 E17.82382
G1 X88.43 Y129.963 E17.9475
G1 X88.217 Y129.495 E18.0159
G1 X88.08 Y129.166 E18.06332
G1 X87.742 Y128.302 E18.18675
G1 X87.553 Y127.778 E18.26086
G1 X87.502 Y127.628 E18.28194
G1 X87.314 Y127.045 E18.36343
G1 X87.162 Y126.552 E18.43207
G1 X86.959 Y125.863 E18.52763
G1 X86.788 Y125.132 E18.62751
G1 X86.63 Y124.222 E18.75038
G1 X86.581 Y123.903 E18.79332
G1 X86.478 Y123.181 E18.89035
G1 X86.455 Y123.005 E18.91396
G1 X86.388 Y122.424 E18.99177
G1 X86.368 Y122.223 E19.01865
G1 X86.292 Y121.322 E19.13894
G1 X86.277 Y121.084 E19.17067
G1 X86.24 Y120.315 E19.27309
G1 X86.232 Y120.047 E19.30876
G1 X86.224 Y118.959 E19.45352
G1 X86.226 Y118.738 E19.48292
G1 X86.243 Y118.086 E19.56969
G1 X86.271 Y117.53 E19.64376
G1 X86.339 Y116.588 E19.76941
G1 X86.367 Y116.297 E19.8083
G1 X86.472 Y115.399 E19.92858
G1 X86.499 Y115.195 E19.95596
G1 X86.677 Y114.001 E20.11657
G1 X86.774 Y113.405 E20.1969
G1 X86.893 Y112.832 E20.27476
G1 X87.133 Y111.895 E20.40344
G1 X87.362 Y111.055 E20.51928
G1 X87.665 Y110.036 E20.66071
G1 X87.722 Y109.855 E20.68596
G1 X88.086 Y108.753 E20.84036
G1 X88.601 Y107.086 E21.07248
G1 X89.175 Y105.291 E21.3232
G1 X89.947 Y102.741 E21.67766
G1 X90.642 Y100.181 E22.03057
G1 X91.263 Y97.614 E22.38194
G1 X91.822 Y94.984 E22.73965
G1 X92.281 Y92.462 E23.08069
G1 X92.689 Y89.806 E23.43819
G1 X93.015 Y87.201 E23.78747
G1 X93.266 Y84.576 E24.13829
G1 X93.403 Y82.506 E24.41429
G1 X93.454 Y81.853 E24.50143
G1 X93.55 Y81.133 E24.59806
G1 X93.725 Y80.428 E24.6947
G1 X93.976 Y79.747 E24.79126
G1 X94.301 Y79.097 E24.88795
G1 X94.695 Y78.487 E24.98456
G1 X95.154 Y77.924 E25.0812
G0 F600 X95.922 Y78.277
G1 F120 X96.429 Y77.823 E25.17174
G1 X96.987 Y77.432 E25.26239
G1 X97.586 Y77.109 E25.35293
G1 X98.219 Y76.858 E25.44352
G1 X98.877 Y76.684 E25.53407
G1 X99.245 Y76.621 E25.58374
G1 X99.871 Y76.535 E25.66781
G1 X100.035 Y76.515 E25.68979
G1 X100.616 Y76.452 E25.76754
G1 X101.121 Y76.419 E25.83486
G1 X101.715 Y76.418 E25.91389
G1 X102.032 Y76.433 E25.95611
G1 X103.012 Y76.501 E26.08681
G1 X105.692 Y76.648 E26.44389
G1 X108.364 Y76.718 E26.7995
G1 X111.043 Y76.713 E27.15591
G1 X113.684 Y76.634 E27.50743
G1 X116.361 Y76.477 E27.86419
G1 X118.303 Y76.316 E28.12344
G1 X118.984 Y76.299 E28.21407
G1 X119.708 Y76.37 E28.31085
G1 X120.368 Y76.495 E28.40022
G1 X120.882 Y76.623 E28.47069
G1 X121.409 Y76.777 E28.54374
G1 X122.216 Y77.039 E28.65662
G1 X122.85 Y77.288 E28.74724
G1 X123.45 Y77.61 E28.83783
G1 X124.008 Y77.999 E28.92833
G1 X124.517 Y78.452 E29.01898
G1 X124.969 Y78.961 E29.10954
G1 X125.359 Y79.519 E29.20011
G1 X125.68 Y80.119 E29.29064
G1 X125.929 Y80.753 E29.38126
G1 X126.102 Y81.412 E29.47191
G1 X126.207 Y82.239 E29.58282
G1 X126.355 Y84.986 E29.94881
G1 X126.57 Y87.589 E30.29629
G1 X126.864 Y90.252 E30.65273
G1 X127.236 Y92.924 E31.01164
G1 X127.673 Y95.515 E31.36122
G1 X128.188 Y98.125 E31.71515
G1 X128.784 Y100.746 E32.07275
G1 X129.439 Y103.299 E32.42341
G1 X129.895 Y104.919 E32.64731
G1 X130.043 Y105.427 E32.7177
G1 X131.07 Y108.744 E33.17967
G1 X131.463 Y109.938 E33.3469
G1 X131.516 Y110.106 E33.37034
G1 X131.889 Y111.367 E33.54529
G1 X131.938 Y111.544 E33.56972
G1 X132.144 Y112.334 E33.67834
G1 X132.227 Y112.666 E33.72386
G1 X132.363 Y113.252 E33.8039
G1 X132.431 Y113.589 E33.84964
G1 X132.621 Y114.709 E34.00077
G1 X132.663 Y114.992 E34.03883
G1 X132.767 Y115.756 E34.14141
G1 X132.829 Y116.331 E34.21836
G1 X132.928 Y117.613 E34.38942
G1 X132.939 Y117.796 E34.41381
G1 X132.966 Y118.389 E34.49279
G1 X132.972 Y118.689 E34.53271
G1 X132.963 Y120.127 E34.72402
G1 X132.957 Y120.353 E34.7541
G1 X132.919 Y121.192 E34.86584
G1 X132.908 Y121.376 E34.89036
G1 X132.855 Y122.063 E34.98203
G1 X132.829 Y122.321 E35.01653
G1 X132.75 Y122.967 E35.10311
G1 X132.661 Y123.568 E35.18394
G1 X132.424 Y124.995 E35.37639
G1 X132.297 Y125.7 E35.47169
G1 X132.046 Y126.638 E35.60088
G1 X131.901 Y127.033 E35.65686
G1 X131.35 Y128.441 E35.85801
G1 X131.282 Y128.608 E35.882
G1 X130.948 Y129.389 E35.99501
G1 X130.82 Y129.67 E36.03609
G1 X130.496 Y130.269 E36.12669
G1 X130.038 Y130.907 E36.23118
G1 X129.856 Y131.127 E36.26916
G1 X127.837 Y133.513 E36.68499
G1 X127.575 Y133.834 E36.74012
G1 X127.114 Y134.335 E36.8307
G1 X126.598 Y134.779 E36.92126
G1 X126.209 Y135.05 E36.98433
G1 X125.382 Y135.579 E37.11494
G1 X124.323 Y136.239 E37.28095
G1 X123.947 Y136.467 E37.33946
G1 X123.345 Y136.786 E37.4301
G1 X122.928 Y136.957 E37.49006
G1 X122.087 Y137.263 E37.60912
G1 X121.648 Y137.414 E37.67088
G1 X121.043 Y137.63 E37.75635
G1 X120.427 Y137.812 E37.8418
G1 X119.504 Y138.029 E37.96795
G1 X118.656 Y138.214 E38.08342
G1 X117.963 Y138.354 E38.17748
G1 X117.022 Y138.49 E38.30397
G1 X115.64 Y138.671 E38.4894
G1 X115.353 Y138.713 E38.52799
G1 X114.537 Y138.774 E38.63686
G1 X114.067 Y138.776 E38.69939
G1 X111.373 Y138.824 E39.05786
G1 X110.343 Y138.857 E39.19496
G1 X110.075 Y138.859 E39.23061
G1 X109.127 Y138.845 E39.35675
G1 X108.521 Y138.823 E39.43743
G1 X106.448 Y138.761 E39.71334
G1 X105.227 Y138.739 E39.87581
G1 X104.721 Y138.708 E39.94326
G1 X104.405 Y138.674 E39.98554
G1 X103.242 Y138.531 E40.14143
G1 X102.354 Y138.43 E40.26033
G1 X101.707 Y138.318 E40.34769
G1 X100.863 Y138.123 E40.46293
G1 X99.492 Y137.787 E40.65073
G1 X98.857 Y137.593 E40.73907
G1 X97.855 Y137.22 E40.88131
G1 X97.681 Y137.152 E40.90616
G1 X96.954 Y136.881 E41.00938
G1 X96.331 Y136.606 E41.09998
G1 X95.921 Y136.374 E41.16266
G1 X94.807 Y135.682 E41.33713
G1 X94.644 Y135.59 E41.36203
G1 X93.802 Y135.05 E41.49511
G1 X93.251 Y134.65 E41.5857
G1 X92.654 Y134.084 E41.69514
G1 X92.317 Y133.707 E41.76242
G1 X91.023 Y132.156 E42.03115
G1 X90.099 Y131.07 E42.22085
G1 X89.926 Y130.858 E42.25725
G1 X89.528 Y130.306 E42.34779
G1 X89.156 Y129.627 E42.45079
G1 X88.895 Y129.047 E42.53541
G1 X88.825 Y128.875 E42.56011
G1 X88.487 Y128.011 E42.68354
G1 X88.308 Y127.513 E42.75395
G1 X88.263 Y127.381 E42.7725
G1 X88.078 Y126.808 E42.85261
G1 X87.929 Y126.326 E42.91973
G1 X87.726 Y125.637 E43.01529
G1 X87.576 Y124.995 E43.103
G1 X87.421 Y124.098 E43.22411
G1 X87.373 Y123.79 E43.26558
G1 X87.27 Y123.068 E43.36261
G1 X87.25 Y122.913 E43.3834
G1 X87.183 Y122.332 E43.46121
G1 X87.166 Y122.156 E43.48473
G1 X87.09 Y121.255 E43.60503
G1 X87.076 Y121.046 E43.63289
G1 X87.039 Y120.277 E43.73532
G1 X87.032 Y120.041 E43.76673
G1 X87.024 Y118.953 E43.91148
G1 X87.026 Y118.759 E43.9373
G1 X87.043 Y118.107 E44.02407
G1 X87.069 Y117.587 E44.09334
G1 X87.137 Y116.645 E44.21899
G1 X87.161 Y116.389 E44.25319
G1 X87.266 Y115.491 E44.37348
G1 X87.29 Y115.313 E44.39737
G1 X87.466 Y114.129 E44.55662
G1 X87.563 Y113.533 E44.63696
G1 X87.668 Y113.03 E44.70532
G1 X87.905 Y112.105 E44.83236
G1 X88.134 Y111.265 E44.94819
G1 X88.431 Y110.265 E45.08698
G1 X88.481 Y110.105 E45.10928
G1 X88.871 Y108.924 E45.27474
G1 X89.363 Y107.33 E45.49668
G1 X89.941 Y105.523 E45.74909
G1 X90.716 Y102.963 E46.10493
G1 X91.421 Y100.369 E46.46256
G1 X92.044 Y97.791 E46.81541
G1 X92.604 Y95.157 E47.17367
G1 X93.072 Y92.583 E47.52173
G1 X93.481 Y89.918 E47.88044
G1 X93.808 Y87.308 E48.23039
G1 X94.064 Y84.638 E48.58723
G1 X94.201 Y82.568 E48.86323
G1 X94.252 Y81.915 E48.95037
G1 X94.344 Y81.241 E49.04087
G1 X94.516 Y80.582 E49.13148
G1 X94.763 Y79.947 E49.22213
G1 X95.083 Y79.346 E49.31271
G1 X95.471 Y78.787 E49.40324
G1 X95.922 Y78.277 E49.49382
G0 F600 X96.244 Y79.106
G1 F120 X96.686 Y78.654 E49.57793
G1 X97.181 Y78.261 E49.66201
G1 X97.722 Y77.934 E49.74611
G1 X98.3 Y77.677 E49.83027
G1 X98.905 Y77.496 E49.91428
G1 X99.353 Y77.414 E49.97488
G1 X100.121 Y77.31 E50.07798
G1 X100.702 Y77.247 E50.15573
G1 X101.378 Y77.214 E50.24578
G1 X101.976 Y77.231 E50.32537
G1 X102.98 Y77.301 E50.45926
G1 X105.661 Y77.448 E50.81648
G1 X108.345 Y77.518 E51.17368
G1 X111.033 Y77.513 E51.5313
G1 X113.753 Y77.431 E51.89333
G1 X116.393 Y77.277 E52.24516
G1 X118.369 Y77.113 E52.50895
G1 X119.001 Y77.101 E52.59305
G1 X119.58 Y77.16 E52.67047
G1 X120.207 Y77.278 E52.75536
G1 X120.783 Y77.426 E52.83448
G1 X121.313 Y77.585 E52.90809
G1 X121.968 Y77.799 E52.99977
G1 X122.555 Y78.033 E53.08384
G1 X123.108 Y78.339 E53.16792
G1 X123.618 Y78.713 E53.25206
G1 X124.077 Y79.148 E53.33619
G1 X124.477 Y79.637 E53.42024
G1 X124.813 Y80.173 E53.50441
G1 X125.078 Y80.747 E53.58852
G1 X125.268 Y81.349 E53.6725
G1 X125.408 Y82.282 E53.79802
G1 X125.556 Y85.025 E54.16348
G1 X125.774 Y87.67 E54.51656
G1 X126.073 Y90.377 E54.8789
G1 X126.443 Y93.03 E55.23527
G1 X126.886 Y95.66 E55.59009
G1 X127.405 Y98.288 E55.94648
G1 X128.007 Y100.938 E56.30802
G1 X128.665 Y103.501 E56.66006
G1 X129.126 Y105.136 E56.88606
G1 X129.292 Y105.709 E56.96543
G1 X130.299 Y108.96 E57.41822
G1 X130.703 Y110.188 E57.5902
G1 X130.749 Y110.333 E57.61044
G1 X131.122 Y111.594 E57.78539
G1 X131.164 Y111.747 E57.8065
G1 X131.368 Y112.528 E57.91389
G1 X131.448 Y112.847 E57.95764
G1 X131.584 Y113.433 E58.03768
G1 X131.642 Y113.723 E58.07702
G1 X131.83 Y114.83 E58.22641
G1 X131.87 Y115.1 E58.26272
G1 X131.991 Y115.999 E58.3834
G1 X132.031 Y116.393 E58.43609
G1 X132.13 Y117.675 E58.60716
G1 X132.14 Y117.833 E58.62822
G1 X132.167 Y118.426 E58.70719
G1 X132.172 Y118.684 E58.74152
G1 X132.163 Y120.122 E58.93284
G1 X132.158 Y120.317 E58.95879
G1 X132.12 Y121.156 E59.07053
G1 X132.11 Y121.315 E59.09172
G1 X132.057 Y122.002 E59.18339
G1 X132.035 Y122.224 E59.21307
G1 X131.956 Y122.87 E59.29966
G1 X131.87 Y123.448 E59.3774
G1 X131.637 Y124.853 E59.56688
G1 X131.51 Y125.558 E59.66218
G1 X131.293 Y126.367 E59.77361
G1 X131.156 Y126.741 E59.8266
G1 X130.605 Y128.149 E60.02776
G1 X130.546 Y128.293 E60.04846
G1 X130.212 Y129.074 E60.16147
G1 X130.095 Y129.332 E60.19916
G1 X129.792 Y129.886 E60.28317
G1 X129.421 Y130.398 E60.36729
G1 X129.245 Y130.611 E60.40405
G1 X127.231 Y132.991 E60.81884
G1 X126.956 Y133.328 E60.87671
G1 X126.526 Y133.791 E60.96077
G1 X126.041 Y134.196 E61.04483
G1 X125.778 Y134.377 E61.08731
G1 X124.958 Y134.901 E61.21677
G1 X123.909 Y135.555 E61.38124
G1 X123.533 Y135.783 E61.43974
G1 X122.972 Y136.076 E61.52394
G1 X122.654 Y136.205 E61.56959
G1 X121.826 Y136.506 E61.68681
G1 X121.408 Y136.65 E61.74562
G1 X120.774 Y136.876 E61.83517
G1 X120.243 Y137.033 E61.90884
G1 X119.334 Y137.247 E62.03308
G1 X118.542 Y137.42 E62.14093
G1 X117.848 Y137.562 E62.23517
G1 X116.918 Y137.697 E62.3602
G1 X115.498 Y137.883 E62.55073
G1 X115.238 Y137.921 E62.58569
G1 X114.534 Y137.974 E62.67961
G1 X114.049 Y137.976 E62.74414
G1 X111.334 Y138.025 E63.1054
G1 X110.318 Y138.057 E63.24064
G1 X110.087 Y138.059 E63.27137
G1 X109.155 Y138.045 E63.39538
G1 X108.571 Y138.025 E63.47312
G1 X106.414 Y137.96 E63.76022
G1 X105.241 Y137.939 E63.9163
G1 X104.587 Y137.889 E64.00356
G1 X103.317 Y137.734 E64.17378
G1 X102.445 Y137.635 E64.29054
G1 X101.887 Y137.539 E64.36586
G1 X101.054 Y137.346 E64.47962
G1 X99.683 Y137.01 E64.66742
G1 X99.135 Y136.842 E64.74367
G1 X98.145 Y136.475 E64.88414
G1 X97.891 Y136.376 E64.92041
G1 X97.234 Y136.131 E65.0137
G1 X96.656 Y135.873 E65.09791
G1 X96.343 Y135.694 E65.14588
G1 X95.218 Y134.995 E65.32209
G1 X95.076 Y134.917 E65.34364
G1 X94.234 Y134.377 E65.47672
G1 X93.724 Y134.003 E65.56086
G1 X93.245 Y133.544 E65.64912
G1 X92.932 Y133.194 E65.71159
G1 X91.672 Y131.684 E65.97323
G1 X90.719 Y130.564 E66.16888
G1 X90.546 Y130.352 E66.20528
G1 X90.178 Y129.838 E66.28938
G1 X89.882 Y129.291 E66.37213
G1 X89.63 Y128.732 E66.45371
G1 X89.57 Y128.584 E66.47495
G1 X89.232 Y127.72 E66.59838
G1 X89.063 Y127.248 E66.66508
G1 X88.842 Y126.571 E66.75983
G1 X88.697 Y126.1 E66.82539
G1 X88.494 Y125.411 E66.92095
G1 X88.364 Y124.857 E66.99666
G1 X88.211 Y123.974 E67.11588
G1 X88.165 Y123.677 E67.15587
G1 X88.062 Y122.955 E67.2529
G1 X87.978 Y122.241 E67.34854
G1 X87.963 Y122.088 E67.369
