;FLAVOR:Marlin
;TIME:6490
;Filament used: 1.68444m
;Layer height: 0.4
;MINX:93.4
;MINY:93.4
;MINZ:0.4
;MAXX:126.6
;MAXY:126.6
;MAXZ:10
;Generated with Cura_SteamEngine 4.8.0
M105
M109 S0
M82 ;absolute extrusion mode
M302 P1

M106 S0

G92 E0
G28
G1 Z5.0 F3000
G92 E0
G92 E0
;LAYER_COUNT:25
;LAYER:0
M107
G0 F600 X95.337 Y95.347 Z0.4
;TYPE:SKIRT
G1 F120 X95.878 Y94.862 E0.09666
G1 X96.468 Y94.439 E0.19325
G1 X97.102 Y94.084 E0.28992
G1 X97.77 Y93.8 E0.38649
G1 X98.466 Y93.592 E0.48313
G1 X99.181 Y93.461 E0.57984
G1 X99.824 Y93.412 E0.66563
G1 X100.33 Y93.4 E0.73297
G1 X119.293 Y93.4 E3.25581
G1 X120.086 Y93.411 E3.36133
G1 X120.81 Y93.461 E3.45788
G1 X121.525 Y93.591 E3.55456
G1 X122.221 Y93.798 E3.65117
G1 X122.89 Y94.081 E3.74781
G1 X123.524 Y94.435 E3.84441
G1 X124.115 Y94.857 E3.94102
G1 X124.657 Y95.342 E4.03779
G1 X125.141 Y95.883 E4.13436
G1 X125.564 Y96.474 E4.23105
G1 X125.918 Y97.107 E4.32754
G1 X126.202 Y97.776 E4.42423
G1 X126.409 Y98.472 E4.52084
G1 X126.539 Y99.187 E4.61752
G1 X126.588 Y99.824 E4.70252
G1 X126.6 Y100.33 E4.76986
G1 X126.599 Y119.346 E7.29976
G1 X126.59 Y120.073 E7.39648
G1 X126.542 Y120.797 E7.49302
G1 X126.413 Y121.512 E7.58968
G1 X126.207 Y122.209 E7.68637
G1 X125.926 Y122.879 E7.78303
G1 X125.573 Y123.513 E7.87957
G1 X125.152 Y124.105 E7.97622
G1 X124.668 Y124.647 E8.07289
G1 X124.128 Y125.133 E8.16954
G1 X123.538 Y125.557 E8.2662
G1 X122.905 Y125.913 E8.36282
G1 X122.237 Y126.197 E8.45939
G1 X121.541 Y126.406 E8.55607
G1 X120.827 Y126.538 E8.65267
G1 X120.176 Y126.588 E8.73954
G1 X119.67 Y126.6 E8.80688
G1 X100.622 Y126.599 E11.34103
G1 X99.924 Y126.59 E11.4339
G1 X99.199 Y126.541 E11.53058
G1 X98.484 Y126.412 E11.62724
G1 X97.788 Y126.206 E11.7238
G1 X97.118 Y125.924 E11.82051
G1 X96.484 Y125.571 E11.91706
G1 X95.892 Y125.15 E12.0137
G1 X95.35 Y124.666 E12.11037
G1 X94.865 Y124.126 E12.20694
G1 X94.441 Y123.535 E12.30371
G1 X94.086 Y122.902 E12.40026
G1 X93.802 Y122.234 E12.49683
G1 X93.593 Y121.538 E12.59351
G1 X93.462 Y120.823 E12.69022
G1 X93.411 Y120.169 E12.77749
G1 X93.4 Y119.658 E12.84549
G1 X93.401 Y100.585 E15.38297
G1 X93.41 Y99.92 E15.47145
G1 X93.459 Y99.195 E15.56813
G1 X93.588 Y98.48 E15.66479
G1 X93.795 Y97.784 E15.76139
G1 X94.078 Y97.115 E15.85803
G1 X94.431 Y96.48 E15.95469
G1 X94.853 Y95.889 E16.0513
G1 X95.337 Y95.347 E16.14798
G0 F600 X96.119 Y95.707
G1 F120 X96.65 Y95.28 E16.23863
G1 X97.228 Y94.919 E16.32929
G1 X97.843 Y94.628 E16.41981
G1 X98.489 Y94.412 E16.51043
G1 X99.155 Y94.272 E16.60097
G1 X99.846 Y94.211 E16.69326
G1 X100.33 Y94.2 E16.75767
G1 X119.293 Y94.2 E19.28052
G1 X120.074 Y94.211 E19.38443
G1 X120.753 Y94.26 E19.475
G1 X121.422 Y94.389 E19.56565
G1 X122.071 Y94.596 E19.65627
G1 X122.691 Y94.877 E19.74684
G1 X123.274 Y95.228 E19.83737
G1 X123.811 Y95.646 E19.92791
G1 X124.297 Y96.124 E20.0186
G1 X124.722 Y96.655 E20.10908
G1 X125.083 Y97.233 E20.19975
G1 X125.373 Y97.849 E20.29033
G1 X125.589 Y98.494 E20.38082
G1 X125.728 Y99.161 E20.47147
G1 X125.789 Y99.847 E20.56309
G1 X125.8 Y100.33 E20.62737
G1 X125.8 Y119.336 E23.15594
G1 X125.791 Y120.063 E23.25266
G1 X125.742 Y120.742 E23.34323
G1 X125.615 Y121.411 E23.43383
G1 X125.409 Y122.06 E23.52441
G1 X125.13 Y122.681 E23.61499
G1 X124.779 Y123.264 E23.70552
G1 X124.362 Y123.803 E23.79619
G1 X123.886 Y124.289 E23.88669
G1 X123.355 Y124.716 E23.97734
G1 X122.778 Y125.077 E24.06789
G1 X122.163 Y125.369 E24.15847
G1 X121.518 Y125.586 E24.24901
G1 X120.851 Y125.727 E24.3397
G1 X120.154 Y125.789 E24.4328
G1 X119.67 Y125.8 E24.49721
G1 X100.632 Y125.8 E27.03003
G1 X99.934 Y125.791 E27.1229
G1 X99.255 Y125.742 E27.21347
G1 X98.586 Y125.614 E27.30409
G1 X97.937 Y125.408 E27.39468
G1 X97.317 Y125.128 E27.48519
G1 X96.733 Y124.777 E27.57584
G1 X96.195 Y124.36 E27.6664
G1 X95.709 Y123.883 E27.75699
G1 X95.282 Y123.353 E27.84754
G1 X94.921 Y122.776 E27.93809
G1 X94.63 Y122.16 E28.02873
G1 X94.413 Y121.515 E28.11927
G1 X94.273 Y120.848 E28.20994
G1 X94.211 Y120.148 E28.30343
G1 X94.2 Y119.658 E28.36864
G1 X94.201 Y100.596 E30.90466
G1 X94.21 Y99.931 E30.99314
G1 X94.259 Y99.251 E31.08384
G1 X94.387 Y98.583 E31.17433
G1 X94.593 Y97.934 E31.26491
G1 X94.874 Y97.313 E31.3556
G1 X95.225 Y96.73 E31.44613
G1 X95.642 Y96.192 E31.53669
G1 X96.119 Y95.707 E31.62719
G0 F600 X96.429 Y96.519
G1 F120 X96.897 Y96.095 E31.71121
G1 X97.416 Y95.734 E31.79532
G1 X97.976 Y95.441 E31.8794
G1 X98.569 Y95.221 E31.96355
G1 X99.185 Y95.077 E32.04771
G1 X99.869 Y95.011 E32.13913
G1 X100.33 Y95 E32.20048
G1 X119.293 Y95 E34.72333
G1 X120.063 Y95.011 E34.82578
G1 X120.693 Y95.06 E34.90985
G1 X121.312 Y95.188 E34.99395
G1 X121.91 Y95.393 E35.07805
G1 X122.477 Y95.672 E35.16212
G1 X123.005 Y96.02 E35.24625
G1 X123.484 Y96.432 E35.33031
G1 X123.907 Y96.902 E35.41443
G1 X124.268 Y97.421 E35.49854
G1 X124.561 Y97.981 E35.58263
G1 X124.78 Y98.574 E35.66673
G1 X124.923 Y99.19 E35.75086
G1 X124.989 Y99.869 E35.84162
G1 X125 Y100.33 E35.90297
G1 X125 Y119.326 E38.43021
G1 X124.991 Y120.053 E38.52693
G1 X124.943 Y120.683 E38.61099
G1 X124.816 Y121.302 E38.69506
G1 X124.612 Y121.901 E38.77925
G1 X124.334 Y122.469 E38.86338
G1 X123.987 Y122.997 E38.94744
G1 X123.575 Y123.477 E39.03159
G1 X123.107 Y123.901 E39.11561
G1 X122.589 Y124.263 E39.19969
G1 X122.029 Y124.557 E39.28383
G1 X121.437 Y124.777 E39.36785
G1 X120.821 Y124.922 E39.45205
G1 X120.131 Y124.989 E39.54428
G1 X119.67 Y125 E39.60563
G1 X100.643 Y125 E42.13699
G1 X99.945 Y124.991 E42.22986
G1 X99.314 Y124.942 E42.31406
G1 X98.695 Y124.815 E42.39813
G1 X98.097 Y124.611 E42.48219
G1 X97.529 Y124.333 E42.56632
G1 X97.001 Y123.985 E42.65045
G1 X96.521 Y123.574 E42.73452
G1 X96.097 Y123.105 E42.81864
G1 X95.735 Y122.587 E42.90271
G1 X95.442 Y122.027 E42.9868
G1 X95.222 Y121.434 E43.07094
G1 X95.078 Y120.819 E43.15498
G1 X95.011 Y120.126 E43.2476
G1 X95 Y119.658 E43.30988
G1 X95 Y100.606 E45.84457
G1 X95.009 Y99.941 E45.93305
G1 X95.058 Y99.311 E46.01712
G1 X95.186 Y98.692 E46.10121
G1 X95.39 Y98.094 E46.18527
G1 X95.669 Y97.526 E46.26947
G1 X96.017 Y96.999 E46.35348
G1 X96.429 Y96.519 E46.43764
G0 F600 X97.211 Y96.877
G1 F120 X97.669 Y96.521 E46.51482
G1 X98.171 Y96.233 E46.59181
G1 X98.708 Y96.016 E46.66887
G1 X99.27 Y95.875 E46.74596
G1 X99.891 Y95.811 E46.82901
G1 X100.33 Y95.8 E46.88743
G1 X119.353 Y95.8 E49.41826
G1 X120.051 Y95.81 E49.51114
G1 X120.628 Y95.859 E49.58818
G1 X121.194 Y95.986 E49.66535
G1 X121.736 Y96.19 E49.7424
G1 X122.245 Y96.466 E49.81943
G1 X122.711 Y96.81 E49.89649
G1 X123.126 Y97.215 E49.97363
G1 X123.481 Y97.673 E50.05073
G1 X123.769 Y98.175 E50.12772
G1 X123.986 Y98.712 E50.20478
G1 X124.126 Y99.274 E50.28183
G1 X124.189 Y99.892 E50.36448
G1 X124.2 Y100.33 E50.42277
G1 X124.2 Y119.316 E52.94868
G1 X124.191 Y120.043 E53.0454
G1 X124.144 Y120.62 E53.12242
G1 X124.017 Y121.186 E53.1996
G1 X123.815 Y121.728 E53.27655
G1 X123.539 Y122.238 E53.3537
G1 X123.196 Y122.705 E53.43079
G1 X122.792 Y123.12 E53.50784
G1 X122.335 Y123.476 E53.58491
G1 X121.833 Y123.765 E53.66197
G1 X121.296 Y123.983 E53.73908
G1 X120.735 Y124.125 E53.81607
G1 X120.109 Y124.189 E53.89979
G1 X119.67 Y124.2 E53.95821
G1 X100.653 Y124.2 E56.48824
G1 X99.955 Y124.191 E56.58111
G1 X99.377 Y124.143 E56.65827
G1 X98.812 Y124.017 E56.73529
G1 X98.27 Y123.814 E56.81229
G1 X97.76 Y123.538 E56.88944
G1 X97.293 Y123.195 E56.96652
G1 X96.878 Y122.791 E57.04358
G1 X96.523 Y122.333 E57.12067
G1 X96.234 Y121.831 E57.19773
G1 X96.016 Y121.294 E57.27484
G1 X95.875 Y120.733 E57.3518
G1 X95.811 Y120.104 E57.43591
G1 X95.8 Y119.658 E57.49526
G1 X95.8 Y100.617 E60.02849
G1 X95.809 Y99.952 E60.11697
G1 X95.857 Y99.375 E60.194
G1 X95.984 Y98.81 E60.27104
G1 X96.187 Y98.267 E60.34817
G1 X96.463 Y97.758 E60.4252
G1 X96.807 Y97.291 E60.50237
G1 X97.211 Y96.877 E60.57932
G0 F600 X97.594 Y97.616
G1 F120 X97.988 Y97.275 E60.64865
G1 X98.429 Y96.998 E60.71793
G1 X98.908 Y96.792 E60.7873
G1 X99.412 Y96.662 E60.85655
G1 X99.914 Y96.61 E60.92369
G1 X100.33 Y96.6 E60.97905
G1 X119.342 Y96.6 E63.50842
G1 X120.04 Y96.61 E63.60129
G1 X120.559 Y96.658 E63.67063
G1 X121.064 Y96.784 E63.73988
G1 X121.545 Y96.986 E63.80929
G1 X121.989 Y97.259 E63.87863
G1 X122.386 Y97.596 E63.94791
G1 X122.726 Y97.991 E64.01725
G1 X123.003 Y98.433 E64.08664
G1 X123.209 Y98.911 E64.15589
G1 X123.339 Y99.416 E64.22527
G1 X123.39 Y99.914 E64.29187
G1 X123.4 Y100.33 E64.34723
G1 X123.4 Y119.306 E66.87181
G1 X123.391 Y120.033 E66.96853
G1 X123.344 Y120.552 E67.03787
G1 X123.219 Y121.058 E67.10721
G1 X123.018 Y121.539 E67.17656
G1 X122.746 Y121.983 E67.24584
G1 X122.409 Y122.381 E67.31522
G1 X122.016 Y122.723 E67.38453
G1 X121.574 Y123 E67.45393
G1 X121.096 Y123.206 E67.52317
G1 X120.591 Y123.338 E67.59262
G1 X120.086 Y123.39 E67.66016
G1 X119.67 Y123.4 E67.71552
G1 X100.663 Y123.4 E70.24422
G1 X99.965 Y123.391 E70.33709
G1 X99.446 Y123.344 E70.40642
G1 X98.94 Y123.219 E70.47576
G1 X98.46 Y123.017 E70.54505
G1 X98.015 Y122.745 E70.61443
G1 X97.618 Y122.408 E70.68371
G1 X97.276 Y122.014 E70.75312
G1 X96.999 Y121.573 E70.82241
G1 X96.793 Y121.094 E70.89178
G1 X96.662 Y120.59 E70.96106
G1 X96.61 Y120.083 E71.02886
G1 X96.6 Y119.658 E71.08542
G1 X96.6 Y100.628 E73.61718
G1 X96.609 Y99.963 E73.70566
G1 X96.656 Y99.444 E73.77499
G1 X96.782 Y98.938 E73.84437
G1 X96.984 Y98.458 E73.91365
G1 X97.256 Y98.013 E73.98304
G1 X97.594 Y97.616 E74.05241
;MESH:cube.stl
G0 F600 X99.335 Y100.764
G0 X119.15 Y119.18
G0 X119.25 Y119.25
;TYPE:WALL-OUTER
G1 F120 X100.75 Y119.25 E76.51366
G1 X100.75 Y100.75 E78.97491
G1 X119.25 Y100.75 E81.43616
G1 X119.25 Y119.25 E83.89741
G0 F600 X118.5 Y119.25
G0 X118.46 Y118.46
;TYPE:SKIN
G1 F120 X101.54 Y118.46 E86.14845
G1 X101.54 Y101.54 E88.3995
G1 X118.46 Y101.54 E90.65054
G1 X118.46 Y118.46 E92.90159
G0 F600 X118.099 Y102.26
G1 F120 X117.738 Y101.899 E92.96951
G0 F600 X116.607 Y101.899
G1 F120 X118.099 Y103.391 E93.25023
G0 F600 X118.099 Y104.523
G1 F120 X115.476 Y101.899 E93.74383
G0 F600 X114.344 Y101.899
G1 F120 X118.099 Y105.654 E94.45033
G0 F600 X118.099 Y106.785
G1 F120 X113.213 Y101.899 E95.36962
G0 F600 X112.082 Y101.899
G1 F120 X118.099 Y107.917 E96.5018
G0 F600 X118.099 Y109.048
G1 F120 X110.95 Y101.899 E97.84686
G0 F600 X109.819 Y101.899
G1 F120 X118.099 Y110.179 E99.40473
G0 F600 X118.099 Y111.311
G1 F120 X108.687 Y101.899 E101.17557
G0 F600 X107.556 Y101.899
G1 F120 X118.099 Y112.442 E103.15922
G0 F600 X118.099 Y113.574
G1 F120 X106.425 Y101.899 E105.35575
G0 F600 X105.293 Y101.899
G1 F120 X118.099 Y114.705 E107.76517
G0 F600 X118.099 Y115.836
G1 F120 X104.162 Y101.899 E110.38738
G0 F600 X103.031 Y101.899
G1 F120 X118.099 Y116.968 E113.22249
G0 F600 X118.099 Y118.099
G1 F120 X101.899 Y101.899 E116.27048
G0 F600 X101.899 Y103.031
G1 F120 X116.968 Y118.099 E119.10558
G0 F600 X115.836 Y118.099
G1 F120 X101.899 Y104.162 E121.7278
G0 F600 X101.899 Y105.293
G1 F120 X114.705 Y118.099 E124.13722
G0 F600 X113.574 Y118.099
G1 F120 X101.899 Y106.425 E126.33375
G0 F600 X101.899 Y107.556
G1 F120 X112.442 Y118.099 E128.31739
G0 F600 X111.311 Y118.099
G1 F120 X101.899 Y108.687 E130.08824
G0 F600 X101.899 Y109.819
G1 F120 X110.179 Y118.099 E131.6461
G0 F600 X109.048 Y118.099
G1 F120 X101.899 Y110.95 E132.99117
G0 F600 X101.899 Y112.082
G1 F120 X107.917 Y118.099 E134.12335
G0 F600 X106.785 Y118.099
G1 F120 X101.899 Y113.213 E135.04264
G0 F600 X101.899 Y114.344
G1 F120 X105.654 Y118.099 E135.74913
G0 F600 X104.523 Y118.099
G1 F120 X101.899 Y115.476 E136.24274
G0 F600 X101.899 Y116.607
G1 F120 X103.391 Y118.099 E136.52345
G0 F600 X102.26 Y118.099
G1 F120 X101.899 Y117.738 E136.59138
;MESH:NONMESH
G0 F600 X101.899 Y117.738 Z0.8
G0 X115.6 Y115.6
;TIME_ELAPSED:536.754804
;LAYER:1
;TYPE:WALL-INNER
;MESH:cube.stl
G1 F120 X104.4 Y115.6 E138.08143
G1 X104.4 Y104.4 E139.57148
G1 X115.6 Y104.4 E141.06154
G1 X115.6 Y115.6 E142.55159
G0 F600 X116.4 Y116.4
G1 F120 X103.6 Y116.4 E144.25451
G1 X103.6 Y103.6 E145.95743
G1 X116.4 Y103.6 E147.66035
G1 X116.4 Y116.4 E149.36327
G0 F600 X117.2 Y117.2
G1 F120 X102.8 Y117.2 E151.27905
G1 X102.8 Y102.8 E153.19483
G1 X117.2 Y102.8 E155.11062
G1 X117.2 Y117.2 E157.0264
G0 F600 X118 Y118
G1 F120 X102 Y118 E159.15505
G1 X102 Y102 E161.2837
G1 X118 Y102 E163.41235
G1 X118 Y118 E165.541
G0 F600 X118.8 Y118.8
G1 F120 X101.2 Y118.8 E167.88251
G1 X101.2 Y101.2 E170.22402
G1 X118.8 Y101.2 E172.56554
G1 X118.8 Y118.8 E174.90705
G0 F600 X119.25 Y119.25
;TYPE:WALL-OUTER
G1 F120 X100.75 Y119.25 E177.3683
G1 X100.75 Y100.75 E179.82955
G1 X119.25 Y100.75 E182.2908
G1 X119.25 Y119.25 E184.75205
G0 F600 X118.5 Y119.25
G0 X118.5 Y118.7
G0 X114.81 Y114.81
;TYPE:SKIN
G1 F120 X105.19 Y114.81 E186.0319
G1 X105.19 Y105.19 E187.31175
G1 X114.81 Y105.19 E188.5916
G1 X114.81 Y114.81 E189.87145
G0 F600 X114.087 Y114.449
G1 F120 X114.449 Y114.087 E189.93956
G0 F600 X114.449 Y112.956
G1 F120 X112.956 Y114.449 E190.22046
G0 F600 X111.824 Y114.449
G1 F120 X114.449 Y111.824 E190.71435
G0 F600 X114.449 Y110.693
G1 F120 X110.693 Y114.449 E191.42104
G0 F600 X109.561 Y114.449
G1 F120 X114.449 Y109.561 E192.3407
G0 F600 X114.449 Y108.43
G1 F120 X108.43 Y114.449 E193.47316
G0 F600 X107.299 Y114.449
G1 F120 X114.449 Y107.299 E194.81842
G0 F600 X114.449 Y106.167
G1 F120 X106.167 Y114.449 E196.37666
G0 F600 X105.549 Y113.936
G1 F120 X113.936 Y105.549 E197.95465
G0 F600 X112.804 Y105.549
G1 F120 X105.549 Y112.804 E199.31967
G0 F600 X105.549 Y111.673
G1 F120 X111.673 Y105.549 E200.47188
G0 F600 X110.542 Y105.549
G1 F120 X105.549 Y110.542 E201.4113
G0 F600 X105.549 Y109.41
G1 F120 X109.41 Y105.549 E202.13774
G0 F600 X108.279 Y105.549
G1 F120 X105.549 Y108.279 E202.65139
G0 F600 X105.549 Y107.147
G1 F120 X107.147 Y105.549 E202.95205
G0 F600 X106.016 Y105.549
G1 F120 X105.549 Y106.016 E203.03991
;MESH:NONMESH
G0 F600 X105.549 Y106.016 Z1.2
G0 X118.73 Y118.73
G0 X119.25 Y119.25
;TIME_ELAPSED:791.474081
;LAYER:2
;TYPE:WALL-OUTER
;MESH:cube.stl
G1 F120 X100.75 Y119.25 E205.50116
G1 X100.75 Y100.75 E207.96241
G1 X119.25 Y100.75 E210.42366
G1 X119.25 Y119.25 E212.88491
G0 F600 X118.5 Y119.25
G0 X118.46 Y118.46
;TYPE:SKIN
G1 F120 X101.54 Y118.46 E215.13596
G1 X101.54 Y101.54 E217.387
G1 X118.46 Y101.54 E219.63805
G1 X118.46 Y118.46 E221.88909
G0 F600 X118.099 Y102.26
G1 F120 X117.738 Y101.899 E221.95702
G0 F600 X116.607 Y101.899
G1 F120 X118.099 Y103.391 E222.23773
G0 F600 X118.099 Y104.523
G1 F120 X115.476 Y101.899 E222.73134
G0 F600 X114.344 Y101.899
G1 F120 X118.099 Y105.654 E223.43783
G0 F600 X118.099 Y106.785
G1 F120 X113.213 Y101.899 E224.35712
G0 F600 X112.082 Y101.899
G1 F120 X118.099 Y107.917 E225.4893
G0 F600 X118.099 Y109.048
G1 F120 X110.95 Y101.899 E226.83437
G0 F600 X109.819 Y101.899
G1 F120 X118.099 Y110.179 E228.39223
G0 F600 X118.099 Y111.311
G1 F120 X108.687 Y101.899 E230.16308
G0 F600 X107.556 Y101.899
G1 F120 X118.099 Y112.442 E232.14672
G0 F600 X118.099 Y113.574
G1 F120 X106.425 Y101.899 E234.34325
G0 F600 X105.293 Y101.899
G1 F120 X118.099 Y114.705 E236.75267
G0 F600 X118.099 Y115.836
G1 F120 X104.162 Y101.899 E239.37489
G0 F600 X103.031 Y101.899
G1 F120 X118.099 Y116.968 E242.20999
G0 F600 X118.099 Y118.099
G1 F120 X101.899 Y101.899 E245.25798
G0 F600 X101.899 Y103.031
G1 F120 X116.968 Y118.099 E248.09309
G0 F600 X115.836 Y118.099
G1 F120 X101.899 Y104.162 E250.7153
G0 F600 X101.899 Y105.293
G1 F120 X114.705 Y118.099 E253.12472
G0 F600 X113.574 Y118.099
G1 F120 X101.899 Y106.425 E255.32125
G0 F600 X101.899 Y107.556
G1 F120 X112.442 Y118.099 E257.3049
G0 F600 X111.311 Y118.099
G1 F120 X101.899 Y108.687 E259.07574
G0 F600 X101.899 Y109.819
G1 F120 X110.179 Y118.099 E260.63361
G0 F600 X109.048 Y118.099
G1 F120 X101.899 Y110.95 E261.97867
G0 F600 X101.899 Y112.082
G1 F120 X107.917 Y118.099 E263.11085
G0 F600 X106.785 Y118.099
G1 F120 X101.899 Y113.213 E264.03014
G0 F600 X101.899 Y114.344
G1 F120 X105.654 Y118.099 E264.73664
G0 F600 X104.523 Y118.099
G1 F120 X101.899 Y115.476 E265.23024
G0 F600 X101.899 Y116.607
G1 F120 X103.391 Y118.099 E265.51096
G0 F600 X102.26 Y118.099
G1 F120 X101.899 Y117.738 E265.57888
;MESH:NONMESH
G0 F600 X101.899 Y117.738 Z1.6
G0 X115.6 Y115.6
;TIME_ELAPSED:1033.009625
;LAYER:3
;TYPE:WALL-INNER
;MESH:cube.stl
