;FLAVOR:Marlin
;TIME:31500
;Filament used: 4.17941m
;Layer height: 0.3
;MINX:83.702
;MINY:78.356
;MINZ:0.3
;MAXX:136.298
;MAXY:139.108
;MAXZ:31.2
;Generated with Cura_SteamEngine 4.8.0
M105
M109 S0
M82 ;absolute extrusion mode
M302 P1

M106 S0

G92 E0
G28
G1 Z5.0 F3000
G92 E0
G92 E0
;LAYER_COUNT:104
;LAYER:0
M107
G0 F600 X98.13 Y82.869 Z0.3
;TYPE:SKIRT
G1 F120 X98.513 Y82.425 E0.04388
G1 X98.967 Y81.97 E0.09198
G1 X99.566 Y81.439 E0.15189
G1 X99.991 Y81.09 E0.19304
G1 X100.502 Y80.694 E0.24142
G1 X100.944 Y80.383 E0.28186
G1 X101.526 Y80.041 E0.33238
G1 X102.224 Y79.741 E0.38924
G1 X102.645 Y79.593 E0.42263
G1 X103.939 Y79.158 E0.5248
G1 X104.784 Y78.863 E0.59177
G1 X105.414 Y78.664 E0.64122
G1 X105.564 Y78.622 E0.65287
G1 X106.224 Y78.479 E0.70341
G1 X106.968 Y78.413 E0.75931
G1 X107.909 Y78.391 E0.82975
G1 X109.116 Y78.38 E0.92008
G1 X110.047 Y78.358 E0.98977
G1 X110.257 Y78.356 E1.00548
G1 X111.613 Y78.375 E1.10697
G1 X113.02 Y78.411 E1.2123
G1 X113.77 Y78.48 E1.26866
G1 X114.438 Y78.613 E1.31963
G1 X116.053 Y78.949 E1.44308
G1 X116.153 Y78.972 E1.45076
G1 X116.8 Y79.162 E1.50122
G1 X117.525 Y79.48 E1.56047
G1 X117.925 Y79.69 E1.59427
G1 X118.368 Y79.949 E1.63268
G1 X118.913 Y80.301 E1.68123
G1 X119.572 Y80.767 E1.74163
G1 X119.781 Y80.927 E1.76133
G1 X120.318 Y81.359 E1.8129
G1 X120.772 Y81.752 E1.85784
G1 X120.991 Y81.958 E1.88034
G1 X121.523 Y82.532 E1.93891
G1 X121.896 Y83.047 E1.9865
G1 X122.479 Y83.955 E2.06725
G1 X122.872 Y84.562 E2.12136
G1 X123.26 Y85.267 E2.18158
G1 X123.372 Y85.511 E2.20167
G1 X123.791 Y86.463 E2.27951
G1 X124.091 Y87.325 E2.34782
G1 X124.241 Y87.907 E2.39279
G1 X124.662 Y89.63 E2.52553
G1 X125.367 Y92.202 E2.7251
G1 X126.146 Y94.757 E2.925
G1 X127.002 Y97.302 E3.12594
G1 X127.906 Y99.759 E3.32186
G1 X128.908 Y102.262 E3.52362
G1 X129.864 Y104.456 E3.70272
G1 X130.079 Y104.964 E3.744
G1 X130.199 Y105.272 E3.76874
G1 X130.39 Y105.809 E3.81139
G1 X131.194 Y107.979 E3.98457
G1 X131.608 Y109.061 E4.07127
G1 X131.912 Y109.908 E4.13861
G1 X132.112 Y110.491 E4.18474
G1 X132.254 Y110.977 E4.22263
G1 X132.52 Y112.058 E4.30594
G1 X132.63 Y112.541 E4.34301
G1 X132.827 Y113.464 E4.41364
G1 X132.943 Y114.118 E4.46335
G1 X133.022 Y115.083 E4.5358
G1 X133.019 Y115.88 E4.59545
G1 X133.048 Y118.715 E4.80762
G1 X133.033 Y120.333 E4.9287
G1 X133.008 Y120.992 E4.97806
G1 X132.994 Y121.212 E4.99455
G1 X132.927 Y122.034 E5.05627
G1 X132.902 Y122.281 E5.07485
G1 X132.802 Y123.078 E5.13496
G1 X132.779 Y123.239 E5.14713
G1 X132.687 Y123.834 E5.19219
G1 X132.632 Y124.162 E5.21708
G1 X132.519 Y124.78 E5.26409
G1 X132.45 Y125.106 E5.28903
G1 X132.289 Y125.766 E5.33987
G1 X132.062 Y126.6 E5.40455
G1 X131.97 Y126.905 E5.42839
G1 X131.633 Y127.911 E5.50779
G1 X131.422 Y128.481 E5.55327
G1 X131.166 Y129.106 E5.60382
G1 X130.916 Y129.65 E5.64862
G1 X130.665 Y130.145 E5.69016
G1 X130.324 Y130.728 E5.7407
G1 X130.031 Y131.129 E5.77787
G1 X129.428 Y131.882 E5.85006
G1 X128.827 Y132.612 E5.92082
G1 X128.615 Y132.879 E5.94633
G1 X127.757 Y133.919 E6.04723
G1 X127.467 Y134.248 E6.08005
G1 X127.093 Y134.646 E6.12092
G1 X126.677 Y135.046 E6.16411
G1 X126.578 Y135.132 E6.17392
G1 X126.043 Y135.544 E6.22446
G1 X125.599 Y135.817 E6.26346
G1 X124.366 Y136.499 E6.36891
G1 X123.755 Y136.791 E6.41959
G1 X123.385 Y136.937 E6.44935
G1 X122.293 Y137.336 E6.53636
G1 X121.464 Y137.647 E6.60262
G1 X121.334 Y137.694 E6.61296
G1 X120.658 Y137.929 E6.66652
G1 X120.066 Y138.099 E6.71261
G1 X119.721 Y138.178 E6.7391
G1 X118.509 Y138.43 E6.83174
G1 X117.772 Y138.57 E6.88788
G1 X117.161 Y138.681 E6.93435
G1 X116.01 Y138.875 E7.0217
G1 X115.373 Y138.946 E7.06967
G1 X114.603 Y138.988 E7.12738
G1 X114.363 Y138.997 E7.14535
G1 X113.184 Y139.052 E7.23368
G1 X112.867 Y139.058 E7.2574
G1 X112.11 Y139.051 E7.31406
G1 X109.422 Y139.064 E7.51522
G1 X108.762 Y139.085 E7.56463
G1 X107.554 Y139.108 E7.65505
G1 X107.029 Y139.094 E7.69435
G1 X106.171 Y139.054 E7.75863
G1 X105.996 Y139.035 E7.7718
G1 X104.69 Y138.961 E7.8697
G1 X104.067 Y138.891 E7.91661
G1 X103.479 Y138.792 E7.96123
G1 X102.397 Y138.619 E8.04323
G1 X101.812 Y138.517 E8.08767
G1 X101.477 Y138.449 E8.11325
G1 X100.802 Y138.288 E8.16519
G1 X99.71 Y138.014 E8.24944
G1 X98.905 Y137.763 E8.31254
G1 X98.257 Y137.538 E8.36387
G1 X97.642 Y137.328 E8.41251
G1 X97.407 Y137.24 E8.43129
G1 X96.697 Y136.963 E8.48832
G1 X96.234 Y136.773 E8.52577
G1 X95.626 Y136.48 E8.57628
G1 X95.261 Y136.259 E8.60821
G1 X94.695 Y135.886 E8.65894
G1 X94.539 Y135.769 E8.67353
G1 X93.402 Y134.982 E8.77701
G1 X92.739 Y134.461 E8.84012
G1 X92.266 Y134.058 E8.88662
G1 X91.601 Y133.476 E8.95275
G1 X91.12 Y133.002 E9.00329
G1 X90.749 Y132.545 E9.04734
G1 X90.321 Y131.925 E9.10372
G1 X90.19 Y131.723 E9.12174
G1 X89.882 Y131.223 E9.16568
G1 X89.662 Y130.831 E9.19932
G1 X89.116 Y129.765 E9.28895
G1 X88.837 Y129.146 E9.33976
G1 X88.773 Y128.987 E9.35259
G1 X88.554 Y128.419 E9.39815
G1 X88.301 Y127.729 E9.45315
G1 X88.075 Y127.06 E9.50599
G1 X88.025 Y126.905 E9.51818
G1 X87.857 Y126.352 E9.56143
G1 X87.776 Y126.056 E9.5844
G1 X87.527 Y125.043 E9.66246
G1 X87.411 Y124.471 E9.70614
G1 X87.338 Y124.021 E9.74025
G1 X87.105 Y122.298 E9.87037
G1 X87.045 Y121.726 E9.91341
G1 X87.023 Y121.433 E9.9354
G1 X86.967 Y120.281 E10.02171
G1 X86.96 Y120.064 E10.03796
G1 X86.948 Y118.926 E10.12312
G1 X86.963 Y118.26 E10.17298
G1 X87.007 Y117.411 E10.2366
G1 X87.021 Y117.206 E10.25197
G1 X87.101 Y116.297 E10.32026
G1 X87.119 Y116.121 E10.3335
G1 X87.193 Y115.501 E10.38023
G1 X87.216 Y115.334 E10.39285
G1 X87.336 Y114.532 E10.45353
G1 X87.571 Y113.135 E10.55954
G1 X87.834 Y111.698 E10.66887
G1 X88.037 Y110.428 E10.76512
G1 X88.061 Y110.292 E10.77545
G1 X88.272 Y109.464 E10.8394
G1 X88.565 Y108.594 E10.9081
G1 X88.629 Y108.414 E10.92239
G1 X89.023 Y107.362 E11.00646
G1 X89.764 Y105.316 E11.1693
G1 X90.122 Y104.478 E11.2375
G1 X91.185 Y102.007 E11.4388
G1 X92.188 Y99.485 E11.64191
G1 X93.077 Y97.039 E11.83668
G1 X93.928 Y94.481 E12.03842
G1 X94.693 Y91.945 E12.23665
G1 X95.397 Y89.348 E12.43801
G1 X95.624 Y88.425 E12.50914
G1 X95.925 Y87.283 E12.59752
G1 X96.05 Y86.873 E12.6296
G1 X96.316 Y86.104 E12.69049
G1 X96.571 Y85.486 E12.74052
G1 X96.718 Y85.182 E12.7658
G1 X96.967 Y84.723 E12.80487
G1 X97.748 Y83.426 E12.91817
G1 X98.13 Y82.869 E12.96872
G0 F600 X98.625 Y83.21
G1 F120 X99.057 Y82.724 E13.01738
G1 X99.616 Y82.188 E13.07534
G1 X100.068 Y81.801 E13.11987
G1 X100.484 Y81.465 E13.15988
G1 X101.133 Y80.979 E13.22056
G1 X101.279 Y80.881 E13.23372
G1 X101.83 Y80.56 E13.28144
G1 X102.424 Y80.307 E13.32976
G1 X102.836 Y80.162 E13.36244
G1 X104.094 Y79.739 E13.46176
G1 X104.982 Y79.429 E13.53215
G1 X105.576 Y79.242 E13.57875
G1 X105.726 Y79.2 E13.59041
G1 X106.35 Y79.067 E13.63816
G1 X106.982 Y79.012 E13.68563
G1 X107.915 Y78.991 E13.75547
G1 X109.069 Y78.98 E13.84183
G1 X110.061 Y78.957 E13.91609
G1 X110.249 Y78.956 E13.93016
G1 X111.597 Y78.975 E14.03105
G1 X113.004 Y79.011 E14.13638
G1 X113.675 Y79.072 E14.1868
G1 X114.268 Y79.191 E14.23206
G1 X115.811 Y79.51 E14.34997
G1 X116.018 Y79.557 E14.36586
G1 X116.63 Y79.739 E14.41364
G1 X117.246 Y80.011 E14.46403
G1 X118.042 Y80.453 E14.53217
G1 X118.587 Y80.805 E14.58072
G1 X119.218 Y81.251 E14.63855
G1 X119.405 Y81.394 E14.65616
G1 X119.942 Y81.826 E14.70774
G1 X120.361 Y82.189 E14.74923
G1 X120.58 Y82.395 E14.77173
G1 X121.057 Y82.91 E14.82426
G1 X121.391 Y83.371 E14.86686
G1 X121.975 Y84.281 E14.94778
G1 X122.368 Y84.888 E15.00189
G1 X122.716 Y85.519 E15.05582
G1 X122.823 Y85.753 E15.07507
G1 X123.242 Y86.705 E15.15291
G1 X123.51 Y87.476 E15.214
G1 X123.658 Y88.049 E15.25828
G1 X124.082 Y89.785 E15.39202
G1 X124.79 Y92.366 E15.5923
G1 X125.576 Y94.944 E15.794
G1 X126.431 Y97.49 E15.99498
G1 X127.347 Y99.979 E16.19346
G1 X128.355 Y102.497 E16.39643
G1 X129.312 Y104.69 E16.57549
G1 X129.527 Y105.198 E16.61678
G1 X129.634 Y105.473 E16.63886
G1 X129.849 Y106.076 E16.68677
G1 X130.615 Y108.145 E16.85187
G1 X131.004 Y109.158 E16.93308
G1 X131.344 Y110.103 E17.00823
G1 X131.544 Y110.686 E17.05436
G1 X131.672 Y111.12 E17.08822
G1 X131.935 Y112.193 E17.1709
G1 X132.044 Y112.666 E17.20722
G1 X132.241 Y113.589 E17.27785
G1 X132.351 Y114.218 E17.32564
G1 X132.422 Y115.081 E17.39044
G1 X132.419 Y115.887 E17.45075
G1 X132.448 Y118.709 E17.66195
G1 X132.433 Y120.327 E17.78304
G1 X132.408 Y120.966 E17.8309
G1 X132.396 Y121.163 E17.84567
G1 X132.329 Y121.985 E17.90738
G1 X132.306 Y122.206 E17.92401
G1 X132.206 Y123.003 E17.98412
G1 X132.186 Y123.147 E17.995
G1 X132.085 Y123.801 E18.04453
G1 X132.042 Y124.054 E18.06373
G1 X131.929 Y124.672 E18.11075
G1 X131.867 Y124.964 E18.13308
G1 X131.706 Y125.624 E18.18392
G1 X131.67 Y125.762 E18.1946
G1 X131.484 Y126.441 E18.24728
G1 X131.401 Y126.714 E18.26864
G1 X131.064 Y127.72 E18.34803
G1 X130.866 Y128.256 E18.39079
G1 X130.618 Y128.862 E18.43979
G1 X130.381 Y129.378 E18.48229
G1 X130.13 Y129.873 E18.52382
G1 X129.806 Y130.424 E18.57166
G1 X129.563 Y130.754 E18.60232
G1 X128.965 Y131.5 E18.67387
G1 X128.373 Y132.219 E18.74357
G1 X128.152 Y132.498 E18.77021
G1 X127.294 Y133.538 E18.8711
G1 X127.03 Y133.837 E18.90095
G1 X126.656 Y134.235 E18.94182
G1 X126.284 Y134.593 E18.98046
G1 X126.185 Y134.679 E18.99027
G1 X125.677 Y135.067 E19.03811
G1 X125.308 Y135.292 E19.07045
G1 X124.075 Y135.974 E19.1759
G1 X123.529 Y136.235 E19.22119
G1 X123.18 Y136.373 E19.24927
G1 X122.082 Y136.774 E19.33675
G1 X121.137 Y137.127 E19.41224
G1 X120.461 Y137.362 E19.4658
G1 X119.931 Y137.515 E19.50708
G1 X119.598 Y137.59 E19.53263
G1 X118.397 Y137.84 E19.62443
G1 X117.665 Y137.98 E19.68021
G1 X117.062 Y138.089 E19.72606
G1 X115.911 Y138.283 E19.81341
G1 X115.341 Y138.346 E19.85633
G1 X114.475 Y138.393 E19.92123
G1 X114.279 Y138.4 E19.93591
G1 X113.156 Y138.452 E20.02004
G1 X112.872 Y138.458 E20.0413
G1 X112.112 Y138.451 E20.09817
G1 X109.398 Y138.464 E20.30128
G1 X108.75 Y138.485 E20.3498
G1 X107.542 Y138.508 E20.44022
G1 X107.06 Y138.494 E20.4763
G1 X106.199 Y138.454 E20.5408
G1 X106.042 Y138.437 E20.55262
G1 X104.724 Y138.362 E20.65141
G1 X104.166 Y138.299 E20.69344
G1 X103.623 Y138.208 E20.73464
G1 X102.5 Y138.028 E20.81975
G1 X101.915 Y137.926 E20.86419
G1 X101.616 Y137.865 E20.88703
G1 X100.947 Y137.706 E20.93849
G1 X99.868 Y137.435 E21.02174
G1 X99.092 Y137.193 E21.08257
G1 X97.849 Y136.765 E21.18095
G1 X97.625 Y136.681 E21.19886
G1 X96.925 Y136.408 E21.25508
G1 X96.462 Y136.218 E21.29254
G1 X95.888 Y135.939 E21.3403
G1 X95.592 Y135.758 E21.36626
G1 X95.026 Y135.385 E21.41699
G1 X94.889 Y135.282 E21.42982
G1 X93.744 Y134.489 E21.53405
G1 X93.122 Y133.999 E21.5933
G1 X92.661 Y133.607 E21.63859
G1 X91.996 Y133.025 E21.70472
G1 X91.543 Y132.575 E21.7525
G1 X91.164 Y132.096 E21.79821
G1 X90.818 Y131.589 E21.84415
G1 X90.701 Y131.408 E21.86028
G1 X90.393 Y130.908 E21.90423
G1 X90.196 Y130.558 E21.93428
G1 X89.65 Y129.492 E22.02391
G1 X89.39 Y128.913 E22.07141
G1 X89.15 Y128.297 E22.12088
G1 X88.865 Y127.523 E22.18261
G1 X88.644 Y126.869 E22.23427
G1 X88.599 Y126.73 E22.2452
G1 X88.431 Y126.177 E22.28845
G1 X88.358 Y125.912 E22.30902
G1 X88.109 Y124.899 E22.38709
G1 X88.003 Y124.372 E22.42732
G1 X87.933 Y123.94 E22.46007
G1 X87.7 Y122.217 E22.59018
G1 X87.642 Y121.666 E22.63164
G1 X87.622 Y121.404 E22.65131
G1 X87.566 Y120.252 E22.73762
G1 X87.56 Y120.058 E22.75214
G1 X87.548 Y118.92 E22.83731
G1 X87.562 Y118.291 E22.8844
G1 X87.606 Y117.442 E22.94802
G1 X87.619 Y117.259 E22.96174
G1 X87.699 Y116.35 E23.03003
G1 X87.715 Y116.193 E23.04184
G1 X87.789 Y115.573 E23.08857
G1 X87.809 Y115.423 E23.0999
G1 X87.928 Y114.632 E23.15976
G1 X88.162 Y113.244 E23.26509
G1 X88.421 Y111.829 E23.37274
G1 X88.628 Y110.533 E23.47096
G1 X88.652 Y110.397 E23.48129
G1 X88.841 Y109.655 E23.5386
G1 X89.134 Y108.785 E23.6073
G1 X89.191 Y108.624 E23.62008
G1 X89.585 Y107.572 E23.70414
G1 X90.328 Y105.52 E23.86746
G1 X90.659 Y104.748 E23.93032
G1 X91.75 Y102.212 E24.13692
G1 X92.744 Y99.712 E24.33826
G1 X93.649 Y97.222 E24.53652
G1 X94.5 Y94.664 E24.73827
G1 X95.275 Y92.097 E24.93893
G1 X95.973 Y89.521 E25.13866
G1 X96.204 Y88.578 E25.21131
G1 X96.505 Y87.436 E25.2997
G1 X96.617 Y87.069 E25.32841
G1 X96.883 Y86.3 E25.3893
G1 X97.112 Y85.747 E25.4341
G1 X97.481 Y85.032 E25.49431
G1 X98.262 Y83.735 E25.60761
G1 X98.625 Y83.21 E25.65537
G0 F600 X99.119 Y83.553
G1 F120 X99.491 Y83.139 E25.69703
G1 X100.008 Y82.643 E25.75064
G1 X100.447 Y82.266 E25.79395
G1 X100.85 Y81.94 E25.83274
G1 X101.467 Y81.478 E25.89042
G1 X101.613 Y81.38 E25.90358
G1 X102.132 Y81.079 E25.94848
G1 X102.623 Y80.873 E25.98833
G1 X103.027 Y80.731 E26.02037
G1 X104.272 Y80.312 E26.11868
G1 X105.18 Y79.995 E26.19065
G1 X105.738 Y79.82 E26.23441
G1 X105.888 Y79.778 E26.24607
G1 X106.475 Y79.655 E26.29095
G1 X106.996 Y79.612 E26.33007
G1 X107.92 Y79.591 E26.39924
G1 X109.09 Y79.58 E26.4868
G1 X110.076 Y79.557 E26.56061
G1 X110.242 Y79.556 E26.57303
G1 X111.582 Y79.574 E26.67332
G1 X112.989 Y79.61 E26.77865
G1 X113.581 Y79.665 E26.82314
G1 X114.171 Y79.783 E26.86817
G1 X115.784 Y80.119 E26.99147
G1 X115.884 Y80.142 E26.99915
G1 X116.458 Y80.315 E27.04401
G1 X116.967 Y80.543 E27.08575
G1 X117.716 Y80.957 E27.14979
G1 X118.261 Y81.309 E27.19835
G1 X118.864 Y81.736 E27.25364
G1 X119.029 Y81.862 E27.26918
G1 X119.566 Y82.294 E27.32075
G1 X119.95 Y82.626 E27.35874
G1 X120.169 Y82.832 E27.38124
G1 X120.592 Y83.288 E27.42779
G1 X120.886 Y83.695 E27.46536
G1 X121.471 Y84.607 E27.54644
G1 X121.864 Y85.214 E27.60056
G1 X122.171 Y85.771 E27.64815
G1 X122.274 Y85.994 E27.66654
G1 X122.693 Y86.946 E27.74438
G1 X122.929 Y87.627 E27.79831
G1 X123.076 Y88.192 E27.842
G1 X123.503 Y89.94 E27.97666
G1 X124.22 Y92.554 E28.1795
G1 X124.996 Y95.099 E28.37862
G1 X125.873 Y97.709 E28.58467
G1 X126.789 Y100.198 E28.78315
G1 X127.803 Y102.731 E28.98733
G1 X128.759 Y104.924 E29.16636
G1 X128.974 Y105.432 E29.20764
G1 X129.069 Y105.675 E29.22717
G1 X129.265 Y106.226 E29.27093
G1 X130.055 Y108.36 E29.44122
G1 X130.479 Y109.466 E29.52986
G1 X130.777 Y110.298 E29.596
G1 X130.977 Y110.881 E29.64212
G1 X131.089 Y111.264 E29.67199
G1 X131.351 Y112.327 E29.75392
G1 X131.457 Y112.792 E29.78961
G1 X131.654 Y113.715 E29.86024
G1 X131.76 Y114.317 E29.90598
G1 X131.822 Y115.079 E29.96319
G1 X131.819 Y115.893 E30.02411
G1 X131.848 Y118.704 E30.23448
G1 X131.833 Y120.322 E30.35557
G1 X131.809 Y120.941 E30.40193
G1 X131.798 Y121.115 E30.41498
G1 X131.731 Y121.937 E30.4767
G1 X131.711 Y122.131 E30.49129
G1 X131.611 Y122.928 E30.5514
G1 X131.593 Y123.056 E30.56108
G1 X131.493 Y123.703 E30.61007
G1 X131.452 Y123.946 E30.62851
G1 X131.339 Y124.564 E30.67553
G1 X131.284 Y124.821 E30.69519
G1 X131.123 Y125.481 E30.74603
G1 X130.905 Y126.283 E30.80823
G1 X130.832 Y126.523 E30.827
G1 X130.495 Y127.529 E30.9064
G1 X130.309 Y128.032 E30.94653
G1 X130.07 Y128.617 E30.99382
G1 X129.846 Y129.107 E31.03414
G1 X129.595 Y129.602 E31.07568
G1 X129.288 Y130.118 E31.12061
G1 X129.094 Y130.379 E31.14494
G1 X128.502 Y131.119 E31.21586
G1 X127.885 Y131.868 E31.28848
G1 X127.689 Y132.116 E31.31214
G1 X126.831 Y133.156 E31.41304
G1 X126.592 Y133.427 E31.44008
G1 X126.218 Y133.825 E31.48095
G1 X125.791 Y134.226 E31.52478
G1 X125.313 Y134.588 E31.56966
G1 X125.018 Y134.767 E31.59548
G1 X123.785 Y135.449 E31.70093
G1 X123.303 Y135.679 E31.74089
G1 X122.974 Y135.81 E31.76739
G1 X121.835 Y136.226 E31.85814
G1 X120.94 Y136.56 E31.92963
G1 X120.264 Y136.795 E31.98319
G1 X119.566 Y136.983 E32.03728
G1 X118.36 Y137.236 E32.1295
G1 X117.558 Y137.39 E32.19061
G1 X116.962 Y137.497 E32.23593
G1 X115.811 Y137.691 E32.32328
G1 X115.308 Y137.747 E32.36115
G1 X114.454 Y137.793 E32.42515
G1 X114.284 Y137.799 E32.43788
G1 X113.128 Y137.853 E32.52449
G1 X112.878 Y137.858 E32.5432
G1 X112.116 Y137.851 E32.60023
G1 X109.375 Y137.864 E32.80535
G1 X108.739 Y137.885 E32.85297
G1 X107.531 Y137.908 E32.94339
G1 X107.088 Y137.895 E32.97656
G1 X106.227 Y137.855 E33.04106
G1 X106.079 Y137.838 E33.05221
G1 X104.758 Y137.763 E33.15123
G1 X104.266 Y137.708 E33.18827
G1 X103.678 Y137.609 E33.2329
G1 X102.603 Y137.437 E33.31437
G1 X102.018 Y137.335 E33.35881
G1 X101.754 Y137.281 E33.37897
G1 X101.093 Y137.124 E33.42981
