;FLAVOR:Marlin
;TIME:11559
;Filament used: 1.69681m
;Layer height: 0.3
;MINX:94.3
;MINY:94.3
;MINZ:0.3
;MAXX:125.7
;MAXY:125.7
;MAXZ:9.9
;Generated with Cura_SteamEngine 4.8.0
M105
M109 S0
M82 ;absolute extrusion mode
M302 P1

M106 S0

G92 E0
G28
G1 Z5.0 F3000
G92 E0
G92 E0
;LAYER_COUNT:33
;LAYER:0
M107
G0 F600 X96.217 Y95.753 Z0.3
;TYPE:SKIRT
G1 F120 X96.747 Y95.335 E0.05051
G1 X97.322 Y94.982 E0.10101
G1 X97.935 Y94.7 E0.1515
G1 X98.577 Y94.492 E0.202
G1 X99.239 Y94.361 E0.25251
G1 X99.849 Y94.311 E0.29831
G1 X100.33 Y94.3 E0.33431
G1 X119.293 Y94.3 E1.75342
G1 X120.073 Y94.311 E1.81179
G1 X120.746 Y94.36 E1.86229
G1 X121.408 Y94.489 E1.91276
G1 X122.051 Y94.695 E1.96329
G1 X122.665 Y94.976 E2.01382
G1 X123.241 Y95.327 E2.0643
G1 X123.772 Y95.744 E2.11483
G1 X124.25 Y96.221 E2.16536
G1 X124.668 Y96.751 E2.21588
G1 X125.02 Y97.327 E2.26639
G1 X125.302 Y97.94 E2.31689
G1 X125.509 Y98.583 E2.36744
G1 X125.639 Y99.245 E2.41793
G1 X125.689 Y99.85 E2.46336
G1 X125.7 Y100.33 E2.49929
G1 X125.7 Y119.335 E3.92153
G1 X125.691 Y120.062 E3.97594
G1 X125.642 Y120.735 E4.02644
G1 X125.515 Y121.398 E4.07696
G1 X125.31 Y122.041 E4.12746
G1 X125.03 Y122.655 E4.17796
G1 X124.68 Y123.232 E4.22847
G1 X124.264 Y123.764 E4.27901
G1 X123.788 Y124.242 E4.32949
G1 X123.259 Y124.661 E4.37999
G1 X122.684 Y125.015 E4.43052
G1 X122.071 Y125.298 E4.48105
G1 X121.429 Y125.507 E4.53157
G1 X120.767 Y125.638 E4.58208
G1 X120.151 Y125.689 E4.62833
G1 X119.67 Y125.7 E4.66434
G1 X100.634 Y125.7 E6.0889
G1 X99.936 Y125.691 E6.14114
G1 X99.262 Y125.642 E6.19171
G1 X98.6 Y125.514 E6.24217
G1 X97.957 Y125.309 E6.29268
G1 X97.342 Y125.029 E6.34325
G1 X96.766 Y124.678 E6.39372
G1 X96.234 Y124.262 E6.44426
G1 X95.756 Y123.786 E6.49475
G1 X95.337 Y123.256 E6.54531
G1 X94.984 Y122.681 E6.5958
G1 X94.701 Y122.068 E6.64633
G1 X94.493 Y121.426 E6.69683
G1 X94.362 Y120.764 E6.74733
G1 X94.311 Y120.145 E6.79381
G1 X94.3 Y119.658 E6.83026
G1 X94.301 Y100.597 E8.2567
G1 X94.31 Y99.932 E8.30647
G1 X94.359 Y99.259 E8.35697
G1 X94.487 Y98.596 E8.4075
G1 X94.693 Y97.953 E8.45803
G1 X94.973 Y97.339 E8.50853
G1 X95.324 Y96.763 E8.55901
G1 X95.74 Y96.231 E8.60955
G1 X96.217 Y95.753 E8.66008
G0 F600 X96.801 Y96.045
G1 F120 X97.321 Y95.675 E8.70784
G1 X97.884 Y95.373 E8.75565
G1 X98.479 Y95.144 E8.80336
G1 X99.099 Y94.991 E8.85115
G1 X99.866 Y94.911 E8.90886
G1 X100.33 Y94.9 E8.9436
G1 X119.293 Y94.9 E10.3627
G1 X120.064 Y94.911 E10.4204
G1 X120.701 Y94.96 E10.46821
G1 X121.326 Y95.088 E10.51596
G1 X121.931 Y95.293 E10.56376
G1 X122.505 Y95.572 E10.61152
G1 X123.039 Y95.921 E10.65926
G1 X123.526 Y96.334 E10.70705
G1 X123.958 Y96.805 E10.75487
G1 X124.327 Y97.325 E10.80259
G1 X124.629 Y97.888 E10.8504
G1 X124.857 Y98.484 E10.89816
G1 X125.01 Y99.104 E10.94595
G1 X125.089 Y99.867 E11.00335
G1 X125.1 Y100.33 E11.03801
G1 X125.1 Y119.327 E12.45965
G1 X125.091 Y120.054 E12.51406
G1 X125.043 Y120.691 E12.56187
G1 X124.916 Y121.316 E12.6096
G1 X124.712 Y121.921 E12.65738
G1 X124.433 Y122.496 E12.70521
G1 X124.086 Y123.031 E12.75293
G1 X123.674 Y123.519 E12.80072
G1 X123.204 Y123.952 E12.84854
G1 X122.684 Y124.322 E12.8963
G1 X122.122 Y124.625 E12.94409
G1 X121.526 Y124.854 E12.99187
G1 X120.907 Y125.008 E13.0396
G1 X120.134 Y125.089 E13.09777
G1 X119.67 Y125.1 E13.1325
G1 X100.641 Y125.1 E14.55654
G1 X99.943 Y125.091 E14.60878
G1 X99.307 Y125.042 E14.65652
G1 X98.681 Y124.915 E14.70432
G1 X98.076 Y124.711 E14.7521
G1 X97.502 Y124.432 E14.79986
G1 X96.966 Y124.084 E14.84768
G1 X96.479 Y123.672 E14.89542
G1 X96.047 Y123.202 E14.94319
G1 X95.677 Y122.682 E14.99095
G1 X95.374 Y122.119 E15.0388
G1 X95.145 Y121.524 E15.08651
G1 X94.991 Y120.904 E15.13432
G1 X94.911 Y120.129 E15.19262
G1 X94.9 Y119.658 E15.22788
G1 X94.9 Y100.605 E16.65372
G1 X94.909 Y99.94 E16.70349
G1 X94.958 Y99.303 E16.7513
G1 X95.086 Y98.678 E16.79904
G1 X95.291 Y98.073 E16.84684
G1 X95.569 Y97.499 E16.89457
G1 X95.918 Y96.964 E16.94238
G1 X96.33 Y96.477 E16.99011
G1 X96.801 Y96.045 E17.03794
G0 F600 X96.918 Y96.738
G1 F120 X97.381 Y96.356 E17.08286
G1 X97.89 Y96.039 E17.12773
G1 X98.436 Y95.793 E17.17255
G1 X99.011 Y95.621 E17.21746
G1 X99.883 Y95.511 E17.28324
G1 X100.33 Y95.5 E17.3167
G1 X119.357 Y95.5 E18.74059
G1 X120.055 Y95.51 E18.79283
G1 X120.653 Y95.559 E18.83773
G1 X121.239 Y95.687 E18.88262
G1 X121.803 Y95.891 E18.9275
G1 X122.334 Y96.168 E18.97232
G1 X122.824 Y96.514 E19.01721
G1 X123.264 Y96.922 E19.06212
G1 X123.646 Y97.384 E19.10698
G1 X123.962 Y97.894 E19.15188
G1 X124.208 Y98.441 E19.19676
G1 X124.38 Y99.015 E19.2416
G1 X124.489 Y99.883 E19.30707
G1 X124.5 Y100.33 E19.34053
G1 X124.5 Y119.32 E20.76166
G1 X124.491 Y120.047 E20.81607
G1 X124.443 Y120.644 E20.86089
G1 X124.317 Y121.231 E20.90582
G1 X124.114 Y121.795 E20.95067
G1 X123.837 Y122.327 E20.99556
G1 X123.492 Y122.818 E21.04047
G1 X123.085 Y123.258 E21.08532
G1 X122.624 Y123.641 E21.13017
G1 X122.115 Y123.958 E21.17505
G1 X121.569 Y124.205 E21.21989
G1 X120.994 Y124.378 E21.26483
G1 X120.117 Y124.489 E21.33098
G1 X119.67 Y124.5 E21.36445
G1 X100.649 Y124.5 E22.78789
G1 X99.951 Y124.491 E22.84013
G1 X99.353 Y124.443 E22.88502
G1 X98.767 Y124.316 E22.92989
G1 X98.203 Y124.113 E22.97475
G1 X97.671 Y123.836 E23.01964
G1 X97.181 Y123.491 E23.06448
G1 X96.74 Y123.084 E23.10939
G1 X96.358 Y122.622 E23.15426
G1 X96.041 Y122.113 E23.19913
G1 X95.794 Y121.566 E23.24404
G1 X95.622 Y120.992 E23.28889
G1 X95.511 Y120.113 E23.35519
G1 X95.5 Y119.658 E23.38925
G1 X95.5 Y100.613 E24.81449
G1 X95.509 Y99.948 E24.86426
G1 X95.557 Y99.35 E24.90915
G1 X95.685 Y98.764 E24.95404
G1 X95.888 Y98.2 E24.9989
G1 X96.166 Y97.669 E25.04375
G1 X96.511 Y97.178 E25.08866
G1 X96.918 Y96.738 E25.13351
G0 F600 X97.503 Y97.02
G1 F120 X97.956 Y96.693 E25.17532
G1 X98.45 Y96.434 E25.21707
G1 X98.976 Y96.248 E25.25882
G1 X99.524 Y96.139 E25.30063
G1 X100.221 Y96.102 E25.35286
G1 X100.33 Y96.1 E25.36102
G1 X119.349 Y96.1 E26.78432
G1 X120.047 Y96.11 E26.83656
G1 X120.603 Y96.158 E26.87832
G1 X121.147 Y96.285 E26.92012
G1 X121.667 Y96.488 E26.9619
G1 X122.152 Y96.764 E27.00366
G1 X122.594 Y97.105 E27.04544
G1 X122.982 Y97.507 E27.08725
G1 X123.308 Y97.959 E27.12895
G1 X123.567 Y98.454 E27.17076
G1 X123.753 Y98.98 E27.21251
G1 X123.861 Y99.528 E27.25431
G1 X123.898 Y100.22 E27.30617
G1 X123.9 Y100.33 E27.3144
G1 X123.9 Y119.312 E28.73493
G1 X123.891 Y120.039 E28.78934
G1 X123.844 Y120.596 E28.83117
G1 X123.718 Y121.139 E28.87288
G1 X123.516 Y121.66 E28.9147
G1 X123.242 Y122.146 E28.95645
G1 X122.901 Y122.588 E28.99823
G1 X122.5 Y122.977 E29.04004
G1 X122.048 Y123.304 E29.08179
G1 X121.554 Y123.564 E29.12356
G1 X121.028 Y123.751 E29.16534
G1 X120.481 Y123.86 E29.20708
G1 X119.779 Y123.898 E29.25969
G1 X119.67 Y123.9 E29.26785
G1 X100.657 Y123.9 E30.69069
G1 X99.959 Y123.891 E30.74293
G1 X99.402 Y123.844 E30.78477
G1 X98.859 Y123.718 E30.82648
G1 X98.338 Y123.515 E30.86833
G1 X97.852 Y123.241 E30.91008
G1 X97.411 Y122.899 E30.95184
G1 X97.022 Y122.499 E30.9936
G1 X96.695 Y122.047 E31.03535
G1 X96.435 Y121.552 E31.07719
G1 X96.249 Y121.026 E31.11894
G1 X96.14 Y120.479 E31.16068
G1 X96.101 Y119.763 E31.21434
G1 X96.1 Y100.621 E32.64684
G1 X96.109 Y99.956 E32.69661
G1 X96.157 Y99.4 E32.73837
G1 X96.283 Y98.856 E32.78016
G1 X96.486 Y98.336 E32.82193
G1 X96.761 Y97.85 E32.86372
G1 X97.102 Y97.409 E32.90544
G1 X97.503 Y97.02 E32.94725
G0 F600 X97.692 Y97.66
G1 F120 X98.084 Y97.329 E32.98564
G1 X98.523 Y97.062 E33.0241
G1 X98.998 Y96.868 E33.06249
G1 X99.498 Y96.749 E33.10096
G1 X100.238 Y96.701 E33.15645
G1 X119.34 Y96.7 E34.58595
G1 X120.038 Y96.71 E34.63819
G1 X120.55 Y96.758 E34.67668
G1 X121.047 Y96.884 E34.71505
G1 X121.519 Y97.085 E34.75344
G1 X121.955 Y97.358 E34.79194
G1 X122.342 Y97.694 E34.83029
G1 X122.673 Y98.087 E34.86874
G1 X122.939 Y98.526 E34.90715
G1 X123.133 Y99.002 E34.94562
G1 X123.252 Y99.501 E34.98401
G1 X123.299 Y100.237 E35.0392
G1 X123.3 Y119.305 E36.46616
G1 X123.291 Y120.032 E36.52057
G1 X123.244 Y120.543 E36.55897
G1 X123.119 Y121.041 E36.5974
G1 X122.919 Y121.514 E36.63583
G1 X122.647 Y121.949 E36.67422
G1 X122.311 Y122.338 E36.71269
G1 X121.919 Y122.669 E36.75108
G1 X121.48 Y122.936 E36.78954
G1 X121.006 Y123.131 E36.82789
G1 X120.506 Y123.251 E36.86637
G1 X119.762 Y123.299 E36.92217
G1 X100.664 Y123.3 E38.35137
G1 X99.966 Y123.291 E38.40361
G1 X99.455 Y123.244 E38.44201
G1 X98.957 Y123.119 E38.48044
G1 X98.485 Y122.918 E38.51883
G1 X98.049 Y122.646 E38.55728
G1 X97.661 Y122.31 E38.59569
G1 X97.33 Y121.918 E38.63409
G1 X97.063 Y121.479 E38.67254
G1 X96.868 Y121.004 E38.71097
G1 X96.749 Y120.505 E38.74936
G1 X96.701 Y119.747 E38.8062
G1 X96.7 Y100.629 E40.2369
G1 X96.709 Y99.964 E40.28667
G1 X96.756 Y99.453 E40.32507
G1 X96.882 Y98.955 E40.36351
G1 X97.083 Y98.483 E40.4019
G1 X97.355 Y98.048 E40.4403
G1 X97.692 Y97.66 E40.47876
;MESH:cube.stl
G0 F600 X100.314 Y99.335
G0 X119.6 Y119.63
G0 X119.7 Y119.7
;TYPE:WALL-OUTER
G1 F120 X100.3 Y119.7 E41.93056
G1 X100.3 Y100.3 E43.38237
G1 X119.7 Y100.3 E44.83417
G1 X119.7 Y119.7 E46.28598
G0 F600 X119.4 Y119.7
G0 X119.11 Y119.11
;TYPE:SKIN
G1 F120 X100.89 Y119.11 E47.64947
G1 X100.89 Y100.89 E49.01297
G1 X119.11 Y100.89 E50.37647
G1 X119.11 Y119.11 E51.73997
G0 F600 X118.839 Y101.869
G1 F120 X118.13 Y101.16 E51.81501
G0 F600 X117.282 Y101.16
G1 F120 X118.839 Y102.717 E51.97979
G0 F600 X118.839 Y103.566
G1 F120 X116.433 Y101.16 E52.23442
G0 F600 X115.585 Y101.16
G1 F120 X118.839 Y104.414 E52.57881
G0 F600 X118.839 Y105.263
G1 F120 X114.736 Y101.16 E53.01304
G0 F600 X113.888 Y101.16
G1 F120 X118.839 Y106.111 E53.53702
G0 F600 X118.839 Y106.96
G1 F120 X113.039 Y101.16 E54.15085
G0 F600 X112.19 Y101.16
G1 F120 X118.839 Y107.809 E54.85453
G0 F600 X118.839 Y108.657
G1 F120 X111.342 Y101.16 E55.64797
G0 F600 X110.493 Y101.16
G1 F120 X118.839 Y109.506 E56.53125
G0 F600 X118.839 Y110.354
G1 F120 X109.645 Y101.16 E57.50428
G0 F600 X108.796 Y101.16
G1 F120 X118.839 Y111.203 E58.56716
G0 F600 X118.839 Y112.051
G1 F120 X107.948 Y101.16 E59.71979
G0 F600 X107.099 Y101.16
G1 F120 X118.839 Y112.9 E60.96227
G0 F600 X118.839 Y113.748
G1 F120 X106.251 Y101.16 E62.2945
G0 F600 X105.402 Y101.16
G1 F120 X118.839 Y114.597 E63.71658
G0 F600 X118.839 Y115.445
G1 F120 X104.554 Y101.16 E65.2284
G0 F600 X103.705 Y101.16
G1 F120 X118.839 Y116.294 E66.83008
G0 F600 X118.839 Y117.142
G1 F120 X102.857 Y101.16 E68.5215
G0 F600 X102.008 Y101.16
G1 F120 X118.839 Y117.991 E70.30278
G0 F600 X118.839 Y118.839
G1 F120 X101.159 Y101.159 E72.17391
G0 F600 X101.159 Y102.007
G1 F120 X117.99 Y118.839 E73.95524
G0 F600 X117.142 Y118.839
G1 F120 X101.159 Y102.856 E75.64677
G0 F600 X101.159 Y103.704
G1 F120 X116.293 Y118.839 E77.2485
G0 F600 X115.445 Y118.839
G1 F120 X101.159 Y104.553 E78.76043
G0 F600 X101.159 Y105.402
G1 F120 X114.596 Y118.839 E80.18251
G0 F600 X113.748 Y118.839
G1 F120 X101.159 Y106.25 E81.51485
G0 F600 X101.159 Y107.099
G1 F120 X112.899 Y118.839 E82.75733
G0 F600 X112.05 Y118.839
G1 F120 X101.159 Y107.947 E83.91001
G0 F600 X101.159 Y108.796
G1 F120 X111.202 Y118.839 E84.97289
G0 F600 X110.353 Y118.839
G1 F120 X101.159 Y109.644 E85.94597
G0 F600 X101.159 Y110.493
G1 F120 X109.505 Y118.839 E86.82925
G0 F600 X108.656 Y118.839
G1 F120 X101.159 Y111.341 E87.62274
G0 F600 X101.159 Y112.19
G1 F120 X107.808 Y118.839 E88.32642
G0 F600 X106.959 Y118.839
G1 F120 X101.159 Y113.038 E88.94031
G0 F600 X101.159 Y113.887
G1 F120 X106.111 Y118.839 E89.46439
G0 F600 X105.262 Y118.839
G1 F120 X101.159 Y114.735 E89.89868
G0 F600 X101.159 Y115.584
G1 F120 X104.414 Y118.839 E90.24317
G0 F600 X103.565 Y118.839
G1 F120 X101.159 Y116.432 E90.49785
G0 F600 X101.159 Y117.281
G1 F120 X102.717 Y118.839 E90.66274
G0 F600 X101.868 Y118.839
G1 F120 X101.159 Y118.129 E90.73783
;MESH:NONMESH
G0 F600 X101.159 Y118.129 Z0.6
G0 X116.7 Y116.7
;TIME_ELAPSED:630.170458
;LAYER:1
;TYPE:WALL-INNER
;MESH:cube.stl
G1 F120 X103.3 Y116.7 E91.74062
G1 X103.3 Y103.3 E92.74342
G1 X116.7 Y103.3 E93.74621
G1 X116.7 Y116.7 E94.749
G0 F600 X117.3 Y117.3
G1 F120 X102.7 Y117.3 E95.8416
G1 X102.7 Y102.7 E96.93419
G1 X117.3 Y102.7 E98.02679
G1 X117.3 Y117.3 E99.11938
G0 F600 X117.9 Y117.9
G1 F120 X102.1 Y117.9 E100.30178
G1 X102.1 Y102.1 E101.48418
G1 X117.9 Y102.1 E102.66658
G1 X117.9 Y117.9 E103.84898
G0 F600 X118.5 Y118.5
G1 F120 X101.5 Y118.5 E105.12118
G1 X101.5 Y101.5 E106.39338
G1 X118.5 Y101.5 E107.66558
G1 X118.5 Y118.5 E108.93778
G0 F600 X119.1 Y119.1
G1 F120 X100.9 Y119.1 E110.29978
G1 X100.9 Y100.9 E111.66178
G1 X119.1 Y100.9 E113.02378
G1 X119.1 Y119.1 E114.38579
G0 F600 X119.7 Y119.7
;TYPE:WALL-OUTER
G1 F120 X100.3 Y119.7 E115.83759
G1 X100.3 Y100.3 E117.2894
G1 X119.7 Y100.3 E118.7412
G1 X119.7 Y119.7 E120.19301
G0 F600 X119.4 Y119.7
G0 X119.03 Y119.03
G0 X116.11 Y116.11
;TYPE:SKIN
G1 F120 X103.89 Y116.11 E121.10749
G1 X103.89 Y103.89 E122.02198
G1 X116.11 Y103.89 E122.93647
G1 X116.11 Y116.11 E123.85096
G0 F600 X114.96 Y115.839
G1 F120 X115.839 Y114.96 E123.94398
G0 F600 X115.839 Y114.111
G1 F120 X114.111 Y115.839 E124.12686
G0 F600 X113.262 Y115.839
G1 F120 X115.839 Y113.262 E124.39959
G0 F600 X115.839 Y112.414
G1 F120 X112.414 Y115.839 E124.76207
G0 F600 X111.565 Y115.839
G1 F120 X115.839 Y111.565 E125.2144
G0 F600 X115.839 Y110.717
G1 F120 X110.717 Y115.839 E125.75648
G0 F600 X109.868 Y115.839
G1 F120 X115.839 Y109.868 E126.38841
G0 F600 X115.839 Y109.02
G1 F120 X109.02 Y115.839 E127.11009
G0 F600 X108.171 Y115.839
G1 F120 X115.839 Y108.171 E127.92161
G0 F600 X115.839 Y107.323
G1 F120 X107.323 Y115.839 E128.82289
G0 F600 X106.474 Y115.839
G1 F120 X115.839 Y106.474 E129.81402
G0 F600 X115.839 Y105.626
G1 F120 X105.626 Y115.839 E130.89489
G0 F600 X104.777 Y115.839
G1 F120 X115.839 Y104.777 E132.06561
G0 F600 X115.609 Y104.159
G1 F120 X104.159 Y115.609 E133.2774
G0 F600 X104.159 Y114.76
G1 F120 X114.76 Y104.159 E134.39934
G0 F600 X113.912 Y104.159
G1 F120 X104.159 Y113.912 E135.43153
G0 F600 X104.159 Y113.063
G1 F120 X113.063 Y104.159 E136.37387
G0 F600 X112.215 Y104.159
G1 F120 X104.159 Y112.215 E137.22646
G0 F600 X104.159 Y111.366
G1 F120 X111.366 Y104.159 E137.9892
G0 F600 X110.517 Y104.159
G1 F120 X104.159 Y110.517 E138.66209
G0 F600 X104.159 Y109.669
G1 F120 X109.669 Y104.159 E139.24523
G0 F600 X108.82 Y104.159
G1 F120 X104.159 Y108.82 E139.73851
G0 F600 X104.159 Y107.972
G1 F120 X107.972 Y104.159 E140.14206
G0 F600 X107.123 Y104.159
G1 F120 X104.159 Y107.123 E140.45575
G0 F600 X104.159 Y106.275
G1 F120 X106.275 Y104.159 E140.67969
G0 F600 X105.426 Y104.159
G1 F120 X104.159 Y105.426 E140.81378
G0 F600 X104.159 Y104.578
G1 F120 X104.578 Y104.159 E140.85812
;MESH:NONMESH
G0 F600 X104.578 Y104.159 Z0.9
G0 X119.03 Y119.03
G0 X119.7 Y119.7
;TIME_ELAPSED:970.615943
;LAYER:2
;TYPE:WALL-OUTER
;MESH:cube.stl
G1 F120 X100.3 Y119.7 E142.30993
G1 X100.3 Y100.3 E143.76173
G1 X119.7 Y100.3 E145.21354
G1 X119.7 Y119.7 E146.66534
G0 F600 X119.4 Y119.7
G0 X119.11 Y119.11
;TYPE:SKIN
G1 F120 X100.89 Y119.11 E148.02884
G1 X100.89 Y100.89 E149.39234
G1 X119.11 Y100.89 E150.75584
G1 X119.11 Y119.11 E152.11934
G0 F600 X118.839 Y101.869
G1 F120 X118.13 Y101.16 E152.19438
G0 F600 X117.282 Y101.16
G1 F120 X118.839 Y102.717 E152.35916
G0 F600 X118.839 Y103.566
G1 F120 X116.433 Y101.16 E152.61379
G0 F600 X115.585 Y101.16
G1 F120 X118.839 Y104.414 E152.95817
G0 F600 X118.839 Y105.263
G1 F120 X114.736 Y101.16 E153.39241
G0 F600 X113.888 Y101.16
G1 F120 X118.839 Y106.111 E153.91639
G0 F600 X118.839 Y106.96
G1 F120 X113.039 Y101.16 E154.53022
G0 F600 X112.19 Y101.16
G1 F120 X118.839 Y107.809 E155.2339
G0 F600 X118.839 Y108.657
G1 F120 X111.342 Y101.16 E156.02733
G0 F600 X110.493 Y101.16
G1 F120 X118.839 Y109.506 E156.91062
G0 F600 X118.839 Y110.354
G1 F120 X109.645 Y101.16 E157.88365
G0 F600 X108.796 Y101.16
G1 F120 X118.839 Y111.203 E158.94653
G0 F600 X118.839 Y112.051
G1 F120 X107.948 Y101.16 E160.09916
G0 F600 X107.099 Y101.16
G1 F120 X118.839 Y112.9 E161.34164
G0 F600 X118.839 Y113.748
G1 F120 X106.251 Y101.16 E162.67386
G0 F600 X105.402 Y101.16
G1 F120 X118.839 Y114.597 E164.09594
G0 F600 X118.839 Y115.445
G1 F120 X104.554 Y101.16 E165.60777
G0 F600 X103.705 Y101.16
