;FLAVOR:Marlin
;TIME:5974
;Filament used: 1.12964m
;Layer height: 0.4
;MINX:80.988
;MINY:80.988
;MINZ:0.4
;MAXX:139.012
;MAXY:139.012
;MAXZ:36.4
;Generated with Cura_SteamEngine 4.8.0
M105
M109 S0
M82 ;absolute extrusion mode
M302 P1

M106 S0

G92 E0
G28
G1 Z5.0 F3000
G92 E0
G92 E0
;LAYER_COUNT:158
;LAYER:0
M107
G0 F600 X83.358 Y83.234 Z0.4
;TYPE:SKIRT
G1 F120 X83.899 Y82.75 E0.09657
G1 X84.515 Y82.313 E0.19706
G1 X85.114 Y81.962 E0.28942
G1 X85.766 Y81.641 E0.38611
G1 X86.449 Y81.394 E0.48273
G1 X86.917 Y81.271 E0.54711
G1 X87.434 Y81.156 E0.61757
G1 X88.151 Y81.038 E0.71425
G1 X88.66 Y81.001 E0.78214
G1 X89.233 Y80.988 E0.85839
G1 X97.73 Y81.007 E1.98884
G1 X98.09 Y81.01 E2.03674
G1 X100.852 Y81.015 E2.4042
G1 X101.954 Y81.021 E2.55081
G1 X102.54 Y81.022 E2.62877
G1 X103.237 Y81.032 E2.72151
G1 X103.519 Y81.042 E2.75905
G1 X106.31 Y81.202 E3.13098
G1 X108.935 Y81.277 E3.48035
G1 X111.602 Y81.277 E3.83517
G1 X114.216 Y81.204 E4.18307
G1 X115.126 Y81.152 E4.30434
G1 X116.622 Y81.087 E4.50355
G1 X116.813 Y81.082 E4.52897
G1 X117.811 Y81.068 E4.66176
G1 X121.73 Y81.069 E5.18315
G1 X122.405 Y81.073 E5.27295
G1 X123.673 Y81.074 E5.44165
G1 X124.339 Y81.077 E5.53025
G1 X125.54 Y81.077 E5.69003
G1 X126.199 Y81.082 E5.77771
G1 X127.137 Y81.083 E5.9025
G1 X128.291 Y81.091 E6.05604
G1 X129.363 Y81.092 E6.19866
G1 X129.912 Y81.096 E6.2717
G1 X130.895 Y81.098 E6.40248
G1 X131.514 Y81.108 E6.48484
G1 X132.238 Y81.16 E6.58141
G1 X132.825 Y81.261 E6.66065
G1 X133.225 Y81.349 E6.71514
G1 X133.925 Y81.544 E6.81181
G1 X134.599 Y81.815 E6.90846
G1 X135.239 Y82.158 E7.00506
G1 X135.724 Y82.482 E7.08266
G1 X136.23 Y82.876 E7.16798
G1 X136.77 Y83.361 E7.26454
G1 X137.254 Y83.903 E7.36122
G1 X137.695 Y84.528 E7.46298
G1 X138.037 Y85.111 E7.55291
G1 X138.358 Y85.762 E7.64947
G1 X138.605 Y86.445 E7.7461
G1 X138.729 Y86.917 E7.81103
G1 X138.844 Y87.434 E7.88149
G1 X138.962 Y88.151 E7.97816
G1 X139.005 Y88.827 E8.06828
G1 X139.012 Y89.204 E8.11844
G1 X139.009 Y91.382 E8.40821
G1 X139.006 Y91.803 E8.46422
G1 X138.993 Y97.73 E9.25275
G1 X138.99 Y98.09 E9.30065
G1 X138.985 Y100.964 E9.68301
G1 X138.979 Y101.788 E9.79264
G1 X138.977 Y102.571 E9.89681
G1 X138.961 Y103.467 E10.01603
G1 X138.948 Y103.783 E10.05811
G1 X138.815 Y106.048 E10.35996
G1 X138.736 Y108.672 E10.70922
G1 X138.73 Y111.304 E11.05938
G1 X138.801 Y113.965 E11.41353
G1 X138.856 Y114.966 E11.5469
G1 X138.856 Y115.144 E11.57058
G1 X138.921 Y116.403 E11.73831
G1 X138.935 Y116.99 E11.81642
G1 X138.931 Y121.73 E12.44703
G1 X138.927 Y122.405 E12.53684
G1 X138.926 Y123.673 E12.70553
G1 X138.923 Y124.339 E12.79414
G1 X138.923 Y125.541 E12.95406
G1 X138.918 Y126.199 E13.0416
G1 X138.917 Y127.271 E13.18422
G1 X138.909 Y128.273 E13.31753
G1 X138.908 Y129.364 E13.46268
G1 X138.904 Y129.912 E13.53558
G1 X138.902 Y130.895 E13.66636
G1 X138.892 Y131.514 E13.74873
G1 X138.84 Y132.238 E13.8453
G1 X138.738 Y132.828 E13.92495
G1 X138.65 Y133.227 E13.97931
G1 X138.455 Y133.927 E14.07599
G1 X138.184 Y134.601 E14.17263
G1 X137.841 Y135.241 E14.26924
G1 X137.542 Y135.69 E14.341
G1 X137.124 Y136.23 E14.43186
G1 X136.639 Y136.77 E14.52842
G1 X136.097 Y137.254 E14.62509
G1 X135.472 Y137.695 E14.72686
G1 X134.889 Y138.037 E14.81678
G1 X134.238 Y138.358 E14.91335
G1 X133.555 Y138.605 E15.00997
G1 X133.083 Y138.729 E15.0749
G1 X132.566 Y138.844 E15.14536
G1 X131.849 Y138.962 E15.24204
G1 X131.34 Y138.999 E15.30993
G1 X130.767 Y139.012 E15.38619
G1 X122.27 Y138.993 E16.51663
G1 X121.91 Y138.99 E16.56453
G1 X119.106 Y138.985 E16.93758
G1 X118.105 Y138.979 E17.07075
G1 X117.541 Y138.979 E17.14579
G1 X116.674 Y138.965 E17.26115
G1 X116.412 Y138.955 E17.29603
G1 X113.682 Y138.799 E17.65982
G1 X111.053 Y138.724 E18.00973
G1 X108.386 Y138.724 E18.36455
G1 X105.772 Y138.797 E18.71245
G1 X104.86 Y138.849 E18.83398
G1 X103.377 Y138.913 E19.03146
G1 X103.187 Y138.918 E19.05675
G1 X102.189 Y138.932 E19.18954
G1 X98.27 Y138.931 E19.71092
G1 X97.595 Y138.927 E19.80073
G1 X96.327 Y138.926 E19.96942
G1 X95.661 Y138.923 E20.05803
G1 X94.459 Y138.923 E20.21794
G1 X93.801 Y138.918 E20.30549
G1 X92.863 Y138.917 E20.43028
G1 X91.709 Y138.909 E20.58381
G1 X90.637 Y138.908 E20.72643
G1 X90.088 Y138.904 E20.79947
G1 X89.105 Y138.902 E20.93025
G1 X88.486 Y138.892 E21.01261
G1 X87.762 Y138.84 E21.10918
G1 X87.168 Y138.737 E21.18939
G1 X86.77 Y138.649 E21.24362
G1 X86.071 Y138.454 E21.34016
G1 X85.397 Y138.182 E21.43686
G1 X84.757 Y137.839 E21.53346
G1 X83.984 Y137.296 E21.65914
G1 X83.77 Y137.124 E21.69567
G1 X83.23 Y136.639 E21.79223
G1 X82.746 Y136.097 E21.88891
G1 X82.301 Y135.467 E21.99152
G1 X81.962 Y134.886 E22.08101
G1 X81.641 Y134.234 E22.1777
G1 X81.394 Y133.551 E22.27433
G1 X81.271 Y133.083 E22.3387
G1 X81.156 Y132.566 E22.40917
G1 X81.038 Y131.849 E22.50584
G1 X81 Y131.323 E22.576
G1 X80.988 Y130.77 E22.64959
G1 X81.007 Y122.27 E23.78044
G1 X81.01 Y121.91 E23.82833
G1 X81.015 Y119.106 E24.20138
G1 X81.021 Y118.105 E24.33456
G1 X81.022 Y117.427 E24.42476
G1 X81.035 Y116.674 E24.52495
G1 X81.045 Y116.412 E24.55983
G1 X81.201 Y113.682 E24.92363
G1 X81.276 Y111.053 E25.27353
G1 X81.276 Y108.386 E25.62835
G1 X81.203 Y105.771 E25.97639
G1 X81.151 Y104.86 E26.09779
G1 X81.087 Y103.377 E26.29527
G1 X81.082 Y103.187 E26.32056
G1 X81.068 Y102.19 E26.45321
G1 X81.069 Y98.356 E26.96329
G1 X81.073 Y97.583 E27.06613
G1 X81.074 Y96.245 E27.24414
G1 X81.077 Y95.608 E27.32889
G1 X81.077 Y94.46 E27.48162
G1 X81.082 Y93.801 E27.56929
G1 X81.083 Y92.846 E27.69635
G1 X81.091 Y91.704 E27.84828
G1 X81.092 Y90.614 E27.9933
G1 X81.096 Y90.072 E28.06541
G1 X81.098 Y89.087 E28.19645
G1 X81.108 Y88.484 E28.27669
G1 X81.16 Y87.759 E28.37339
G1 X81.261 Y87.175 E28.45224
G1 X81.349 Y86.775 E28.50673
G1 X81.544 Y86.075 E28.6034
G1 X81.815 Y85.401 E28.70005
G1 X82.158 Y84.761 E28.79665
G1 X82.482 Y84.276 E28.87425
G1 X82.872 Y83.774 E28.95882
G1 X83.358 Y83.234 E29.05547
G0 F600 X83.953 Y83.77
G1 F120 X84.466 Y83.322 E29.14609
G1 X84.94 Y82.991 E29.223
G1 X85.506 Y82.659 E29.3103
G1 X86.118 Y82.36 E29.40092
G1 X87.091 Y82.052 E29.5367
G1 X87.608 Y81.937 E29.60716
G1 X88.567 Y81.807 E29.73591
G1 X89.111 Y81.789 E29.80833
G1 X97.723 Y81.807 E30.95407
G1 X98.083 Y81.81 E31.00197
G1 X100.848 Y81.815 E31.36983
G1 X101.95 Y81.821 E31.51644
G1 X102.528 Y81.822 E31.59334
G1 X103.225 Y81.832 E31.68608
G1 X103.474 Y81.84 E31.71922
G1 X106.278 Y82.001 E32.09288
G1 X108.947 Y82.077 E32.44811
G1 X111.589 Y82.077 E32.7996
G1 X114.284 Y82.002 E33.15829
G1 X115.16 Y81.951 E33.27503
G1 X116.656 Y81.886 E33.47424
G1 X117.725 Y81.869 E33.61648
G1 X121.725 Y81.869 E34.14865
G1 X122.4 Y81.873 E34.23845
G1 X123.669 Y81.874 E34.40728
G1 X124.335 Y81.877 E34.49588
G1 X125.534 Y81.877 E34.6554
G1 X126.193 Y81.882 E34.74308
G1 X127.131 Y81.883 E34.86787
G1 X128.285 Y81.891 E35.0214
G1 X129.357 Y81.892 E35.16402
G1 X129.906 Y81.896 E35.23706
G1 X130.882 Y81.898 E35.36691
G1 X131.501 Y81.908 E35.44927
G1 X132.18 Y81.959 E35.53986
G1 X133.053 Y82.13 E35.65821
G1 X133.708 Y82.316 E35.7488
G1 X134.337 Y82.576 E35.83935
G1 X135.184 Y83.08 E35.97047
G1 X135.729 Y83.499 E36.06193
G1 X136.233 Y83.956 E36.15245
G1 X136.681 Y84.469 E36.24306
G1 X137.017 Y84.951 E36.32123
G1 X137.339 Y85.504 E36.40636
G1 X137.638 Y86.115 E36.49686
G1 X137.863 Y86.758 E36.58749
G1 X137.948 Y87.091 E36.63321
G1 X138.063 Y87.608 E36.70368
G1 X138.193 Y88.559 E36.83138
G1 X138.21 Y89.06 E36.89807
G1 X138.212 Y89.203 E36.91709
G1 X138.209 Y91.376 E37.20619
G1 X138.206 Y91.797 E37.2622
G1 X138.193 Y97.723 E38.0506
G1 X138.19 Y98.083 E38.0985
G1 X138.185 Y100.958 E38.48099
G1 X138.179 Y101.782 E38.59062
G1 X138.177 Y102.558 E38.69386
G1 X138.162 Y103.436 E38.81069
G1 X138.149 Y103.736 E38.85064
G1 X138.015 Y106.011 E39.15383
G1 X137.936 Y108.646 E39.50455
G1 X137.93 Y111.323 E39.8607
G1 X138.001 Y113.996 E40.21644
G1 X138.057 Y115.01 E40.35155
G1 X138.057 Y115.176 E40.37363
G1 X138.122 Y116.444 E40.54255
G1 X138.135 Y117.004 E40.61707
G1 X138.131 Y121.725 E41.24516
G1 X138.127 Y122.4 E41.33496
G1 X138.126 Y123.669 E41.50379
G1 X138.123 Y124.335 E41.5924
G1 X138.123 Y125.535 E41.75204
G1 X138.118 Y126.193 E41.83959
G1 X138.117 Y127.264 E41.98207
G1 X138.109 Y128.266 E42.11539
G1 X138.108 Y129.358 E42.26067
G1 X138.104 Y129.906 E42.33357
G1 X138.102 Y130.882 E42.46342
G1 X138.092 Y131.501 E42.54578
G1 X138.041 Y132.18 E42.63637
G1 X137.869 Y133.055 E42.75501
G1 X137.683 Y133.71 E42.8456
G1 X137.423 Y134.339 E42.93615
G1 X136.942 Y135.153 E43.06194
G1 X136.501 Y135.729 E43.15845
G1 X136.044 Y136.233 E43.24896
G1 X135.531 Y136.681 E43.33957
G1 X135.049 Y137.017 E43.41774
G1 X134.496 Y137.339 E43.50288
G1 X133.885 Y137.638 E43.59338
G1 X133.242 Y137.863 E43.68401
G1 X132.909 Y137.948 E43.72973
G1 X132.392 Y138.063 E43.80019
G1 X131.433 Y138.193 E43.92895
G1 X130.889 Y138.211 E44.00136
G1 X122.277 Y138.193 E45.14711
G1 X121.917 Y138.19 E45.195
G1 X119.111 Y138.185 E45.56832
G1 X118.11 Y138.179 E45.70149
G1 X117.541 Y138.179 E45.77719
G1 X116.688 Y138.165 E45.89069
G1 X116.458 Y138.157 E45.92131
G1 X113.716 Y138.001 E46.2867
G1 X111.041 Y137.924 E46.64273
G1 X108.399 Y137.924 E46.99422
G1 X105.703 Y137.999 E47.35304
G1 X104.825 Y138.05 E47.47004
G1 X103.342 Y138.114 E47.66753
G1 X102.275 Y138.131 E47.8095
G1 X98.275 Y138.131 E48.34166
G1 X97.6 Y138.127 E48.43146
G1 X96.331 Y138.126 E48.60029
G1 X95.665 Y138.123 E48.6889
G1 X94.465 Y138.123 E48.84855
G1 X93.807 Y138.118 E48.93609
G1 X92.869 Y138.117 E49.06088
G1 X91.715 Y138.109 E49.21441
G1 X90.643 Y138.108 E49.35703
G1 X90.094 Y138.104 E49.43008
G1 X89.118 Y138.102 E49.55992
G1 X88.499 Y138.092 E49.64229
G1 X87.82 Y138.041 E49.73288
G1 X86.943 Y137.868 E49.8518
G1 X86.288 Y137.682 E49.94239
G1 X85.659 Y137.421 E50.03299
G1 X84.877 Y136.962 E50.15362
G1 X84.271 Y136.501 E50.25492
G1 X83.767 Y136.044 E50.34544
G1 X83.319 Y135.531 E50.43605
G1 X82.98 Y135.044 E50.51499
G1 X82.659 Y134.494 E50.59971
G1 X82.36 Y133.882 E50.69033
G1 X82.052 Y132.909 E50.82611
G1 X81.937 Y132.392 E50.89657
G1 X81.806 Y131.423 E51.02666
G1 X81.789 Y130.892 E51.09734
G1 X81.792 Y128.553 E51.40853
G1 X81.807 Y122.277 E52.24349
G1 X81.81 Y121.917 E52.29139
G1 X81.815 Y119.111 E52.6647
G1 X81.821 Y118.11 E52.79787
G1 X81.822 Y117.441 E52.88688
G1 X81.835 Y116.688 E52.98707
G1 X81.843 Y116.458 E53.01769
G1 X81.999 Y113.716 E53.38308
G1 X82.076 Y111.041 E53.73911
G1 X82.076 Y108.399 E54.0906
G1 X82.001 Y105.703 E54.44942
G1 X81.95 Y104.825 E54.56642
G1 X81.886 Y103.342 E54.76391
G1 X81.869 Y102.276 E54.90575
G1 X81.869 Y98.36 E55.42673
G1 X81.873 Y97.587 E55.52958
G1 X81.874 Y96.249 E55.70758
G1 X81.877 Y95.612 E55.79233
G1 X81.877 Y94.466 E55.9448
G1 X81.882 Y93.807 E56.03247
G1 X81.883 Y92.851 E56.15966
G1 X81.891 Y91.709 E56.31159
G1 X81.892 Y90.62 E56.45648
G1 X81.896 Y90.078 E56.52859
G1 X81.898 Y89.1 E56.6587
G1 X81.908 Y88.497 E56.73893
G1 X81.959 Y87.818 E56.82952
G1 X82.13 Y86.947 E56.94761
G1 X82.316 Y86.292 E57.0382
G1 X82.576 Y85.663 E57.12875
G1 X83.08 Y84.816 E57.25988
G1 X83.496 Y84.275 E57.35067
G1 X83.953 Y83.77 E57.44128
G0 F600 X84.546 Y84.309
G1 F120 X85.028 Y83.899 E57.52547
G1 X85.456 Y83.612 E57.59403
G1 X85.899 Y83.356 E57.6621
G1 X86.468 Y83.082 E57.74612
G1 X87.264 Y82.833 E57.85708
G1 X87.781 Y82.718 E57.92754
G1 X88.608 Y82.606 E58.03857
G1 X89.125 Y82.589 E58.10739
G1 X97.717 Y82.607 E59.25047
G1 X98.077 Y82.61 E59.29837
G1 X100.843 Y82.615 E59.66636
G1 X101.945 Y82.621 E59.81297
G1 X102.517 Y82.622 E59.88907
G1 X103.214 Y82.632 E59.98181
G1 X103.428 Y82.639 E60.0103
G1 X106.243 Y82.8 E60.38542
G1 X108.924 Y82.877 E60.74225
G1 X111.611 Y82.877 E61.09973
G1 X114.283 Y82.802 E61.45535
G1 X115.195 Y82.751 E61.57688
G1 X116.691 Y82.686 E61.77609
G1 X116.836 Y82.682 E61.79539
G1 X117.81 Y82.668 E61.92498
G1 X121.721 Y82.669 E62.44531
G1 X122.396 Y82.673 E62.53511
G1 X123.666 Y82.674 E62.70407
G1 X124.332 Y82.677 E62.79268
G1 X125.528 Y82.677 E62.95179
G1 X126.187 Y82.682 E63.03947
G1 X127.126 Y82.683 E63.1644
G1 X128.28 Y82.691 E63.31793
G1 X129.351 Y82.692 E63.46041
G1 X129.9 Y82.696 E63.53346
G1 X130.869 Y82.698 E63.66237
G1 X131.488 Y82.708 E63.74474
G1 X132.118 Y82.758 E63.82881
G1 X132.881 Y82.912 E63.93237
G1 X133.489 Y83.086 E64.01651
G1 X134.07 Y83.336 E64.10066
G1 X134.718 Y83.73 E64.20155
G1 X135.227 Y84.123 E64.2871
G1 X135.694 Y84.549 E64.3712
G1 X136.103 Y85.031 E64.4553
G1 X136.391 Y85.459 E64.52393
G1 X136.642 Y85.896 E64.59098
G1 X136.917 Y86.465 E64.67506
G1 X137.167 Y87.264 E64.78644
G1 X137.282 Y87.781 E64.8569
G1 X137.394 Y88.602 E64.96714
G1 X137.412 Y89.202 E65.047
G1 X137.409 Y91.371 E65.33557
G1 X137.406 Y91.792 E65.39158
G1 X137.393 Y97.717 E66.17984
G1 X137.39 Y98.077 E66.22774
G1 X137.385 Y100.952 E66.61023
G1 X137.379 Y101.776 E66.71986
G1 X137.377 Y102.545 E66.82217
G1 X137.362 Y103.405 E66.9366
G1 X137.35 Y103.689 E66.97442
G1 X137.217 Y105.94 E67.27442
G1 X137.136 Y108.656 E67.63591
G1 X137.13 Y111.342 E67.99326
G1 X137.201 Y114.026 E68.35047
G1 X137.258 Y115.054 E68.48744
G1 X137.257 Y115.203 E68.50727
G1 X137.323 Y116.485 E68.67805
G1 X137.335 Y117.017 E68.74885
G1 X137.331 Y121.721 E69.37467
G1 X137.327 Y122.396 E69.46447
G1 X137.326 Y123.666 E69.63344
G1 X137.323 Y124.332 E69.72204
G1 X137.323 Y125.529 E69.88129
G1 X137.318 Y126.187 E69.96883
G1 X137.317 Y127.258 E70.11132
G1 X137.309 Y128.26 E70.24463
G1 X137.308 Y129.352 E70.38991
G1 X137.304 Y129.9 E70.46282
G1 X137.302 Y130.869 E70.59174
G1 X137.292 Y131.488 E70.6741
G1 X137.242 Y132.118 E70.75818
G1 X137.088 Y132.883 E70.862
G1 X136.913 Y133.49 E70.94604
G1 X136.663 Y134.071 E71.03019
G1 X136.288 Y134.692 E71.1267
G1 X135.877 Y135.227 E71.21646
G1 X135.451 Y135.694 E71.30055
G1 X134.969 Y136.103 E71.38465
G1 X134.541 Y136.391 E71.45329
G1 X134.104 Y136.642 E71.52033
G1 X133.535 Y136.917 E71.60441
G1 X132.736 Y137.167 E71.71579
G1 X132.219 Y137.282 E71.78626
G1 X131.392 Y137.394 E71.89728
G1 X130.875 Y137.411 E71.9661
G1 X122.283 Y137.393 E73.10919
G1 X121.923 Y137.39 E73.15709
G1 X119.116 Y137.385 E73.53053
G1 X118.115 Y137.379 E73.66371
G1 X117.541 Y137.379 E73.74007
G1 X116.702 Y137.365 E73.85171
G1 X116.503 Y137.358 E73.8782
G1 X113.748 Y137.201 E74.24532
G1 X111.064 Y137.124 E74.60255
G1 X108.377 Y137.124 E74.96003
G1 X105.703 Y137.199 E75.31592
G1 X104.791 Y137.25 E75.43744
G1 X103.308 Y137.314 E75.63493
G1 X103.164 Y137.318 E75.65409
G1 X102.19 Y137.332 E75.78369
G1 X98.279 Y137.331 E76.30401
G1 X97.604 Y137.327 E76.39381
G1 X96.334 Y137.326 E76.56277
G1 X95.668 Y137.323 E76.65138
G1 X94.471 Y137.323 E76.81063
G1 X93.813 Y137.318 E76.89817
G1 X92.874 Y137.317 E77.0231
G1 X91.72 Y137.309 E77.17663
G1 X90.649 Y137.308 E77.31912
G1 X90.1 Y137.304 E77.39216
G1 X89.131 Y137.302 E77.52107
G1 X88.512 Y137.292 E77.60344
G1 X87.882 Y137.242 E77.68752
G1 X87.116 Y137.087 E77.79149
G1 X86.508 Y136.912 E77.87566
G1 X85.928 Y136.661 E77.95974
G1 X85.335 Y136.306 E78.05169
G1 X84.773 Y135.877 E78.14575
G1 X84.306 Y135.451 E78.22985
G1 X83.897 Y134.969 E78.31395
G1 X83.604 Y134.532 E78.38395
G1 X83.356 Y134.101 E78.4501
G1 X83.082 Y133.532 E78.53412
G1 X82.833 Y132.736 E78.64508
G1 X82.718 Y132.219 E78.71555
G1 X82.605 Y131.383 E78.82778
G1 X82.589 Y130.877 E78.89513
G1 X82.592 Y128.555 E79.20405
G1 X82.607 Y122.283 E80.03849
G1 X82.61 Y121.923 E80.08638
G1 X82.615 Y119.116 E80.45983
G1 X82.621 Y118.115 E80.593
G1 X82.622 Y117.455 E80.68081
G1 X82.635 Y116.702 E80.78101
G1 X82.642 Y116.503 E80.8075
G1 X82.799 Y113.748 E81.17462
G1 X82.876 Y111.064 E81.53185
G1 X82.876 Y108.377 E81.88933
G1 X82.801 Y105.704 E82.24508
G1 X82.75 Y104.791 E82.36674
G1 X82.686 Y103.308 E82.56422
G1 X82.682 Y103.164 E82.58339
G1 X82.668 Y102.191 E82.71285
G1 X82.669 Y98.364 E83.22199
G1 X82.673 Y97.591 E83.32484
G1 X82.674 Y96.252 E83.50298
G1 X82.677 Y95.615 E83.58772
G1 X82.677 Y94.472 E83.73979
G1 X82.682 Y93.813 E83.82747
G1 X82.683 Y92.857 E83.95465
G1 X82.691 Y91.715 E84.10659
G1 X82.692 Y90.626 E84.25147
G1 X82.696 Y90.084 E84.32358
G1 X82.698 Y89.113 E84.45276
G1 X82.708 Y88.51 E84.533
G1 X82.758 Y87.88 E84.61708
G1 X82.912 Y87.119 E84.72037
G1 X83.086 Y86.511 E84.80451
