;FLAVOR:Marlin
;TIME:8021
;Filament used: 5.18757m
;Layer height: 0.75
;MINX:82.984
;MINY:72.03
;MINZ:0.75
;MAXX:137.014
;MAXY:143.268
;MAXZ:30.75
;Generated with Cura_SteamEngine 4.8.0
M105
M109 S0
M82 ;absolute extrusion mode
M302 P1

M106 S0

G92 E0
G28
G1 Z5.0 F3000
G92 E0
G92 E0
;LAYER_COUNT:41
;LAYER:0
M107
G0 F600 X92.857 Y75.462 Z0.75
;TYPE:SKIRT
G1 F120 X93.47 Y74.826 E0.41315
G1 X94.137 Y74.248 E0.82596
G1 X94.854 Y73.732 E1.23913
G1 X95.615 Y73.284 E1.65216
G1 X96.413 Y72.906 E2.06516
G1 X97.242 Y72.602 E2.47815
G1 X98.095 Y72.375 E2.891
G1 X99.184 Y72.2 E3.40688
G1 X99.953 Y72.121 E3.76845
G1 X100.288 Y72.092 E3.92572
G1 X100.891 Y72.051 E4.20841
G1 X101.716 Y72.03 E4.59441
G1 X101.835 Y72.032 E4.65007
G1 X102.36 Y72.055 E4.89586
G1 X103.593 Y72.142 E5.47399
G1 X103.833 Y72.152 E5.58634
G1 X104.559 Y72.208 E5.92692
G1 X107.136 Y72.332 E7.13363
G1 X109.66 Y72.382 E8.31439
G1 X112.253 Y72.361 E9.52723
G1 X114.754 Y72.269 E10.69779
G1 X116.542 Y72.144 E11.53611
G1 X117.818 Y72.066 E12.13404
G1 X118.395 Y72.048 E12.40405
G1 X118.938 Y72.047 E12.65802
G1 X119.411 Y72.056 E12.87929
G1 X120.291 Y72.122 E13.29204
G1 X120.825 Y72.201 E13.54452
G1 X121.578 Y72.334 E13.90217
G1 X121.871 Y72.39 E14.04169
G1 X122.442 Y72.509 E14.3145
G1 X123.298 Y72.728 E14.72776
G1 X124.13 Y73.024 E15.1408
G1 X124.931 Y73.393 E15.55328
G1 X125.697 Y73.834 E15.96669
G1 X126.419 Y74.342 E16.3796
G1 X127.092 Y74.913 E16.7924
G1 X127.711 Y75.543 E17.2055
G1 X128.27 Y76.227 E17.61867
G1 X128.765 Y76.958 E18.03159
G1 X129.192 Y77.73 E18.44422
G1 X129.547 Y78.539 E18.85743
G1 X129.828 Y79.376 E19.27039
G1 X130.032 Y80.235 E19.68333
G1 X130.183 Y81.424 E20.24392
G1 X130.255 Y82.538 E20.76605
G1 X130.458 Y85.119 E21.97696
G1 X130.733 Y87.689 E23.18587
G1 X131.073 Y90.191 E24.36686
G1 X131.487 Y92.699 E25.55578
G1 X131.979 Y95.236 E26.76449
G1 X132.529 Y97.693 E27.94212
G1 X133.157 Y100.174 E29.13914
G1 X133.861 Y102.655 E30.34536
G1 X134.38 Y104.303 E31.15349
G1 X134.569 Y104.934 E31.46157
G1 X134.775 Y105.75 E31.85521
G1 X134.955 Y106.616 E32.26891
G1 X135.516 Y109.18 E33.49652
G1 X135.91 Y110.798 E34.2754
G1 X136.105 Y111.573 E34.64919
G1 X136.19 Y111.937 E34.82402
G1 X136.357 Y112.726 E35.20122
G1 X136.415 Y113.023 E35.34276
G1 X136.549 Y113.77 E35.69772
G1 X136.657 Y114.456 E36.02253
G1 X136.686 Y114.658 E36.11798
G1 X136.79 Y115.442 E36.48789
G1 X136.836 Y115.858 E36.68364
G1 X136.928 Y116.89 E37.16825
G1 X136.957 Y117.324 E37.37169
G1 X137.004 Y118.383 E37.86749
G1 X137.014 Y118.815 E38.0696
G1 X137.014 Y119.728 E38.49663
G1 X137.002 Y120.203 E38.71887
G1 X136.933 Y121.619 E39.38195
G1 X136.885 Y122.279 E39.69146
G1 X136.825 Y122.827 E39.9493
G1 X136.619 Y124.313 E40.65098
G1 X136.509 Y124.977 E40.96578
G1 X136.403 Y125.527 E41.22776
G1 X136.353 Y125.762 E41.34014
G1 X136.184 Y126.513 E41.70018
G1 X136.033 Y127.109 E41.98775
G1 X135.822 Y127.866 E42.35531
G1 X135.539 Y128.76 E42.7939
G1 X135.285 Y129.476 E43.14924
G1 X135.133 Y129.87 E43.34676
G1 X134.889 Y130.465 E43.64754
G1 X134.611 Y131.098 E43.9709
G1 X134.275 Y131.813 E44.34041
G1 X133.884 Y132.578 E44.74224
G1 X133.482 Y133.284 E45.12223
G1 X132.932 Y134.177 E45.61277
G1 X132.599 Y134.682 E45.8957
G1 X132.243 Y135.187 E46.18469
G1 X131.894 Y135.658 E46.45887
G1 X131.533 Y136.114 E46.7309
G1 X131.306 Y136.388 E46.89732
G1 X130.885 Y136.877 E47.19912
G1 X130.532 Y137.27 E47.4462
G1 X130.126 Y137.691 E47.71975
G1 X129.478 Y138.291 E48.13281
G1 X128.778 Y138.83 E48.54603
G1 X128.033 Y139.303 E48.95878
G1 X127.474 Y139.6 E49.25484
G1 X126.582 Y140.036 E49.71922
G1 X124.351 Y141.107 E50.87672
G1 X123.674 Y141.448 E51.23126
G1 X122.869 Y141.809 E51.6439
G1 X122.033 Y142.096 E52.05732
G1 X120.819 Y142.37 E52.63941
G1 X117.26 Y142.995 E54.3295
G1 X117.143 Y143.018 E54.38527
G1 X116.27 Y143.147 E54.79803
G1 X114.966 Y143.191 E55.40828
G1 X113.907 Y143.156 E55.90387
G1 X111.349 Y143.107 E57.10052
G1 X108.766 Y143.131 E58.30869
G1 X105.761 Y143.251 E59.71531
G1 X105.503 Y143.264 E59.83614
G1 X104.62 Y143.268 E60.24914
G1 X103.74 Y143.193 E60.66223
G1 X103.096 Y143.086 E60.96757
G1 X102.661 Y142.999 E61.17506
G1 X99.118 Y142.359 E62.85901
G1 X98.725 Y142.281 E63.04641
G1 X97.869 Y142.063 E63.45956
G1 X97.036 Y141.769 E63.87272
G1 X96.286 Y141.428 E64.25807
G1 X96.148 Y141.358 E64.33044
G1 X92.624 Y139.654 E66.16127
G1 X91.847 Y139.234 E66.57438
G1 X91.111 Y138.745 E66.98768
G1 X90.278 Y138.062 E67.49151
G1 X90.073 Y137.874 E67.62161
G1 X89.607 Y137.416 E67.92722
G1 X89.249 Y137.035 E68.17174
G1 X88.674 Y136.37 E68.58292
G1 X88.299 Y135.906 E68.86196
G1 X88.013 Y135.529 E69.08329
G1 X87.547 Y134.882 E69.45623
G1 X87.341 Y134.583 E69.62605
G1 X86.926 Y133.959 E69.97656
G1 X86.487 Y133.233 E70.37338
G1 X85.96 Y132.268 E70.88765
G1 X85.698 Y131.759 E71.15541
G1 X85.454 Y131.242 E71.4228
G1 X85.35 Y131.011 E71.54129
G1 X85.109 Y130.457 E71.82386
G1 X84.907 Y129.967 E72.07175
G1 X84.721 Y129.48 E72.31558
G1 X84.615 Y129.178 E72.46528
G1 X84.326 Y128.314 E72.8914
G1 X84.23 Y128.011 E73.04006
G1 X84.072 Y127.482 E73.29829
G1 X83.953 Y127.048 E73.50877
G1 X83.734 Y126.164 E73.93473
G1 X83.639 Y125.731 E74.14207
G1 X83.486 Y124.959 E74.51018
G1 X83.381 Y124.35 E74.79922
G1 X83.247 Y123.436 E75.23129
G1 X83.194 Y123.012 E75.43115
G1 X83.095 Y122.042 E75.88719
G1 X83.033 Y121.113 E76.32267
G1 X83.024 Y120.907 E76.41911
G1 X82.998 Y120.158 E76.76965
G1 X82.993 Y119.952 E76.86603
G1 X82.984 Y119.289 E77.17615
G1 X82.987 Y118.885 E77.36512
G1 X83.017 Y117.812 E77.86718
G1 X83.039 Y117.367 E78.07557
G1 X83.099 Y116.553 E78.45733
G1 X83.147 Y116.067 E78.68574
G1 X83.333 Y114.571 E79.39084
G1 X83.389 Y114.188 E79.57188
G1 X83.57 Y113.09 E80.09237
G1 X83.629 Y112.764 E80.24732
G1 X83.827 Y111.777 E80.71816
G1 X84.249 Y109.761 E81.68152
G1 X84.545 Y108.071 E82.484
G1 X84.804 Y106.668 E83.1513
G1 X85.003 Y105.808 E83.56417
G1 X85.187 Y105.225 E83.85011
G1 X86.116 Y102.565 E85.16794
G1 X86.882 Y100.146 E86.35473
G1 X87.59 Y97.676 E87.55652
G1 X88.229 Y95.18 E88.7616
G1 X88.787 Y92.714 E89.94416
G1 X89.279 Y90.211 E91.13727
G1 X89.699 Y87.703 E92.32665
G1 X90.052 Y85.154 E93.53024
G1 X90.333 Y82.589 E94.73713
G1 X90.467 Y81.052 E95.45874
G1 X90.583 Y80.177 E95.87158
G1 X90.779 Y79.315 E96.28504
G1 X91.051 Y78.476 E96.69757
G1 X91.398 Y77.664 E97.11058
G1 X91.817 Y76.887 E97.52347
G1 X92.305 Y76.151 E97.93651
G1 X92.857 Y75.462 E98.34944
G0 F600 X93.754 Y76.725
G1 F120 X94.294 Y76.118 E98.72943
G1 X94.891 Y75.567 E99.10941
G1 X95.539 Y75.078 E99.48911
G1 X96.232 Y74.655 E99.86885
G1 X96.964 Y74.302 E100.24895
G1 X97.726 Y74.022 E100.62865
G1 X98.513 Y73.819 E101.0088
G1 X99.337 Y73.692 E101.39875
G1 X100.106 Y73.613 E101.76032
G1 X100.389 Y73.589 E101.89316
G1 X100.992 Y73.548 E102.17585
G1 X101.691 Y73.53 E102.50289
G1 X102.254 Y73.552 E102.76642
G1 X103.588 Y73.646 E103.39191
G1 X103.718 Y73.647 E103.45271
G1 X104.51 Y73.708 E103.82424
G1 X107.07 Y73.831 E105.02299
G1 X109.643 Y73.882 E106.22667
G1 X112.285 Y73.861 E107.46243
G1 X114.821 Y73.767 E108.64938
G1 X116.634 Y73.641 E109.49941
G1 X117.91 Y73.563 E110.09733
G1 X118.398 Y73.548 E110.32569
G1 X118.941 Y73.547 E110.57966
G1 X119.367 Y73.555 E110.77894
G1 X120.564 Y73.678 E111.34175
G1 X121.317 Y73.811 E111.6994
G1 X121.565 Y73.859 E111.81755
G1 X122.136 Y73.978 E112.09035
G1 X122.922 Y74.182 E112.47016
G1 X123.684 Y74.463 E112.85003
G1 X124.415 Y74.818 E113.23012
G1 X125.107 Y75.242 E113.6097
G1 X125.754 Y75.733 E113.98959
G1 X126.35 Y76.285 E114.36955
G1 X126.889 Y76.892 E114.74923
G1 X127.365 Y77.55 E115.12907
G1 X127.775 Y78.252 E115.50931
G1 X128.113 Y78.99 E115.88897
G1 X128.377 Y79.758 E116.26881
G1 X128.564 Y80.548 E116.64852
G1 X128.686 Y81.521 E117.10717
G1 X128.756 Y82.61 E117.61757
G1 X128.967 Y85.29 E118.87494
G1 X129.24 Y87.839 E120.07398
G1 X129.592 Y90.425 E121.29466
G1 X130.014 Y92.983 E122.50726
G1 X130.507 Y95.528 E123.71974
G1 X131.068 Y98.033 E124.9204
G1 X131.708 Y100.563 E126.14101
G1 X132.423 Y103.081 E127.36529
G1 X132.943 Y104.734 E128.17578
G1 X133.132 Y105.365 E128.48387
G1 X133.307 Y106.055 E128.81682
G1 X133.491 Y106.94 E129.2396
G1 X134.063 Y109.552 E130.49024
G1 X134.436 Y111.087 E131.22908
G1 X134.651 Y111.94 E131.64053
G1 X134.722 Y112.248 E131.78836
G1 X134.889 Y113.037 E132.16557
G1 X134.938 Y113.288 E132.28518
G1 X135.072 Y114.035 E132.64015
G1 X135.175 Y114.684 E132.9475
G1 X135.303 Y115.639 E133.39816
G1 X135.342 Y115.991 E133.56381
G1 X135.434 Y117.023 E134.04841
G1 X135.459 Y117.39 E134.22046
G1 X135.506 Y118.449 E134.71627
G1 X135.514 Y118.815 E134.88749
G1 X135.514 Y119.728 E135.31452
G1 X135.504 Y120.13 E135.5026
G1 X135.435 Y121.546 E136.16568
G1 X135.39 Y122.157 E136.45223
G1 X135.339 Y122.621 E136.67056
G1 X135.133 Y124.107 E137.37224
G1 X135.031 Y124.722 E137.66382
G1 X134.932 Y125.234 E137.90773
G1 X134.89 Y125.432 E138.0024
G1 X134.721 Y126.183 E138.36244
G1 X134.588 Y126.706 E138.61484
G1 X134.377 Y127.463 E138.9824
G1 X134.114 Y128.292 E139.38919
G1 X133.874 Y128.967 E139.72426
G1 X133.745 Y129.301 E139.89173
G1 X133.501 Y129.896 E140.19251
G1 X133.254 Y130.46 E140.4805
G1 X132.918 Y131.175 E140.85
G1 X132.556 Y131.88 E141.22067
G1 X132.205 Y132.497 E141.55269
G1 X131.655 Y133.39 E142.04323
G1 X131.373 Y133.817 E142.28257
G1 X131.017 Y134.322 E142.57156
G1 X130.697 Y134.753 E142.82263
G1 X130.362 Y135.178 E143.07574
G1 X130.169 Y135.41 E143.21689
G1 X129.748 Y135.899 E143.51869
G1 X129.208 Y136.486 E143.89175
G1 X129.058 Y136.638 E143.99163
G1 X128.46 Y137.187 E144.37132
G1 X127.811 Y137.675 E144.75111
G1 X126.814 Y138.252 E145.28989
G1 X125.933 Y138.684 E145.74883
G1 X123.698 Y139.757 E146.90841
G1 X122.999 Y140.109 E147.27446
G1 X122.257 Y140.438 E147.6541
G1 X121.486 Y140.693 E148.03392
G1 X120.583 Y140.889 E148.46611
G1 X120.486 Y140.904 E148.51201
G1 X116.962 Y141.525 E150.18566
G1 X116.858 Y141.545 E150.23519
G1 X116.054 Y141.66 E150.61507
G1 X115.016 Y141.691 E151.10078
G1 X113.987 Y141.657 E151.58232
G1 X111.364 Y141.607 E152.80938
G1 X108.725 Y141.631 E154.04374
G1 X105.685 Y141.753 E155.46676
G1 X105.427 Y141.766 E155.58758
G1 X104.615 Y141.766 E155.96737
G1 X103.807 Y141.687 E156.34709
G1 X102.959 Y141.528 E156.75063
G1 X99.385 Y140.883 E158.44927
G1 X99.028 Y140.812 E158.61952
G1 X98.242 Y140.608 E158.99933
G1 X97.479 Y140.329 E159.37931
G1 X96.965 Y140.09 E159.64443
G1 X96.809 Y140.011 E159.72622
G1 X93.277 Y138.303 E161.56123
G1 X92.564 Y137.914 E161.94112
G1 X91.893 Y137.457 E162.32083
G1 X91.292 Y136.956 E162.68679
G1 X91.087 Y136.768 E162.81689
G1 X90.692 Y136.381 E163.07554
G1 X90.257 Y135.913 E163.37438
G1 X89.819 Y135.401 E163.68953
G1 X89.472 Y134.972 E163.9476
G1 X89.231 Y134.653 E164.1346
G1 X88.765 Y134.006 E164.50753
G1 X88.59 Y133.753 E164.65142
G1 X88.175 Y133.129 E165.00193
G1 X87.803 Y132.514 E165.3381
G1 X87.276 Y131.549 E165.85237
G1 X87.042 Y131.091 E166.09293
G1 X86.814 Y130.608 E166.34274
G1 X86.726 Y130.413 E166.44281
G1 X86.485 Y129.859 E166.72538
G1 X86.205 Y129.168 E167.0741
G1 X86.037 Y128.702 E167.30579
G1 X85.748 Y127.838 E167.73191
G1 X85.667 Y127.582 E167.85749
G1 X85.509 Y127.053 E168.11572
G1 X85.408 Y126.685 E168.2942
G1 X85.195 Y125.825 E168.7086
G1 X85.11 Y125.44 E168.89301
G1 X84.957 Y124.668 E169.26111
G1 X84.865 Y124.133 E169.51501
G1 X84.731 Y123.219 E169.94708
G1 X84.687 Y122.86 E170.11625
G1 X84.588 Y121.89 E170.57229
G1 X84.531 Y121.029 E170.97588
G1 X84.523 Y120.855 E171.05735
G1 X84.497 Y120.106 E171.40789
G1 X84.484 Y119.269 E171.79942
G1 X84.486 Y118.926 E171.95985
G1 X84.516 Y117.853 E172.46191
G1 X84.535 Y117.478 E172.63753
G1 X84.595 Y116.664 E173.01928
G1 X84.636 Y116.252 E173.21294
G1 X84.822 Y114.756 E173.91804
G1 X84.869 Y114.432 E174.07116
G1 X85.05 Y113.334 E174.59165
G1 X85.1 Y113.058 E174.72284
G1 X85.295 Y112.084 E175.18744
G1 X85.72 Y110.055 E176.15704
G1 X86.02 Y108.343 E176.96998
G1 X86.279 Y106.94 E177.63728
G1 X86.466 Y106.15 E178.01699
G1 X86.603 Y105.719 E178.22852
G1 X87.542 Y103.028 E179.56158
G1 X88.318 Y100.582 E180.76182
G1 X89.044 Y98.049 E181.99426
G1 X89.683 Y95.553 E183.19934
G1 X90.256 Y93.02 E184.41401
G1 X90.752 Y90.495 E185.61757
G1 X91.185 Y87.91 E186.84348
G1 X91.54 Y85.346 E188.05415
G1 X91.824 Y82.751 E189.27513
G1 X91.961 Y81.182 E190.01178
G1 X92.072 Y80.378 E190.39139
G1 X92.26 Y79.588 E190.77121
G1 X92.526 Y78.82 E191.15136
G1 X92.866 Y78.083 E191.53098
G1 X93.277 Y77.382 E191.91105
G1 X93.754 Y76.725 E192.29079
G0 F600 X95.197 Y77.346
G1 F120 X95.721 Y76.832 E192.6341
G1 X96.298 Y76.377 E192.97779
G1 X96.921 Y75.988 E193.32132
G1 X97.583 Y75.669 E193.66503
G1 X98.275 Y75.423 E194.00853
G1 X98.99 Y75.255 E194.35206
G1 X99.49 Y75.184 E194.58827
G1 X100.259 Y75.105 E194.94984
G1 X100.491 Y75.086 E195.05871
G1 X101.094 Y75.045 E195.3414
G1 X101.665 Y75.03 E195.60856
G1 X102.148 Y75.048 E195.83462
G1 X103.434 Y75.139 E196.43762
G1 X103.603 Y75.143 E196.51668
G1 X104.395 Y75.204 E196.88822
G1 X107.002 Y75.33 E198.10899
G1 X109.661 Y75.382 E199.35289
G1 X112.318 Y75.361 E200.59567
G1 X114.889 Y75.266 E201.799
G1 X116.725 Y75.139 E202.65978
G1 X118.001 Y75.061 E203.25771
G1 X118.401 Y75.048 E203.4449
G1 X118.944 Y75.047 E203.69887
G1 X119.324 Y75.055 E203.87664
G1 X120.303 Y75.155 E204.33692
G1 X121.056 Y75.288 E204.69457
G1 X121.259 Y75.327 E204.79125
G1 X121.83 Y75.446 E205.06406
G1 X122.54 Y75.635 E205.4077
G1 X123.225 Y75.9 E205.75123
G1 X123.878 Y76.237 E206.09493
G1 X124.489 Y76.644 E206.4383
G1 X125.053 Y77.114 E206.78169
G1 X125.563 Y77.644 E207.12571
G1 X126.012 Y78.225 E207.46914
G1 X126.395 Y78.852 E207.81279
G1 X126.708 Y79.516 E208.15613
G1 X126.947 Y80.211 E208.49988
G1 X127.108 Y80.928 E208.84359
G1 X127.189 Y81.618 E209.16853
G1 X127.262 Y82.748 E209.69816
G1 X127.47 Y85.389 E210.93723
G1 X127.753 Y88.027 E212.17816
G1 X128.109 Y90.652 E213.41716
G1 X128.535 Y93.237 E214.64253
G1 X129.038 Y95.834 E215.87977
G1 X129.605 Y98.365 E217.09292
G1 X130.262 Y100.961 E218.3454
G1 X130.988 Y103.521 E219.58998
G1 X131.506 Y105.164 E220.39574
G1 X131.695 Y105.795 E220.70382
G1 X131.838 Y106.36 E220.97642
G1 X132.013 Y107.203 E221.37911
G1 X132.6 Y109.884 E222.66278
G1 X132.995 Y111.507 E223.44405
G1 X133.196 Y112.306 E223.8294
G1 X133.255 Y112.558 E223.95045
G1 X133.422 Y113.347 E224.32766
G1 X133.462 Y113.553 E224.42581
G1 X133.596 Y114.3 E224.78077
G1 X133.692 Y114.912 E225.07052
G1 X133.816 Y115.836 E225.50657
G1 X133.848 Y116.125 E225.64256
G1 X133.94 Y117.157 E226.12717
G1 X133.96 Y117.457 E226.26779
G1 X134.007 Y118.516 E226.7636
G1 X134.014 Y118.815 E226.90348
G1 X134.014 Y119.728 E227.33051
G1 X134.006 Y120.057 E227.48444
G1 X133.937 Y121.473 E228.14752
G1 X133.895 Y122.036 E228.41158
G1 X133.853 Y122.415 E228.58993
G1 X133.647 Y123.901 E229.29161
G1 X133.553 Y124.466 E229.5595
G1 X133.426 Y125.103 E229.8633
G1 X133.257 Y125.854 E230.22334
G1 X133.143 Y126.303 E230.44001
G1 X132.932 Y127.06 E230.80758
G1 X132.689 Y127.823 E231.18211
G1 X132.462 Y128.459 E231.49796
G1 X132.357 Y128.732 E231.63476
G1 X132.113 Y129.327 E231.93555
G1 X131.896 Y129.822 E232.18834
G1 X131.56 Y130.537 E232.55785
G1 X131.228 Y131.183 E232.89756
G1 X130.927 Y131.711 E233.18183
G1 X130.377 Y132.604 E233.67237
G1 X130.147 Y132.953 E233.86786
G1 X129.791 Y133.458 E234.15685
G1 X129.389 Y133.992 E234.46948
G1 X129.032 Y134.431 E234.73413
G1 X128.611 Y134.92 E235.03593
G1 X128.14 Y135.432 E235.36132
G1 X127.99 Y135.584 E235.4612
G1 X127.447 Y136.078 E235.80455
G1 X126.853 Y136.51 E236.14808
G1 X126.154 Y136.905 E236.52361
G1 X125.284 Y137.331 E236.97669
G1 X123.045 Y138.406 E238.13836
G1 X122.324 Y138.769 E238.51592
G1 X121.651 Y139.063 E238.85942
G1 X120.95 Y139.283 E239.20306
G1 X120.348 Y139.407 E239.49054
G1 X116.711 Y140.046 E241.21769
G1 X116.573 Y140.073 E241.28346
G1 X115.845 Y140.173 E241.62716
G1 X115.065 Y140.192 E241.99209
G1 X114.063 Y140.159 E242.461
G1 X111.343 Y140.107 E243.73343
G1 X108.718 Y140.131 E244.96125
G1 X105.352 Y140.267 E246.53688
G1 X104.617 Y140.264 E246.88066
G1 X103.686 Y140.144 E247.31971
G1 X103.266 Y140.06 E247.52004
G1 X99.651 Y139.407 E249.23822
