;FLAVOR:Marlin
;TIME:3149
;Filament used: 1.91059m
;Layer height: 0.75
;MINX:77.914
;MINY:77.914
;MINZ:0.75
;MAXX:142.086
;MAXY:142.086
;MAXZ:28.5
;Generated with Cura_SteamEngine 4.8.0
M105
M109 S0
M82 ;absolute extrusion mode
M302 P1

M106 S0

G92 E0
G28
G1 Z5.0 F3000
G92 E0
G92 E0
;LAYER_COUNT:84
;LAYER:0
M107
G0 F600 X81.435 Y80.949 Z0.75
;TYPE:SKIRT
G1 F120 X82.101 Y80.369 E0.41307
G1 X82.829 Y79.844 E0.83287
G1 X83.391 Y79.487 E1.14428
G1 X83.487 Y79.43 E1.1965
G1 X84.266 Y79.014 E1.60956
G1 X85.079 Y78.671 E2.02227
G1 X85.927 Y78.4 E2.43866
G1 X86.424 Y78.266 E2.67942
G1 X87.286 Y78.075 E3.09237
G1 X88.547 Y77.939 E3.68559
G1 X89.131 Y77.919 E3.95889
G1 X89.817 Y77.914 E4.27976
G1 X94.852 Y77.939 E6.63476
G1 X95.756 Y77.941 E7.05758
G1 X97.407 Y77.949 E7.8298
G1 X100.316 Y77.965 E9.19042
G1 X100.915 Y77.966 E9.47058
G1 X101.219 Y77.97 E9.61278
G1 X102.666 Y77.978 E10.28958
G1 X103.375 Y77.988 E10.62123
G1 X103.936 Y78.012 E10.88386
G1 X106.625 Y78.167 E12.14365
G1 X109.18 Y78.24 E13.33917
G1 X111.74 Y78.24 E14.53653
G1 X114.275 Y78.169 E15.72267
G1 X115.345 Y78.109 E16.22391
G1 X116.306 Y78.068 E16.6738
G1 X116.915 Y78.057 E16.95869
G1 X118.216 Y78.065 E17.56721
G1 X121.342 Y78.066 E19.0293
G1 X122.571 Y78.074 E19.60414
G1 X123.394 Y78.076 E19.98908
G1 X124.45 Y78.083 E20.483
G1 X127.031 Y78.092 E21.6902
G1 X127.417 Y78.098 E21.87076
G1 X128.902 Y78.11 E22.56535
G1 X129.194 Y78.11 E22.70192
G1 X130.08 Y78.117 E23.11633
G1 X130.808 Y78.119 E23.45684
G1 X131.499 Y78.13 E23.78007
G1 X132.38 Y78.184 E24.19291
G1 X133.429 Y78.355 E24.69002
G1 X133.799 Y78.436 E24.86718
G1 X134.652 Y78.663 E25.28003
G1 X135.481 Y78.967 E25.69302
G1 X136.279 Y79.345 E26.10601
G1 X137.04 Y79.793 E26.51905
G1 X137.717 Y80.269 E26.90613
G1 X138.408 Y80.819 E27.3192
G1 X139.046 Y81.43 E27.73238
G1 X139.626 Y82.095 E28.1451
G1 X140.145 Y82.813 E28.55947
G1 X140.476 Y83.33 E28.84659
G1 X140.541 Y83.438 E28.90555
G1 X140.961 Y84.215 E29.31866
G1 X141.31 Y85.026 E29.73161
G1 X141.604 Y85.941 E30.18113
G1 X141.737 Y86.437 E30.42131
G1 X141.927 Y87.299 E30.83417
G1 X142.061 Y88.547 E31.42124
G1 X142.081 Y89.128 E31.69314
G1 X142.086 Y89.799 E32.00699
G1 X142.061 Y94.853 E34.37088
G1 X142.059 Y95.757 E34.7937
G1 X142.052 Y97.236 E35.48547
G1 X142.044 Y98.483 E36.06873
G1 X142.042 Y99.226 E36.41625
G1 X142.035 Y100.316 E36.92607
G1 X142.034 Y100.941 E37.2184
G1 X142.03 Y101.235 E37.35592
G1 X142.021 Y102.74 E38.05985
G1 X142.01 Y103.432 E38.38356
G1 X141.994 Y103.845 E38.57687
G1 X141.836 Y106.558 E39.84795
G1 X141.759 Y109.143 E41.05754
G1 X141.755 Y111.702 E42.25444
G1 X141.823 Y114.234 E43.43913
G1 X141.928 Y116.258 E44.38707
G1 X141.944 Y117.2 E44.82773
G1 X141.935 Y118.462 E45.41801
G1 X141.933 Y121.429 E46.80574
G1 X141.926 Y122.534 E47.32258
G1 X141.924 Y123.313 E47.68693
G1 X141.917 Y124.42 E48.20471
G1 X141.908 Y126.985 E49.40442
G1 X141.901 Y127.419 E49.60744
G1 X141.891 Y128.736 E50.22344
G1 X141.891 Y129.037 E50.36423
G1 X141.883 Y130.078 E50.85114
G1 X141.881 Y130.808 E51.19258
G1 X141.87 Y131.498 E51.51535
G1 X141.816 Y132.38 E51.92865
G1 X141.647 Y133.423 E52.42284
G1 X141.566 Y133.794 E52.60046
G1 X141.338 Y134.647 E53.01343
G1 X141.035 Y135.476 E53.42626
G1 X140.658 Y136.274 E53.83905
G1 X140.21 Y137.035 E54.25209
G1 X139.726 Y137.723 E54.64553
G1 X139.175 Y138.413 E55.05853
G1 X138.565 Y139.051 E55.47138
G1 X137.899 Y139.631 E55.88445
G1 X137.171 Y140.156 E56.30425
G1 X136.609 Y140.513 E56.61566
G1 X136.513 Y140.57 E56.66788
G1 X135.734 Y140.986 E57.08094
G1 X134.921 Y141.329 E57.49365
G1 X134.073 Y141.6 E57.91004
G1 X133.576 Y141.734 E58.1508
G1 X132.714 Y141.925 E58.56375
G1 X131.453 Y142.061 E59.15697
G1 X130.869 Y142.081 E59.43028
G1 X130.183 Y142.086 E59.75114
G1 X125.148 Y142.061 E62.10614
G1 X124.244 Y142.059 E62.52896
G1 X122.593 Y142.051 E63.30118
G1 X119.684 Y142.035 E64.6618
G1 X119.084 Y142.034 E64.94243
G1 X117.467 Y142.023 E65.69875
G1 X116.596 Y142.011 E66.10618
G1 X116.181 Y141.996 E66.30041
G1 X113.435 Y141.837 E67.58692
G1 X110.883 Y141.762 E68.78106
G1 X108.323 Y141.759 E69.97842
G1 X105.794 Y141.828 E71.16173
G1 X104.744 Y141.887 E71.65361
G1 X103.697 Y141.932 E72.14377
G1 X103.085 Y141.943 E72.43006
G1 X101.784 Y141.935 E73.03857
G1 X98.658 Y141.934 E74.50067
G1 X97.429 Y141.926 E75.07551
G1 X96.606 Y141.924 E75.46044
G1 X95.55 Y141.917 E75.95437
G1 X92.969 Y141.908 E77.16156
G1 X92.583 Y141.902 E77.34212
G1 X91.098 Y141.89 E78.03671
G1 X90.806 Y141.89 E78.17329
G1 X89.92 Y141.883 E78.5877
G1 X89.192 Y141.881 E78.9282
G1 X88.501 Y141.87 E79.25144
G1 X87.62 Y141.816 E79.66427
G1 X86.571 Y141.645 E80.16139
G1 X86.201 Y141.564 E80.33854
G1 X85.348 Y141.337 E80.7514
G1 X84.519 Y141.033 E81.16438
G1 X83.721 Y140.655 E81.57738
G1 X82.96 Y140.207 E81.99041
G1 X82.277 Y139.726 E82.38114
G1 X81.587 Y139.175 E82.79414
G1 X80.949 Y138.565 E83.20699
G1 X80.369 Y137.899 E83.62006
G1 X79.844 Y137.171 E84.03986
G1 X79.556 Y136.722 E84.28936
G1 X79.496 Y136.624 E84.3431
G1 X79.069 Y135.851 E84.75615
G1 X78.714 Y135.042 E85.16936
G1 X78.384 Y134.023 E85.67034
G1 X78.253 Y133.527 E85.91028
G1 X78.067 Y132.664 E86.32319
G1 X77.939 Y131.452 E86.89322
G1 X77.919 Y130.863 E87.16887
G1 X77.914 Y130.152 E87.50143
G1 X77.939 Y125.146 E89.84287
G1 X77.941 Y124.243 E90.26522
G1 X77.949 Y122.592 E91.03743
G1 X77.965 Y119.683 E92.39805
G1 X77.966 Y119.057 E92.69085
G1 X77.978 Y117.317 E93.5047
G1 X77.989 Y116.595 E93.84243
G1 X78.004 Y116.179 E94.03713
G1 X78.163 Y113.433 E95.32364
G1 X78.238 Y110.883 E96.51685
G1 X78.241 Y108.323 E97.71421
G1 X78.172 Y105.793 E98.89799
G1 X78.113 Y104.744 E99.3894
G1 X78.068 Y103.697 E99.87956
G1 X78.057 Y103.086 E100.16538
G1 X78.065 Y101.784 E100.77436
G1 X78.066 Y98.612 E102.25797
G1 X78.074 Y97.409 E102.82065
G1 X78.084 Y94.74 E104.06901
G1 X78.091 Y93.675 E104.56714
G1 X78.092 Y92.958 E104.9025
G1 X78.1 Y92.447 E105.14153
G1 X78.11 Y91.057 E105.79168
G1 X78.11 Y90.806 E105.90908
G1 X78.117 Y89.92 E106.32349
G1 X78.119 Y89.155 E106.6813
G1 X78.13 Y88.494 E106.99051
G1 X78.185 Y87.613 E107.40337
G1 X78.355 Y86.571 E107.89718
G1 X78.436 Y86.201 E108.07433
G1 X78.663 Y85.348 E108.48719
G1 X78.967 Y84.519 E108.90017
G1 X79.345 Y83.721 E109.31317
G1 X79.793 Y82.96 E109.72621
G1 X80.274 Y82.277 E110.11693
G1 X80.825 Y81.587 E110.52993
G1 X81.435 Y80.949 E110.94278
G0 F600 X82.565 Y81.945
G1 F120 X83.188 Y81.424 E111.32263
G1 X83.65 Y81.099 E111.58683
G1 X84.157 Y80.777 E111.86775
G1 X84.253 Y80.72 E111.91997
G1 X84.971 Y80.34 E112.29993
G1 X85.723 Y80.033 E112.67983
G1 X86.317 Y79.848 E112.97082
G1 X86.814 Y79.714 E113.21158
G1 X87.608 Y79.542 E113.59156
G1 X88.611 Y79.437 E114.06325
G1 X89.145 Y79.419 E114.31316
G1 X89.81 Y79.414 E114.6242
G1 X94.845 Y79.439 E116.9792
G1 X95.747 Y79.441 E117.40109
G1 X97.403 Y79.449 E118.17564
G1 X100.306 Y79.465 E119.53345
G1 X100.895 Y79.466 E119.80894
G1 X101.203 Y79.47 E119.95301
G1 X102.644 Y79.478 E120.62701
G1 X103.353 Y79.488 E120.95865
G1 X103.912 Y79.514 E121.22039
G1 X106.568 Y79.665 E122.46467
G1 X109.172 Y79.74 E123.68312
G1 X111.746 Y79.74 E124.88703
G1 X114.369 Y79.667 E126.11433
G1 X115.409 Y79.607 E126.60157
G1 X116.37 Y79.566 E127.05146
G1 X116.906 Y79.557 E127.30219
G1 X118.207 Y79.565 E127.91071
G1 X121.333 Y79.566 E129.37281
G1 X122.562 Y79.574 E129.94765
G1 X123.384 Y79.576 E130.33211
G1 X124.44 Y79.583 E130.82604
G1 X127.006 Y79.592 E132.02622
G1 X127.38 Y79.598 E132.20117
G1 X128.89 Y79.61 E132.90745
G1 X129.182 Y79.61 E133.04402
G1 X130.068 Y79.617 E133.45843
G1 X130.784 Y79.619 E133.79332
G1 X131.475 Y79.63 E134.11656
G1 X132.286 Y79.683 E134.49669
G1 X133.108 Y79.82 E134.88646
G1 X133.478 Y79.901 E135.06362
G1 X134.262 Y80.113 E135.44348
G1 X135.021 Y80.402 E135.82334
G1 X135.748 Y80.764 E136.2032
G1 X136.556 Y81.281 E136.65186
G1 X136.836 Y81.484 E136.81361
G1 X137.47 Y81.992 E137.1936
G1 X138.05 Y82.561 E137.57362
G1 X138.571 Y83.183 E137.95312
G1 X138.891 Y83.636 E138.21253
G1 X139.191 Y84.104 E138.47253
G1 X139.256 Y84.212 E138.53149
G1 X139.64 Y84.927 E138.91109
G1 X139.951 Y85.677 E139.29084
G1 X140.155 Y86.329 E139.61037
G1 X140.288 Y86.825 E139.85056
G1 X140.46 Y87.619 E140.23054
G1 X140.563 Y88.611 E140.69702
G1 X140.581 Y89.142 E140.94552
G1 X140.586 Y89.792 E141.24955
G1 X140.561 Y94.846 E143.61344
G1 X140.559 Y95.748 E144.03532
G1 X140.552 Y97.233 E144.72989
G1 X140.544 Y98.473 E145.30988
G1 X140.542 Y99.216 E145.6574
G1 X140.535 Y100.306 E146.16722
G1 X140.534 Y100.92 E146.4544
G1 X140.53 Y101.225 E146.59707
G1 X140.521 Y102.716 E147.29446
G1 X140.51 Y103.408 E147.61816
G1 X140.497 Y103.758 E147.78197
G1 X140.335 Y106.531 E149.08117
G1 X140.259 Y109.097 E150.28187
G1 X140.255 Y111.705 E151.50169
G1 X140.325 Y114.311 E152.72101
G1 X140.43 Y116.335 E153.66895
G1 X140.444 Y117.209 E154.07779
G1 X140.435 Y118.45 E154.65825
G1 X140.433 Y121.419 E156.04691
G1 X140.426 Y122.524 E156.56375
G1 X140.424 Y123.303 E156.92811
G1 X140.417 Y124.41 E157.44588
G1 X140.408 Y126.961 E158.63905
G1 X140.401 Y127.395 E158.84206
G1 X140.391 Y128.724 E159.46368
G1 X140.391 Y129.025 E159.60446
G1 X140.383 Y130.066 E160.09138
G1 X140.381 Y130.785 E160.42767
G1 X140.37 Y131.475 E160.75044
G1 X140.317 Y132.285 E161.1301
G1 X140.181 Y133.103 E161.51795
G1 X140.1 Y133.474 E161.69556
G1 X139.888 Y134.258 E162.07542
G1 X139.6 Y135.017 E162.45512
G1 X139.239 Y135.744 E162.83477
G1 X138.716 Y136.561 E163.28848
G1 X138.512 Y136.842 E163.4509
G1 X138.003 Y137.475 E163.83081
G1 X137.435 Y138.055 E164.21051
G1 X136.812 Y138.576 E164.59036
G1 X136.35 Y138.901 E164.85456
G1 X135.843 Y139.223 E165.13548
G1 X135.747 Y139.28 E165.18769
G1 X135.029 Y139.66 E165.56765
G1 X134.277 Y139.967 E165.94756
G1 X133.683 Y140.152 E166.23855
G1 X133.186 Y140.286 E166.4793
G1 X132.392 Y140.458 E166.85929
G1 X131.389 Y140.563 E167.33098
G1 X130.855 Y140.581 E167.58088
G1 X130.19 Y140.586 E167.89192
G1 X125.155 Y140.561 E170.24693
G1 X124.253 Y140.559 E170.66881
G1 X122.597 Y140.551 E171.44337
G1 X119.694 Y140.535 E172.80118
G1 X119.095 Y140.534 E173.08134
G1 X117.467 Y140.523 E173.84281
G1 X116.619 Y140.511 E174.23948
G1 X116.267 Y140.498 E174.40423
G1 X113.494 Y140.337 E175.7034
G1 X110.929 Y140.262 E176.90362
G1 X108.32 Y140.259 E178.1239
G1 X105.735 Y140.33 E179.33342
G1 X104.679 Y140.388 E179.82807
G1 X103.632 Y140.433 E180.31823
G1 X103.094 Y140.443 E180.56991
G1 X101.793 Y140.435 E181.17842
G1 X98.667 Y140.434 E182.64052
G1 X97.438 Y140.426 E183.21536
G1 X96.616 Y140.424 E183.59982
G1 X95.56 Y140.417 E184.09375
G1 X92.994 Y140.408 E185.29393
G1 X92.62 Y140.402 E185.46888
G1 X91.11 Y140.39 E186.17516
G1 X90.818 Y140.39 E186.31173
G1 X89.932 Y140.383 E186.72615
G1 X89.216 Y140.381 E187.06104
G1 X88.525 Y140.37 E187.38427
G1 X87.714 Y140.317 E187.7644
G1 X86.892 Y140.18 E188.15417
G1 X86.522 Y140.099 E188.33133
G1 X85.738 Y139.887 E188.71119
G1 X84.979 Y139.598 E189.09105
G1 X84.252 Y139.236 E189.47091
G1 X83.439 Y138.716 E189.92229
G1 X83.158 Y138.512 E190.08471
G1 X82.525 Y138.003 E190.46462
G1 X81.945 Y137.435 E190.84431
G1 X81.424 Y136.812 E191.22417
G1 X81.099 Y136.35 E191.48837
G1 X80.775 Y135.841 E191.77058
G1 X80.386 Y135.128 E192.15046
G1 X80.068 Y134.381 E192.53019
G1 X79.835 Y133.64 E192.8935
G1 X79.704 Y133.144 E193.13345
G1 X79.535 Y132.349 E193.51359
G1 X79.437 Y131.388 E193.9654
G1 X79.419 Y130.85 E194.21718
G1 X79.414 Y130.16 E194.53992
G1 X79.439 Y125.154 E196.88135
G1 X79.441 Y124.252 E197.30324
G1 X79.449 Y122.596 E198.07779
G1 X79.465 Y119.693 E199.43561
G1 X79.466 Y119.068 E199.72793
G1 X79.478 Y117.34 E200.53617
G1 X79.489 Y116.618 E200.87391
G1 X79.502 Y116.266 E201.03866
G1 X79.663 Y113.494 E202.33736
G1 X79.738 Y110.929 E203.53758
G1 X79.741 Y108.319 E204.75833
G1 X79.671 Y105.736 E205.9669
G1 X79.612 Y104.679 E206.46205
G1 X79.567 Y103.632 E206.9522
G1 X79.557 Y103.095 E207.20341
G1 X79.565 Y101.793 E207.8124
G1 X79.566 Y98.622 E209.29554
G1 X79.574 Y97.419 E209.85822
G1 X79.584 Y94.75 E211.10657
G1 X79.591 Y93.685 E211.60471
G1 X79.592 Y92.982 E211.93352
G1 X79.6 Y92.471 E212.17255
G1 X79.61 Y91.068 E212.82878
G1 X79.61 Y90.818 E212.94571
G1 X79.617 Y89.932 E213.36012
G1 X79.619 Y89.18 E213.71185
G1 X79.63 Y88.519 E214.02106
G1 X79.684 Y87.708 E214.40122
G1 X79.82 Y86.892 E214.78814
G1 X79.901 Y86.522 E214.9653
G1 X80.113 Y85.738 E215.34516
G1 X80.402 Y84.979 E215.72502
G1 X80.764 Y84.252 E216.10488
G1 X81.284 Y83.439 E216.55626
G1 X81.488 Y83.158 E216.71868
G1 X81.997 Y82.525 E217.09859
G1 X82.565 Y81.945 E217.47828
G0 F600 X83.687 Y82.953
G1 F120 X84.471 Y82.355 E217.93947
G1 X84.923 Y82.067 E218.19015
G1 X85.019 Y82.01 E218.24237
G1 X85.67 Y81.67 E218.58588
G1 X86.354 Y81.403 E218.92931
G1 X86.708 Y81.297 E219.10215
G1 X87.205 Y81.163 E219.34291
G1 X87.923 Y81.01 E219.68627
G1 X88.674 Y80.936 E220.03923
G1 X89.159 Y80.919 E220.26621
G1 X89.803 Y80.914 E220.56743
G1 X94.838 Y80.939 E222.92244
G1 X95.738 Y80.941 E223.34339
G1 X100.296 Y80.965 E225.47529
G1 X100.875 Y80.966 E225.7461
G1 X101.196 Y80.97 E225.89625
G1 X102.623 Y80.978 E226.5637
G1 X103.332 Y80.988 E226.89534
G1 X103.854 Y81.014 E227.1398
G1 X106.509 Y81.165 E228.3836
G1 X109.129 Y81.24 E229.60953
G1 X111.788 Y81.24 E230.8532
G1 X114.395 Y81.167 E232.07303
G1 X115.473 Y81.106 E232.57804
G1 X116.434 Y81.065 E233.02792
G1 X116.897 Y81.057 E233.24451
G1 X118.198 Y81.065 E233.85303
G1 X121.323 Y81.066 E235.31465
G1 X122.552 Y81.074 E235.88949
G1 X123.374 Y81.076 E236.27396
G1 X124.43 Y81.083 E236.76789
G1 X126.982 Y81.092 E237.96152
G1 X127.351 Y81.098 E238.13413
G1 X128.878 Y81.11 E238.84836
G1 X129.17 Y81.11 E238.98493
G1 X130.056 Y81.117 E239.39935
G1 X130.76 Y81.119 E239.72862
G1 X131.451 Y81.13 E240.05186
G1 X132.184 Y81.181 E240.39553
G1 X132.788 Y81.285 E240.68219
G1 X133.158 Y81.366 E240.85934
G1 X133.865 Y81.562 E241.20249
G1 X134.548 Y81.834 E241.54635
G1 X135.197 Y82.178 E241.8899
G1 X135.676 Y82.495 E242.15856
G1 X135.956 Y82.698 E242.32032
G1 X136.526 Y83.161 E242.66379
G1 X137.043 Y83.683 E243.00742
G1 X137.637 Y84.459 E243.4645
G1 X137.97 Y84.985 E243.75568
G1 X138.314 Y85.634 E244.09923
G1 X138.586 Y86.317 E244.44309
G1 X138.707 Y86.718 E244.63899
G1 X138.84 Y87.214 E244.87918
G1 X138.991 Y87.933 E245.22281
G1 X139.064 Y88.674 E245.57107
G1 X139.081 Y89.156 E245.79665
G1 X139.086 Y89.784 E246.09039
G1 X139.061 Y94.838 E248.45427
G1 X139.059 Y95.739 E248.87569
G1 X139.053 Y96.712 E249.33079
G1 X139.052 Y97.263 E249.58851
G1 X139.044 Y98.463 E250.14978
G1 X139.042 Y99.206 E250.4973
G1 X139.035 Y100.296 E251.00713
G1 X139.034 Y100.899 E251.28916
G1 X139.022 Y102.359 E251.97206
G1 X139.021 Y102.692 E252.12781
G1 X139.01 Y103.384 E252.45151
G1 X139 Y103.67 E252.58536
G1 X138.837 Y106.468 E253.89627
G1 X138.759 Y109.085 E255.12083
G1 X138.755 Y111.708 E256.34767
G1 X138.827 Y114.389 E257.60208
G1 X138.932 Y116.413 E258.55002
G1 X138.944 Y117.218 E258.92657
G1 X138.935 Y118.438 E259.49721
G1 X138.933 Y121.41 E260.88728
G1 X138.926 Y122.515 E261.40412
G1 X138.924 Y123.294 E261.76847
G1 X138.917 Y124.401 E262.28625
G1 X138.908 Y126.937 E263.4724
G1 X138.902 Y127.315 E263.64922
G1 X138.891 Y128.712 E264.30264
G1 X138.891 Y129.014 E264.44389
G1 X138.883 Y130.055 E264.93081
G1 X138.881 Y130.761 E265.26102
G1 X138.87 Y131.451 E265.58379
G1 X138.818 Y132.183 E265.92702
G1 X138.716 Y132.783 E266.21168
G1 X138.635 Y133.154 E266.38929
G1 X138.439 Y133.862 E266.73289
G1 X138.168 Y134.545 E267.07657
G1 X137.824 Y135.194 E267.42013
G1 X137.502 Y135.68 E267.69281
G1 X137.298 Y135.961 E267.85522
G1 X136.835 Y136.531 E268.19869
G1 X136.313 Y137.047 E268.54199
G1 X135.529 Y137.645 E269.00318
G1 X135.077 Y137.933 E269.25386
G1 X134.981 Y137.99 E269.30608
G1 X134.33 Y138.33 E269.64959
G1 X133.646 Y138.597 E269.99302
G1 X133.292 Y138.703 E270.16586
G1 X132.795 Y138.837 E270.40661
G1 X132.077 Y138.99 E270.74998
G1 X131.326 Y139.064 E271.10294
G1 X130.841 Y139.081 E271.32992
G1 X130.197 Y139.086 E271.63114
G1 X125.162 Y139.061 E273.98614
G1 X124.262 Y139.059 E274.40709
G1 X119.704 Y139.035 E276.53899
G1 X119.107 Y139.034 E276.81822
G1 X117.467 Y139.023 E277.5853
