;FLAVOR:Marlin
;TIME:2150
;Filament used: 1.92885m
;Layer height: 0.75
;MINX:90.25
;MINY:90.25
;MINZ:0.75
;MAXX:129.75
;MAXY:129.75
;MAXZ:9.75
;Generated with Cura_SteamEngine 4.7.1
M105
M109 S0
M82 ;absolute extrusion mode
M302 P1

M106 S0

G92 E0
G28
G1 Z5.0 F3000
G92 E0
G92 E0
;LAYER_COUNT:13
;LAYER:0
M107
G0 F600 X93.421 Y92.822 Z0.75
;TYPE:SKIRT
G1 F120 X94.098 Y92.255 E0.41303
G1 X94.824 Y91.752 E0.82613
G1 X95.592 Y91.317 E1.23896
G1 X96.396 Y90.953 E1.65175
G1 X97.23 Y90.663 E2.06474
G1 X98.087 Y90.45 E2.47777
G1 X98.96 Y90.316 E2.89088
G1 X99.736 Y90.263 E3.25467
G1 X100.33 Y90.25 E3.53256
G1 X119.293 Y90.25 E12.40195
G1 X120.131 Y90.261 E12.79393
G1 X121.012 Y90.314 E13.20674
G1 X121.885 Y90.446 E13.6197
G1 X122.743 Y90.656 E14.03285
G1 X123.577 Y90.944 E14.44554
G1 X124.383 Y91.305 E14.8586
G1 X125.152 Y91.738 E15.27138
G1 X125.88 Y92.239 E15.68472
G1 X126.558 Y92.804 E16.09751
G1 X127.183 Y93.427 E16.51026
G1 X127.749 Y94.105 E16.92335
G1 X128.252 Y94.831 E17.33645
G1 X128.686 Y95.6 E17.74946
G1 X129.05 Y96.404 E18.16225
G1 X129.339 Y97.239 E18.57553
G1 X129.551 Y98.096 E18.98844
G1 X129.685 Y98.968 E19.40108
G1 X129.737 Y99.736 E19.76112
G1 X129.75 Y100.33 E20.03901
G1 X129.749 Y119.385 E28.95143
G1 X129.74 Y120.112 E29.29148
G1 X129.689 Y120.993 E29.70424
G1 X129.559 Y121.866 E30.11706
G1 X129.35 Y122.724 E30.5301
G1 X129.064 Y123.56 E30.94336
G1 X128.704 Y124.366 E31.35624
G1 X128.273 Y125.136 E31.76896
G1 X127.773 Y125.864 E32.18204
G1 X127.21 Y126.544 E32.59495
G1 X126.588 Y127.171 E33.00803
G1 X125.911 Y127.738 E33.42107
G1 X125.186 Y128.242 E33.83405
G1 X124.418 Y128.678 E34.24711
G1 X123.614 Y129.043 E34.66009
G1 X122.781 Y129.333 E35.07264
G1 X121.924 Y129.547 E35.48578
G1 X121.051 Y129.683 E35.89903
G1 X120.264 Y129.737 E36.26799
G1 X119.67 Y129.75 E36.54588
G1 X100.581 Y129.749 E45.4742
G1 X99.883 Y129.74 E45.8007
G1 X99.002 Y129.689 E46.21345
G1 X98.129 Y129.558 E46.62634
G1 X97.271 Y129.349 E47.03938
G1 X96.436 Y129.063 E47.4522
G1 X95.63 Y128.702 E47.86527
G1 X94.859 Y128.27 E48.27863
G1 X94.132 Y127.77 E48.69132
G1 X93.452 Y127.207 E49.10423
G1 X92.826 Y126.584 E49.51732
G1 X92.259 Y125.907 E49.93035
G1 X91.756 Y125.182 E50.34306
G1 X91.32 Y124.414 E50.75612
G1 X90.955 Y123.61 E51.16911
G1 X90.665 Y122.776 E51.5821
G1 X90.452 Y121.919 E51.99513
G1 X90.316 Y121.046 E52.40837
G1 X90.263 Y120.254 E52.77964
G1 X90.25 Y119.658 E53.05846
G1 X90.251 Y100.542 E61.99941
G1 X90.26 Y99.877 E62.31047
G1 X90.312 Y98.996 E62.72325
G1 X90.443 Y98.123 E63.13615
G1 X90.653 Y97.265 E63.54929
G1 X90.94 Y96.43 E63.96227
G1 X91.301 Y95.624 E64.37534
G1 X91.733 Y94.854 E64.78829
G1 X92.233 Y94.127 E65.20098
G1 X92.797 Y93.447 E65.61419
G1 X93.421 Y92.822 E66.02727
G0 F600 X94.269 Y94.083
G1 F120 X94.88 Y93.547 E66.40743
G1 X95.54 Y93.074 E66.78721
G1 X96.244 Y92.668 E67.16732
G1 X96.984 Y92.334 E67.54705
G1 X97.753 Y92.073 E67.92688
G1 X98.544 Y91.89 E68.30662
G1 X99.35 Y91.785 E68.68679
G1 X100.099 Y91.753 E69.03743
G1 X100.33 Y91.75 E69.14548
G1 X119.293 Y91.75 E78.01487
G1 X120.109 Y91.761 E78.39657
G1 X120.92 Y91.812 E78.77664
G1 X121.721 Y91.943 E79.15626
G1 X122.506 Y92.153 E79.53633
G1 X123.266 Y92.438 E79.91597
G1 X123.995 Y92.797 E80.29604
G1 X124.685 Y93.225 E80.67581
G1 X125.329 Y93.72 E81.05572
G1 X125.922 Y94.275 E81.43561
G1 X126.457 Y94.886 E81.81545
G1 X126.929 Y95.547 E82.19535
G1 X127.335 Y96.25 E82.57505
G1 X127.669 Y96.991 E82.95521
G1 X127.928 Y97.76 E83.33474
G1 X128.111 Y98.552 E83.71493
G1 X128.215 Y99.357 E84.09458
G1 X128.247 Y100.098 E84.44148
G1 X128.25 Y100.33 E84.55
G1 X128.249 Y119.366 E93.45353
G1 X128.24 Y120.093 E93.79359
G1 X128.19 Y120.904 E94.17363
G1 X128.061 Y121.706 E94.55357
G1 X127.853 Y122.491 E94.9334
G1 X127.569 Y123.252 E95.31331
G1 X127.212 Y123.981 E95.69297
G1 X126.785 Y124.672 E96.07289
G1 X126.292 Y125.317 E96.45261
G1 X125.737 Y125.911 E96.83283
G1 X125.128 Y126.447 E97.21228
G1 X124.468 Y126.921 E97.59234
G1 X123.765 Y127.327 E97.97204
G1 X123.025 Y127.663 E98.35217
G1 X122.256 Y127.924 E98.73199
G1 X121.465 Y128.108 E99.11184
G1 X120.66 Y128.214 E99.4916
G1 X119.901 Y128.247 E99.84694
G1 X119.67 Y128.25 E99.95499
G1 X100.601 Y128.249 E108.87396
G1 X99.903 Y128.24 E109.20045
G1 X99.092 Y128.19 E109.5805
G1 X98.29 Y128.06 E109.9605
G1 X97.505 Y127.852 E110.34033
G1 X96.745 Y127.568 E110.71981
G1 X96.015 Y127.21 E111.10009
G1 X95.325 Y126.782 E111.47987
G1 X94.68 Y126.289 E111.85958
G1 X94.086 Y125.734 E112.2398
G1 X93.55 Y125.124 E112.61961
G1 X93.077 Y124.464 E112.99939
G1 X92.671 Y123.761 E113.3791
G1 X92.336 Y123.021 E113.75902
G1 X92.075 Y122.252 E114.13885
G1 X91.891 Y121.461 E114.5187
G1 X91.786 Y120.656 E114.8984
G1 X91.753 Y119.881 E115.26121
G1 X91.75 Y119.658 E115.36552
G1 X91.751 Y100.562 E124.29712
G1 X91.76 Y99.897 E124.60818
G1 X91.811 Y99.087 E124.98778
G1 X91.941 Y98.285 E125.36779
G1 X92.15 Y97.5 E125.74774
G1 X92.434 Y96.74 E126.12722
G1 X92.793 Y96.011 E126.50729
G1 X93.221 Y95.321 E126.88706
G1 X93.715 Y94.676 E127.26706
G1 X94.269 Y94.083 E127.64662
G0 F600 X95.19 Y95.283
G1 F120 X95.732 Y94.787 E127.99026
G1 X96.325 Y94.353 E128.33396
G1 X96.961 Y93.986 E128.6774
G1 X97.634 Y93.691 E129.02109
G1 X98.334 Y93.47 E129.36443
G1 X99.055 Y93.327 E129.70822
G1 X99.82 Y93.262 E130.06732
G1 X100.33 Y93.25 E130.30592
G1 X119.293 Y93.25 E139.17531
G1 X120.088 Y93.261 E139.54718
G1 X120.821 Y93.311 E139.89082
G1 X121.544 Y93.441 E140.2344
G1 X122.248 Y93.649 E140.57775
G1 X122.926 Y93.932 E140.92138
G1 X123.569 Y94.286 E141.26469
G1 X124.17 Y94.709 E141.60843
G1 X124.721 Y95.195 E141.95207
G1 X125.216 Y95.737 E142.29539
G1 X125.65 Y96.33 E142.63909
G1 X126.016 Y96.967 E142.98271
G1 X126.311 Y97.64 E143.3264
G1 X126.531 Y98.341 E143.67004
G1 X126.674 Y99.061 E144.01337
G1 X126.738 Y99.82 E144.36963
G1 X126.75 Y100.33 E144.60824
G1 X126.749 Y119.348 E153.50335
G1 X126.74 Y120.075 E153.84341
G1 X126.691 Y120.807 E154.18655
G1 X126.563 Y121.531 E154.53043
G1 X126.357 Y122.236 E154.87396
G1 X126.075 Y122.914 E155.21741
G1 X125.721 Y123.558 E155.56113
G1 X125.3 Y124.16 E155.90472
G1 X124.816 Y124.712 E156.24809
G1 X124.274 Y125.208 E156.59172
G1 X123.682 Y125.643 E156.93533
G1 X123.046 Y126.01 E157.27877
G1 X122.374 Y126.307 E157.62241
G1 X121.673 Y126.528 E157.96619
G1 X120.953 Y126.672 E158.30962
G1 X120.18 Y126.738 E158.67248
G1 X119.67 Y126.75 E158.91108
G1 X100.62 Y126.749 E167.82116
G1 X99.922 Y126.74 E168.14766
G1 X99.189 Y126.691 E168.49126
G1 X98.466 Y126.562 E168.83477
G1 X97.761 Y126.356 E169.1783
G1 X97.083 Y126.074 E169.52175
G1 X96.439 Y125.72 E169.86547
G1 X95.838 Y125.298 E170.20894
G1 X95.286 Y124.813 E170.55262
G1 X94.79 Y124.271 E170.89626
G1 X94.355 Y123.679 E171.23986
G1 X93.988 Y123.043 E171.5833
G1 X93.692 Y122.37 E171.92718
G1 X93.471 Y121.67 E172.27051
G1 X93.327 Y120.949 E172.6144
G1 X93.261 Y120.173 E172.97866
G1 X93.25 Y119.658 E173.21959
G1 X93.251 Y100.583 E182.14137
G1 X93.26 Y99.918 E182.45243
G1 X93.31 Y99.185 E182.79606
G1 X93.439 Y98.462 E183.13957
G1 X93.646 Y97.757 E183.48323
G1 X93.928 Y97.079 E183.82668
G1 X94.283 Y96.435 E184.17063
G1 X94.705 Y95.834 E184.5141
G1 X95.19 Y95.283 E184.85743
G0 F600 X96.655 Y95.97
G1 F120 X97.178 Y95.588 E185.16035
G1 X97.744 Y95.273 E185.46332
G1 X98.344 Y95.03 E185.76609
G1 X98.97 Y94.863 E186.06912
G1 X99.862 Y94.761 E186.48905
G1 X100.33 Y94.75 E186.708
G1 X119.293 Y94.75 E195.57739
G1 X120.066 Y94.761 E195.93897
G1 X120.712 Y94.81 E196.24199
G1 X121.347 Y94.938 E196.54497
G1 X121.961 Y95.144 E196.84788
G1 X122.546 Y95.423 E197.15102
G1 X123.091 Y95.773 E197.45397
G1 X123.589 Y96.187 E197.75687
G1 X124.033 Y96.659 E198.05996
G1 X124.414 Y97.182 E198.3626
G1 X124.729 Y97.749 E198.66598
G1 X124.971 Y98.349 E198.96858
G1 X125.138 Y98.975 E199.27161
G1 X125.239 Y99.862 E199.68916
G1 X125.25 Y100.33 E199.90811
G1 X125.25 Y119.329 E208.79434
G1 X125.241 Y120.056 E209.13439
G1 X125.193 Y120.702 E209.43737
G1 X125.065 Y121.337 E209.74035
G1 X124.861 Y121.952 E210.04341
G1 X124.583 Y122.537 E210.34635
G1 X124.234 Y123.083 E210.64944
G1 X123.821 Y123.582 E210.9524
G1 X123.35 Y124.026 E211.25515
G1 X122.827 Y124.409 E211.55835
G1 X122.262 Y124.725 E211.86113
G1 X121.661 Y124.968 E212.16434
G1 X121.036 Y125.136 E212.46704
G1 X120.138 Y125.239 E212.88981
G1 X119.67 Y125.25 E213.10876
G1 X100.639 Y125.25 E222.00995
G1 X99.941 Y125.241 E222.33645
G1 X99.295 Y125.192 E222.63947
G1 X98.66 Y125.065 E222.94235
G1 X98.046 Y124.86 E223.24511
G1 X97.461 Y124.581 E223.54826
G1 X96.915 Y124.233 E223.85109
G1 X96.416 Y123.819 E224.15435
G1 X95.972 Y123.348 E224.4571
G1 X95.59 Y122.825 E224.76002
G1 X95.274 Y122.259 E225.06322
G1 X95.031 Y121.659 E225.36599
G1 X94.863 Y121.033 E225.66914
G1 X94.761 Y120.133 E226.09279
G1 X94.75 Y119.658 E226.31501
G1 X94.75 Y100.603 E235.22743
G1 X94.759 Y99.938 E235.53849
G1 X94.808 Y99.292 E235.84151
G1 X94.936 Y98.657 E236.14449
G1 X95.141 Y98.043 E236.44725
G1 X95.42 Y97.458 E236.75039
G1 X95.769 Y96.912 E237.05348
G1 X96.183 Y96.414 E237.35638
G1 X96.655 Y95.97 E237.65947
G0 F600 X97.649 Y97.095
G1 F120 X98.098 Y96.782 E237.91547
G1 X98.588 Y96.538 E238.17149
G1 X99.109 Y96.369 E238.42767
G1 X99.904 Y96.26 E238.80299
G1 X100.33 Y96.25 E239.00229
G1 X119.347 Y96.25 E247.89694
G1 X120.045 Y96.26 E248.22344
G1 X120.59 Y96.308 E248.47933
G1 X121.122 Y96.435 E248.73515
G1 X121.631 Y96.638 E248.99146
G1 X122.104 Y96.912 E249.24713
G1 X122.533 Y97.253 E249.50345
G1 X122.907 Y97.652 E249.75923
G1 X123.219 Y98.102 E250.01535
G1 X123.463 Y98.592 E250.27138
G1 X123.632 Y99.113 E250.52756
G1 X123.74 Y99.905 E250.90142
G1 X123.75 Y100.33 E251.10026
G1 X123.75 Y119.31 E259.97759
G1 X123.741 Y120.037 E260.31765
G1 X123.694 Y120.583 E260.57397
G1 X123.568 Y121.116 E260.83014
G1 X123.367 Y121.624 E261.08566
G1 X123.093 Y122.098 E261.34174
G1 X122.753 Y122.527 E261.59777
G1 X122.354 Y122.902 E261.85387
G1 X121.905 Y123.216 E262.11014
G1 X121.416 Y123.46 E262.36575
G1 X120.895 Y123.63 E262.62207
G1 X120.096 Y123.74 E262.99931
G1 X119.67 Y123.75 E263.19861
G1 X100.659 Y123.75 E272.09045
G1 X99.961 Y123.741 E272.41694
G1 X99.415 Y123.694 E272.67326
G1 X98.883 Y123.568 E272.92898
G1 X98.374 Y123.366 E273.18511
G1 X97.9 Y123.092 E273.44118
G1 X97.471 Y122.752 E273.69721
G1 X97.096 Y122.353 E273.95332
G1 X96.783 Y121.904 E274.20931
G1 X96.539 Y121.414 E274.46534
G1 X96.369 Y120.894 E274.72122
G1 X96.26 Y120.092 E275.09978
G1 X96.25 Y119.658 E275.30283
G1 X96.25 Y100.623 E284.20589
G1 X96.259 Y99.958 E284.51695
G1 X96.307 Y99.413 E284.77285
G1 X96.433 Y98.88 E285.02901
G1 X96.635 Y98.372 E285.28471
G1 X96.91 Y97.898 E285.54102
G1 X97.25 Y97.469 E285.79705
G1 X97.649 Y97.095 E286.05284
;MESH:20mm_Calibration_Box (half cube).stl
G0 F600 X100.764 Y100.764
G0 X119.15 Y119.18
G0 X119.25 Y119.25
;TYPE:WALL-OUTER
G1 F120 X100.75 Y119.25 E294.70567
G1 X100.75 Y100.75 E303.3585
G1 X119.25 Y100.75 E312.01133
G1 X119.25 Y119.25 E320.66416
G0 F600 X118.5 Y119.25
G0 X118.5 Y119.15
G0 X117.76 Y117.76
;TYPE:SKIN
G1 F120 X102.24 Y117.76 E327.92319
G1 X102.24 Y102.24 E335.18221
G1 X117.76 Y102.24 E342.44124
G1 X117.76 Y117.76 E349.70026
G0 F600 X117.084 Y104.356
G1 F120 X115.643 Y102.915 E350.65342
G0 F600 X113.521 Y102.915
G1 F120 X117.084 Y106.478 E353.01019
G0 F600 X117.084 Y108.599
G1 F120 X111.4 Y102.915 E356.76991
G0 F600 X109.279 Y102.915
G1 F120 X117.084 Y110.72 E361.93258
G0 F600 X117.084 Y112.842
G1 F120 X107.157 Y102.915 E368.49887
G0 F600 X105.036 Y102.915
G1 F120 X117.084 Y114.963 E376.4681
G0 F600 X117.084 Y117.084
G1 F120 X102.914 Y102.914 E385.84094
G0 F600 X102.914 Y105.035
G1 F120 X114.962 Y117.084 E393.81051
G0 F600 X112.841 Y117.084
G1 F120 X102.914 Y107.157 E400.37679
G0 F600 X102.914 Y109.278
G1 F120 X110.72 Y117.084 E405.54012
G0 F600 X108.598 Y117.084
G1 F120 X102.914 Y111.399 E409.30017
G0 F600 X102.914 Y113.521
G1 F120 X106.477 Y117.084 E411.65694
G0 F600 X104.356 Y117.084
G1 F120 X102.914 Y115.642 E412.61076
;MESH:NONMESH
G0 F600 X102.914 Y115.642 Z1.5
G0 X119.18 Y119.18
G0 X119.25 Y119.25
;TIME_ELAPSED:463.971208
;LAYER:1
M140 S40
;TYPE:WALL-OUTER
;MESH:20mm_Calibration_Box (half cube).stl
G1 F120 X100.75 Y119.25 E421.2636
G1 X100.75 Y100.75 E429.91643
G1 X119.25 Y100.75 E438.56926
G1 X119.25 Y119.25 E447.22209
G0 F600 X118.5 Y119.25
G0 X118.5 Y119.15
G0 X117.76 Y117.76
;TYPE:SKIN
G1 F120 X102.24 Y117.76 E454.48112
G1 X102.24 Y102.24 E461.74014
G1 X117.76 Y102.24 E468.99917
G1 X117.76 Y117.76 E476.25819
G0 F600 X117.084 Y116.261
G1 F120 X116.26 Y117.084 E476.8029
G0 F600 X114.139 Y117.084
G1 F120 X117.084 Y114.139 E478.75089
G0 F600 X117.084 Y112.018
G1 F120 X112.017 Y117.084 E482.10216
G0 F600 X109.896 Y117.084
G1 F120 X117.084 Y109.897 E486.85638
G0 F600 X117.084 Y107.775
G1 F120 X107.775 Y117.084 E493.01389
G0 F600 X105.653 Y117.084
G1 F120 X117.084 Y105.654 E500.57467
G0 F600 X117.084 Y103.533
G1 F120 X103.532 Y117.084 E509.5384
G0 F600 X102.915 Y115.58
G1 F120 X115.581 Y102.914 E517.91641
G0 F600 X113.46 Y102.914
G1 F120 X102.915 Y113.459 E524.89148
G0 F600 X102.915 Y111.338
G1 F120 X111.338 Y102.914 E530.46326
G0 F600 X109.217 Y102.914
G1 F120 X102.915 Y109.216 E534.63176
G0 F600 X102.915 Y107.095
G1 F120 X107.096 Y102.914 E537.39731
G0 F600 X104.974 Y102.914
G1 F120 X102.915 Y104.974 E538.75958
;MESH:NONMESH
G0 F600 X102.915 Y104.974 Z2.25
G0 X119.18 Y119.18
G0 X119.25 Y119.25
;TIME_ELAPSED:604.088732
;LAYER:2
;TYPE:WALL-OUTER
;MESH:20mm_Calibration_Box (half cube).stl
G1 F120 X100.75 Y119.25 E547.41241
G1 X100.75 Y100.75 E556.06525
G1 X119.25 Y100.75 E564.71808
G1 X119.25 Y119.25 E573.37091
G0 F600 X118.5 Y119.25
G0 X118.5 Y119.15
G0 X117.76 Y117.76
;TYPE:SKIN
G1 F120 X102.24 Y117.76 E580.62993
G1 X102.24 Y102.24 E587.88896
G1 X117.76 Y102.24 E595.14798
G1 X117.76 Y117.76 E602.40701
G0 F600 X117.084 Y104.356
G1 F120 X115.643 Y102.915 E603.36017
G0 F600 X113.521 Y102.915
G1 F120 X117.084 Y106.478 E605.71694
G0 F600 X117.084 Y108.599
G1 F120 X111.4 Y102.915 E609.47666
G0 F600 X109.279 Y102.915
G1 F120 X117.084 Y110.72 E614.63933
G0 F600 X117.084 Y112.842
G1 F120 X107.157 Y102.915 E621.20561
G0 F600 X105.036 Y102.915
G1 F120 X117.084 Y114.963 E629.17485
G0 F600 X117.084 Y117.084
G1 F120 X102.914 Y102.914 E638.54769
G0 F600 X102.914 Y105.035
G1 F120 X114.962 Y117.084 E646.51725
G0 F600 X112.841 Y117.084
G1 F120 X102.914 Y107.157 E653.08353
G0 F600 X102.914 Y109.278
G1 F120 X110.72 Y117.084 E658.24687
G0 F600 X108.598 Y117.084
G1 F120 X102.914 Y111.399 E662.00692
G0 F600 X102.914 Y113.521
G1 F120 X106.477 Y117.084 E664.36369
G0 F600 X104.356 Y117.084
G1 F120 X102.914 Y115.642 E665.31751
;MESH:NONMESH
G0 F600 X102.914 Y115.642 Z3
G0 X119.18 Y119.18
G0 X119.25 Y119.25
;TIME_ELAPSED:745.375997
;LAYER:3
;TYPE:WALL-OUTER
;MESH:20mm_Calibration_Box (half cube).stl
G1 F120 X100.75 Y119.25 E673.97034
G1 X100.75 Y100.75 E682.62317
G1 X119.25 Y100.75 E691.27601
G1 X119.25 Y119.25 E699.92884
G0 F600 X118.5 Y119.25
G0 X118.5 Y119.15
G0 X117.76 Y117.76
;TYPE:SKIN
G1 F120 X102.24 Y117.76 E707.18786
G1 X102.24 Y102.24 E714.44689
G1 X117.76 Y102.24 E721.70591
G1 X117.76 Y117.76 E728.96494
G0 F600 X117.084 Y116.261
G1 F120 X116.26 Y117.084 E729.50965
G0 F600 X114.139 Y117.084
G1 F120 X117.084 Y114.139 E731.45764
G0 F600 X117.084 Y112.018
G1 F120 X112.017 Y117.084 E734.80891
G0 F600 X109.896 Y117.084
G1 F120 X117.084 Y109.897 E739.56313
G0 F600 X117.084 Y107.775
G1 F120 X107.775 Y117.084 E745.72063
G0 F600 X105.653 Y117.084
G1 F120 X117.084 Y105.654 E753.28141
G0 F600 X117.084 Y103.533
G1 F120 X103.532 Y117.084 E762.24515
G0 F600 X102.915 Y115.58
G1 F120 X115.581 Y102.914 E770.62316
G0 F600 X113.46 Y102.914
G1 F120 X102.915 Y113.459 E777.59822
G0 F600 X102.915 Y111.338
G1 F120 X111.338 Y102.914 E783.17001
G0 F600 X109.217 Y102.914
G1 F120 X102.915 Y109.216 E787.33851
G0 F600 X102.915 Y107.095
G1 F120 X107.096 Y102.914 E790.10406
G0 F600 X104.974 Y102.914
G1 F120 X102.915 Y104.974 E791.46633
;MESH:NONMESH
G0 F600 X102.915 Y104.974 Z3.75
G0 X119.18 Y119.18
G0 X119.25 Y119.25
;TIME_ELAPSED:885.493521
;LAYER:4
;TYPE:WALL-OUTER
;MESH:20mm_Calibration_Box (half cube).stl
