M117 Print is starting
;FLAVOR:Marlin
;TIME:2150
;Filament used: 1.92885m
;Layer height: 0.75
;MINX:90.25
;MINY:90.25
;MINZ:0.75
;MAXX:129.75
;MAXY:129.75
;MAXZ:9.75
;Generated with Cura_SteamEngine 4.7.1
;LAYER_COUNT:13
M105
M109 S0
M82 ;absolute extrusion mode
M302 P1
M106 S0
G92 E0
G28
G1 Z5.0 F3000
G92 E0
G92 E0


;LAYER:0

; Set flowrate to 45%
M221 S55

M107
M117 Mov 0/384 Lay 1/13
G0 F600 X93.421 Y92.822 Z0.75
;TYPE:SKIRT
M117 Mov 1/384 Lay 1/13
G1 F120 X94.098 Y92.255 E0.41303
M117 Mov 2/384 Lay 1/13
G1 X94.824 Y91.752 E0.82613
M117 Mov 3/384 Lay 1/13
G1 X95.592 Y91.317 E1.23896
M117 Mov 4/384 Lay 1/13
G1 X96.396 Y90.953 E1.65175
M117 Mov 5/384 Lay 1/13
G1 X97.23 Y90.663 E2.06474
M117 Mov 6/384 Lay 1/13
G1 X98.087 Y90.45 E2.47777
M117 Mov 7/384 Lay 1/13
G1 X98.96 Y90.316 E2.89088
M117 Mov 8/384 Lay 1/13
G1 X99.736 Y90.263 E3.25467
M117 Mov 9/384 Lay 1/13
G1 X100.33 Y90.25 E3.53256
M117 Mov 10/384 Lay 1/13
G1 X119.293 Y90.25 E12.40195
M117 Mov 11/384 Lay 1/13
G1 X120.131 Y90.261 E12.79393
M117 Mov 12/384 Lay 1/13
G1 X121.012 Y90.314 E13.20674
M117 Mov 13/384 Lay 1/13
G1 X121.885 Y90.446 E13.6197
M117 Mov 14/384 Lay 1/13
G1 X122.743 Y90.656 E14.03285
M117 Mov 15/384 Lay 1/13
G1 X123.577 Y90.944 E14.44554
M117 Mov 16/384 Lay 1/13
G1 X124.383 Y91.305 E14.8586
M117 Mov 17/384 Lay 1/13
G1 X125.152 Y91.738 E15.27138
M117 Mov 18/384 Lay 1/13
G1 X125.88 Y92.239 E15.68472
M117 Mov 19/384 Lay 1/13
G1 X126.558 Y92.804 E16.09751
M117 Mov 20/384 Lay 1/13
G1 X127.183 Y93.427 E16.51026
M117 Mov 21/384 Lay 1/13
G1 X127.749 Y94.105 E16.92335
M117 Mov 22/384 Lay 1/13
G1 X128.252 Y94.831 E17.33645
M117 Mov 23/384 Lay 1/13
G1 X128.686 Y95.6 E17.74946
M117 Mov 24/384 Lay 1/13
G1 X129.05 Y96.404 E18.16225
M117 Mov 25/384 Lay 1/13
G1 X129.339 Y97.239 E18.57553
M117 Mov 26/384 Lay 1/13
G1 X129.551 Y98.096 E18.98844
M117 Mov 27/384 Lay 1/13
G1 X129.685 Y98.968 E19.40108
M117 Mov 28/384 Lay 1/13
G1 X129.737 Y99.736 E19.76112
M117 Mov 29/384 Lay 1/13
G1 X129.75 Y100.33 E20.03901
M117 Mov 30/384 Lay 1/13
G1 X129.749 Y119.385 E28.95143
M117 Mov 31/384 Lay 1/13
G1 X129.74 Y120.112 E29.29148
M117 Mov 32/384 Lay 1/13
G1 X129.689 Y120.993 E29.70424
M117 Mov 33/384 Lay 1/13
G1 X129.559 Y121.866 E30.11706
M117 Mov 34/384 Lay 1/13
G1 X129.35 Y122.724 E30.5301
M117 Mov 35/384 Lay 1/13
G1 X129.064 Y123.56 E30.94336
M117 Mov 36/384 Lay 1/13
G1 X128.704 Y124.366 E31.35624
M117 Mov 37/384 Lay 1/13
G1 X128.273 Y125.136 E31.76896
M117 Mov 38/384 Lay 1/13
G1 X127.773 Y125.864 E32.18204
M117 Mov 39/384 Lay 1/13
G1 X127.21 Y126.544 E32.59495
M117 Mov 40/384 Lay 1/13
G1 X126.588 Y127.171 E33.00803
M117 Mov 41/384 Lay 1/13
G1 X125.911 Y127.738 E33.42107
M117 Mov 42/384 Lay 1/13
G1 X125.186 Y128.242 E33.83405
M117 Mov 43/384 Lay 1/13
G1 X124.418 Y128.678 E34.24711
M117 Mov 44/384 Lay 1/13
G1 X123.614 Y129.043 E34.66009
M117 Mov 45/384 Lay 1/13
G1 X122.781 Y129.333 E35.07264
M117 Mov 46/384 Lay 1/13
G1 X121.924 Y129.547 E35.48578
M117 Mov 47/384 Lay 1/13
G1 X121.051 Y129.683 E35.89903
M117 Mov 48/384 Lay 1/13
G1 X120.264 Y129.737 E36.26799
M117 Mov 49/384 Lay 1/13
G1 X119.67 Y129.75 E36.54588
M117 Mov 50/384 Lay 1/13
G1 X100.581 Y129.749 E45.4742
M117 Mov 51/384 Lay 1/13
G1 X99.883 Y129.74 E45.8007
M117 Mov 52/384 Lay 1/13
G1 X99.002 Y129.689 E46.21345
M117 Mov 53/384 Lay 1/13
G1 X98.129 Y129.558 E46.62634
M117 Mov 54/384 Lay 1/13
G1 X97.271 Y129.349 E47.03938
M117 Mov 55/384 Lay 1/13
G1 X96.436 Y129.063 E47.4522
M117 Mov 56/384 Lay 1/13
G1 X95.63 Y128.702 E47.86527
M117 Mov 57/384 Lay 1/13
G1 X94.859 Y128.27 E48.27863
M117 Mov 58/384 Lay 1/13
G1 X94.132 Y127.77 E48.69132
M117 Mov 59/384 Lay 1/13
G1 X93.452 Y127.207 E49.10423
M117 Mov 60/384 Lay 1/13
G1 X92.826 Y126.584 E49.51732
M117 Mov 61/384 Lay 1/13
G1 X92.259 Y125.907 E49.93035
M117 Mov 62/384 Lay 1/13
G1 X91.756 Y125.182 E50.34306
M117 Mov 63/384 Lay 1/13
G1 X91.32 Y124.414 E50.75612
M117 Mov 64/384 Lay 1/13
G1 X90.955 Y123.61 E51.16911
M117 Mov 65/384 Lay 1/13
G1 X90.665 Y122.776 E51.5821
M117 Mov 66/384 Lay 1/13
G1 X90.452 Y121.919 E51.99513
M117 Mov 67/384 Lay 1/13
G1 X90.316 Y121.046 E52.40837
M117 Mov 68/384 Lay 1/13
G1 X90.263 Y120.254 E52.77964
M117 Mov 69/384 Lay 1/13
G1 X90.25 Y119.658 E53.05846
M117 Mov 70/384 Lay 1/13
G1 X90.251 Y100.542 E61.99941
M117 Mov 71/384 Lay 1/13
G1 X90.26 Y99.877 E62.31047
M117 Mov 72/384 Lay 1/13
G1 X90.312 Y98.996 E62.72325
M117 Mov 73/384 Lay 1/13
G1 X90.443 Y98.123 E63.13615
M117 Mov 74/384 Lay 1/13
G1 X90.653 Y97.265 E63.54929
M117 Mov 75/384 Lay 1/13
G1 X90.94 Y96.43 E63.96227
M117 Mov 76/384 Lay 1/13
G1 X91.301 Y95.624 E64.37534
M117 Mov 77/384 Lay 1/13
G1 X91.733 Y94.854 E64.78829
M117 Mov 78/384 Lay 1/13
G1 X92.233 Y94.127 E65.20098
M117 Mov 79/384 Lay 1/13
G1 X92.797 Y93.447 E65.61419
M117 Mov 80/384 Lay 1/13
G1 X93.421 Y92.822 E66.02727
M117 Mov 81/384 Lay 1/13
G0 F600 X94.269 Y94.083
M117 Mov 82/384 Lay 1/13
G1 F120 X94.88 Y93.547 E66.40743
M117 Mov 83/384 Lay 1/13
G1 X95.54 Y93.074 E66.78721
M117 Mov 84/384 Lay 1/13
G1 X96.244 Y92.668 E67.16732
M117 Mov 85/384 Lay 1/13
G1 X96.984 Y92.334 E67.54705
M117 Mov 86/384 Lay 1/13
G1 X97.753 Y92.073 E67.92688
M117 Mov 87/384 Lay 1/13
G1 X98.544 Y91.89 E68.30662
M117 Mov 88/384 Lay 1/13
G1 X99.35 Y91.785 E68.68679
M117 Mov 89/384 Lay 1/13
G1 X100.099 Y91.753 E69.03743
M117 Mov 90/384 Lay 1/13
G1 X100.33 Y91.75 E69.14548
M117 Mov 91/384 Lay 1/13
G1 X119.293 Y91.75 E78.01487
M117 Mov 92/384 Lay 1/13
G1 X120.109 Y91.761 E78.39657
M117 Mov 93/384 Lay 1/13
G1 X120.92 Y91.812 E78.77664
M117 Mov 94/384 Lay 1/13
G1 X121.721 Y91.943 E79.15626
M117 Mov 95/384 Lay 1/13
G1 X122.506 Y92.153 E79.53633
M117 Mov 96/384 Lay 1/13
G1 X123.266 Y92.438 E79.91597
M117 Mov 97/384 Lay 1/13
G1 X123.995 Y92.797 E80.29604
M117 Mov 98/384 Lay 1/13
G1 X124.685 Y93.225 E80.67581
M117 Mov 99/384 Lay 1/13
G1 X125.329 Y93.72 E81.05572
M117 Mov 100/384 Lay 1/13
G1 X125.922 Y94.275 E81.43561
M117 Mov 101/384 Lay 1/13
G1 X126.457 Y94.886 E81.81545
M117 Mov 102/384 Lay 1/13
G1 X126.929 Y95.547 E82.19535
M117 Mov 103/384 Lay 1/13
G1 X127.335 Y96.25 E82.57505
M117 Mov 104/384 Lay 1/13
G1 X127.669 Y96.991 E82.95521
M117 Mov 105/384 Lay 1/13
G1 X127.928 Y97.76 E83.33474
M117 Mov 106/384 Lay 1/13
G1 X128.111 Y98.552 E83.71493
M117 Mov 107/384 Lay 1/13
G1 X128.215 Y99.357 E84.09458
M117 Mov 108/384 Lay 1/13
G1 X128.247 Y100.098 E84.44148
M117 Mov 109/384 Lay 1/13
G1 X128.25 Y100.33 E84.55
M117 Mov 110/384 Lay 1/13
G1 X128.249 Y119.366 E93.45353
M117 Mov 111/384 Lay 1/13
G1 X128.24 Y120.093 E93.79359
M117 Mov 112/384 Lay 1/13
G1 X128.19 Y120.904 E94.17363
M117 Mov 113/384 Lay 1/13
G1 X128.061 Y121.706 E94.55357
M117 Mov 114/384 Lay 1/13
G1 X127.853 Y122.491 E94.9334
M117 Mov 115/384 Lay 1/13
G1 X127.569 Y123.252 E95.31331
M117 Mov 116/384 Lay 1/13
G1 X127.212 Y123.981 E95.69297
M117 Mov 117/384 Lay 1/13
G1 X126.785 Y124.672 E96.07289
M117 Mov 118/384 Lay 1/13
G1 X126.292 Y125.317 E96.45261
M117 Mov 119/384 Lay 1/13
G1 X125.737 Y125.911 E96.83283
M117 Mov 120/384 Lay 1/13
G1 X125.128 Y126.447 E97.21228
M117 Mov 121/384 Lay 1/13
G1 X124.468 Y126.921 E97.59234
M117 Mov 122/384 Lay 1/13
G1 X123.765 Y127.327 E97.97204
M117 Mov 123/384 Lay 1/13
G1 X123.025 Y127.663 E98.35217
M117 Mov 124/384 Lay 1/13
G1 X122.256 Y127.924 E98.73199
M117 Mov 125/384 Lay 1/13
G1 X121.465 Y128.108 E99.11184
M117 Mov 126/384 Lay 1/13
G1 X120.66 Y128.214 E99.4916
M117 Mov 127/384 Lay 1/13
G1 X119.901 Y128.247 E99.84694
M117 Mov 128/384 Lay 1/13
G1 X119.67 Y128.25 E99.95499
M117 Mov 129/384 Lay 1/13
G1 X100.601 Y128.249 E108.87396
M117 Mov 130/384 Lay 1/13
G1 X99.903 Y128.24 E109.20045
M117 Mov 131/384 Lay 1/13
G1 X99.092 Y128.19 E109.5805
M117 Mov 132/384 Lay 1/13
G1 X98.29 Y128.06 E109.9605
M117 Mov 133/384 Lay 1/13
G1 X97.505 Y127.852 E110.34033
M117 Mov 134/384 Lay 1/13
G1 X96.745 Y127.568 E110.71981
M117 Mov 135/384 Lay 1/13
G1 X96.015 Y127.21 E111.10009
M117 Mov 136/384 Lay 1/13
G1 X95.325 Y126.782 E111.47987
M117 Mov 137/384 Lay 1/13
G1 X94.68 Y126.289 E111.85958
M117 Mov 138/384 Lay 1/13
G1 X94.086 Y125.734 E112.2398
M117 Mov 139/384 Lay 1/13
G1 X93.55 Y125.124 E112.61961
M117 Mov 140/384 Lay 1/13
G1 X93.077 Y124.464 E112.99939
M117 Mov 141/384 Lay 1/13
G1 X92.671 Y123.761 E113.3791
M117 Mov 142/384 Lay 1/13
G1 X92.336 Y123.021 E113.75902
M117 Mov 143/384 Lay 1/13
G1 X92.075 Y122.252 E114.13885
M117 Mov 144/384 Lay 1/13
G1 X91.891 Y121.461 E114.5187
M117 Mov 145/384 Lay 1/13
G1 X91.786 Y120.656 E114.8984
M117 Mov 146/384 Lay 1/13
G1 X91.753 Y119.881 E115.26121
M117 Mov 147/384 Lay 1/13
G1 X91.75 Y119.658 E115.36552
M117 Mov 148/384 Lay 1/13
G1 X91.751 Y100.562 E124.29712
M117 Mov 149/384 Lay 1/13
G1 X91.76 Y99.897 E124.60818
M117 Mov 150/384 Lay 1/13
G1 X91.811 Y99.087 E124.98778
M117 Mov 151/384 Lay 1/13
G1 X91.941 Y98.285 E125.36779
M117 Mov 152/384 Lay 1/13
G1 X92.15 Y97.5 E125.74774
M117 Mov 153/384 Lay 1/13
G1 X92.434 Y96.74 E126.12722
M117 Mov 154/384 Lay 1/13
G1 X92.793 Y96.011 E126.50729
M117 Mov 155/384 Lay 1/13
G1 X93.221 Y95.321 E126.88706
M117 Mov 156/384 Lay 1/13
G1 X93.715 Y94.676 E127.26706
M117 Mov 157/384 Lay 1/13
G1 X94.269 Y94.083 E127.64662
M117 Mov 158/384 Lay 1/13
G0 F600 X95.19 Y95.283
M117 Mov 159/384 Lay 1/13
G1 F120 X95.732 Y94.787 E127.99026
M117 Mov 160/384 Lay 1/13
G1 X96.325 Y94.353 E128.33396
M117 Mov 161/384 Lay 1/13
G1 X96.961 Y93.986 E128.6774
M117 Mov 162/384 Lay 1/13
G1 X97.634 Y93.691 E129.02109
M117 Mov 163/384 Lay 1/13
G1 X98.334 Y93.47 E129.36443
M117 Mov 164/384 Lay 1/13
G1 X99.055 Y93.327 E129.70822
M117 Mov 165/384 Lay 1/13
G1 X99.82 Y93.262 E130.06732
M117 Mov 166/384 Lay 1/13
G1 X100.33 Y93.25 E130.30592
M117 Mov 167/384 Lay 1/13
G1 X119.293 Y93.25 E139.17531
M117 Mov 168/384 Lay 1/13
G1 X120.088 Y93.261 E139.54718
M117 Mov 169/384 Lay 1/13
G1 X120.821 Y93.311 E139.89082
M117 Mov 170/384 Lay 1/13
G1 X121.544 Y93.441 E140.2344
M117 Mov 171/384 Lay 1/13
G1 X122.248 Y93.649 E140.57775
M117 Mov 172/384 Lay 1/13
G1 X122.926 Y93.932 E140.92138
M117 Mov 173/384 Lay 1/13
G1 X123.569 Y94.286 E141.26469
M117 Mov 174/384 Lay 1/13
G1 X124.17 Y94.709 E141.60843
M117 Mov 175/384 Lay 1/13
G1 X124.721 Y95.195 E141.95207
M117 Mov 176/384 Lay 1/13
G1 X125.216 Y95.737 E142.29539
M117 Mov 177/384 Lay 1/13
G1 X125.65 Y96.33 E142.63909
M117 Mov 178/384 Lay 1/13
G1 X126.016 Y96.967 E142.98271
M117 Mov 179/384 Lay 1/13
G1 X126.311 Y97.64 E143.3264
M117 Mov 180/384 Lay 1/13
G1 X126.531 Y98.341 E143.67004
M117 Mov 181/384 Lay 1/13
G1 X126.674 Y99.061 E144.01337
M117 Mov 182/384 Lay 1/13
G1 X126.738 Y99.82 E144.36963
M117 Mov 183/384 Lay 1/13
G1 X126.75 Y100.33 E144.60824
M117 Mov 184/384 Lay 1/13
G1 X126.749 Y119.348 E153.50335
M117 Mov 185/384 Lay 1/13
G1 X126.74 Y120.075 E153.84341
M117 Mov 186/384 Lay 1/13
G1 X126.691 Y120.807 E154.18655
M117 Mov 187/384 Lay 1/13
G1 X126.563 Y121.531 E154.53043
M117 Mov 188/384 Lay 1/13
G1 X126.357 Y122.236 E154.87396
M117 Mov 189/384 Lay 1/13
G1 X126.075 Y122.914 E155.21741
M117 Mov 190/384 Lay 1/13
G1 X125.721 Y123.558 E155.56113
M117 Mov 191/384 Lay 1/13
G1 X125.3 Y124.16 E155.90472
M117 Mov 192/384 Lay 1/13
G1 X124.816 Y124.712 E156.24809
M117 Mov 193/384 Lay 1/13
G1 X124.274 Y125.208 E156.59172
M117 Mov 194/384 Lay 1/13
G1 X123.682 Y125.643 E156.93533
M117 Mov 195/384 Lay 1/13
G1 X123.046 Y126.01 E157.27877
M117 Mov 196/384 Lay 1/13
G1 X122.374 Y126.307 E157.62241
M117 Mov 197/384 Lay 1/13
G1 X121.673 Y126.528 E157.96619
M117 Mov 198/384 Lay 1/13
G1 X120.953 Y126.672 E158.30962
M117 Mov 199/384 Lay 1/13
G1 X120.18 Y126.738 E158.67248
M117 Mov 200/384 Lay 1/13
G1 X119.67 Y126.75 E158.91108
M117 Mov 201/384 Lay 1/13
G1 X100.62 Y126.749 E167.82116
M117 Mov 202/384 Lay 1/13
G1 X99.922 Y126.74 E168.14766
M117 Mov 203/384 Lay 1/13
G1 X99.189 Y126.691 E168.49126
M117 Mov 204/384 Lay 1/13
G1 X98.466 Y126.562 E168.83477
M117 Mov 205/384 Lay 1/13
G1 X97.761 Y126.356 E169.1783
M117 Mov 206/384 Lay 1/13
G1 X97.083 Y126.074 E169.52175
M117 Mov 207/384 Lay 1/13
G1 X96.439 Y125.72 E169.86547
M117 Mov 208/384 Lay 1/13
G1 X95.838 Y125.298 E170.20894
M117 Mov 209/384 Lay 1/13
G1 X95.286 Y124.813 E170.55262
M117 Mov 210/384 Lay 1/13
G1 X94.79 Y124.271 E170.89626
M117 Mov 211/384 Lay 1/13
G1 X94.355 Y123.679 E171.23986
M117 Mov 212/384 Lay 1/13
G1 X93.988 Y123.043 E171.5833
M117 Mov 213/384 Lay 1/13
G1 X93.692 Y122.37 E171.92718
M117 Mov 214/384 Lay 1/13
G1 X93.471 Y121.67 E172.27051
M117 Mov 215/384 Lay 1/13
G1 X93.327 Y120.949 E172.6144
M117 Mov 216/384 Lay 1/13
G1 X93.261 Y120.173 E172.97866
M117 Mov 217/384 Lay 1/13
G1 X93.25 Y119.658 E173.21959
M117 Mov 218/384 Lay 1/13
G1 X93.251 Y100.583 E182.14137
M117 Mov 219/384 Lay 1/13
G1 X93.26 Y99.918 E182.45243
M117 Mov 220/384 Lay 1/13
G1 X93.31 Y99.185 E182.79606
M117 Mov 221/384 Lay 1/13
G1 X93.439 Y98.462 E183.13957
M117 Mov 222/384 Lay 1/13
G1 X93.646 Y97.757 E183.48323
M117 Mov 223/384 Lay 1/13
G1 X93.928 Y97.079 E183.82668
M117 Mov 224/384 Lay 1/13
G1 X94.283 Y96.435 E184.17063
M117 Mov 225/384 Lay 1/13
G1 X94.705 Y95.834 E184.5141
M117 Mov 226/384 Lay 1/13
G1 X95.19 Y95.283 E184.85743
M117 Mov 227/384 Lay 1/13
G0 F600 X96.655 Y95.97
M117 Mov 228/384 Lay 1/13
G1 F120 X97.178 Y95.588 E185.16035
M117 Mov 229/384 Lay 1/13
G1 X97.744 Y95.273 E185.46332
M117 Mov 230/384 Lay 1/13
G1 X98.344 Y95.03 E185.76609
M117 Mov 231/384 Lay 1/13
G1 X98.97 Y94.863 E186.06912
M117 Mov 232/384 Lay 1/13
G1 X99.862 Y94.761 E186.48905
M117 Mov 233/384 Lay 1/13
G1 X100.33 Y94.75 E186.708
M117 Mov 234/384 Lay 1/13
G1 X119.293 Y94.75 E195.57739
M117 Mov 235/384 Lay 1/13
G1 X120.066 Y94.761 E195.93897
M117 Mov 236/384 Lay 1/13
G1 X120.712 Y94.81 E196.24199
M117 Mov 237/384 Lay 1/13
G1 X121.347 Y94.938 E196.54497
M117 Mov 238/384 Lay 1/13
G1 X121.961 Y95.144 E196.84788
M117 Mov 239/384 Lay 1/13
G1 X122.546 Y95.423 E197.15102
M117 Mov 240/384 Lay 1/13
G1 X123.091 Y95.773 E197.45397
M117 Mov 241/384 Lay 1/13
G1 X123.589 Y96.187 E197.75687
M117 Mov 242/384 Lay 1/13
G1 X124.033 Y96.659 E198.05996
M117 Mov 243/384 Lay 1/13
G1 X124.414 Y97.182 E198.3626
M117 Mov 244/384 Lay 1/13
G1 X124.729 Y97.749 E198.66598
M117 Mov 245/384 Lay 1/13
G1 X124.971 Y98.349 E198.96858
M117 Mov 246/384 Lay 1/13
G1 X125.138 Y98.975 E199.27161
M117 Mov 247/384 Lay 1/13
G1 X125.239 Y99.862 E199.68916
M117 Mov 248/384 Lay 1/13
G1 X125.25 Y100.33 E199.90811
M117 Mov 249/384 Lay 1/13
G1 X125.25 Y119.329 E208.79434
M117 Mov 250/384 Lay 1/13
G1 X125.241 Y120.056 E209.13439
M117 Mov 251/384 Lay 1/13
G1 X125.193 Y120.702 E209.43737
M117 Mov 252/384 Lay 1/13
G1 X125.065 Y121.337 E209.74035
M117 Mov 253/384 Lay 1/13
G1 X124.861 Y121.952 E210.04341
M117 Mov 254/384 Lay 1/13
G1 X124.583 Y122.537 E210.34635
M117 Mov 255/384 Lay 1/13
G1 X124.234 Y123.083 E210.64944
M117 Mov 256/384 Lay 1/13
G1 X123.821 Y123.582 E210.9524
M117 Mov 257/384 Lay 1/13
G1 X123.35 Y124.026 E211.25515
M117 Mov 258/384 Lay 1/13
G1 X122.827 Y124.409 E211.55835
M117 Mov 259/384 Lay 1/13
G1 X122.262 Y124.725 E211.86113
M117 Mov 260/384 Lay 1/13
G1 X121.661 Y124.968 E212.16434
M117 Mov 261/384 Lay 1/13
G1 X121.036 Y125.136 E212.46704
M117 Mov 262/384 Lay 1/13
G1 X120.138 Y125.239 E212.88981
M117 Mov 263/384 Lay 1/13
G1 X119.67 Y125.25 E213.10876
M117 Mov 264/384 Lay 1/13
G1 X100.639 Y125.25 E222.00995
M117 Mov 265/384 Lay 1/13
G1 X99.941 Y125.241 E222.33645
M117 Mov 266/384 Lay 1/13
G1 X99.295 Y125.192 E222.63947
M117 Mov 267/384 Lay 1/13
G1 X98.66 Y125.065 E222.94235
M117 Mov 268/384 Lay 1/13
G1 X98.046 Y124.86 E223.24511
M117 Mov 269/384 Lay 1/13
G1 X97.461 Y124.581 E223.54826
M117 Mov 270/384 Lay 1/13
G1 X96.915 Y124.233 E223.85109
M117 Mov 271/384 Lay 1/13
G1 X96.416 Y123.819 E224.15435
M117 Mov 272/384 Lay 1/13
G1 X95.972 Y123.348 E224.4571
M117 Mov 273/384 Lay 1/13
G1 X95.59 Y122.825 E224.76002
M117 Mov 274/384 Lay 1/13
G1 X95.274 Y122.259 E225.06322
M117 Mov 275/384 Lay 1/13
G1 X95.031 Y121.659 E225.36599
M117 Mov 276/384 Lay 1/13
G1 X94.863 Y121.033 E225.66914
M117 Mov 277/384 Lay 1/13
G1 X94.761 Y120.133 E226.09279
M117 Mov 278/384 Lay 1/13
G1 X94.75 Y119.658 E226.31501
M117 Mov 279/384 Lay 1/13
G1 X94.75 Y100.603 E235.22743
